luts/apple-log-2/33x/Apple_LOG_2_to_Fujifilm_3513DI_D60_Rec709_G2-4.cube
TITLE "Apple LOG 2 to Fujifilm 3513DI D60 Rec709 G2-4"
#  
# Apple LOG 2 to Rec.709 Hybrid LUT
#  
# This hybrid LUT converts Apple LOG 2 to Rec.709 Gamma 2.4
#  
# Based on an original creative LUT included in DaVinci Resolve, adapted for a different color space.  
#  
# Created by Tobia Montanari | tobiamontanari.com
#  
# 
LUT_3D_SIZE 33
0.030533 0.036622 0.035416
0.030538 0.036623 0.035421
0.031084 0.037243 0.036778
0.052578 0.040407 0.038866
0.075953 0.046606 0.041221
0.094095 0.051138 0.042807
0.113298 0.053856 0.043746
0.133811 0.055257 0.042602
0.156395 0.056638 0.040416
0.181940 0.058109 0.036730
0.210389 0.059457 0.028398
0.242298 0.060418 0.019443
0.279193 0.060706 0.014005
0.321066 0.057073 0.021257
0.367079 0.041730 0.040456
0.416903 0.019945 0.062425
0.468346 0.008422 0.092423
0.518994 0.009683 0.118312
0.569836 0.016144 0.148966
0.619369 0.034985 0.186900
0.665202 0.063739 0.231418
0.706509 0.107853 0.280996
0.744500 0.157585 0.334643
0.779029 0.209851 0.392198
0.809715 0.267358 0.454561
0.835792 0.326621 0.520511
0.858914 0.389477 0.586122
0.881252 0.457626 0.648090
0.903615 0.531675 0.706630
0.925060 0.608611 0.760575
0.944512 0.680960 0.806937
0.959435 0.741902 0.842899
0.969314 0.789792 0.867933
0.030533 0.036622 0.035416
0.030533 0.036622 0.035416
0.030544 0.036630 0.035414
0.031164 0.039090 0.035276
0.035104 0.043076 0.038663
0.056583 0.047403 0.039714
0.071250 0.052489 0.040005
0.082891 0.056558 0.039854
0.101010 0.060483 0.039529
0.127743 0.064147 0.037400
0.160810 0.067875 0.033064
0.196127 0.072159 0.022759
0.234535 0.076958 0.005711
0.278821 0.082233 0.000437
0.331918 0.086712 0.000000
0.393291 0.089315 0.000000
0.454032 0.088726 0.000144
0.510869 0.080010 0.004419
0.561021 0.052368 0.032783
0.613049 0.058236 0.095410
0.663631 0.088355 0.158282
0.708454 0.126373 0.223806
0.747169 0.170218 0.291177
0.781292 0.219343 0.358771
0.811414 0.274616 0.428168
0.837197 0.332143 0.500359
0.860010 0.393707 0.571964
0.882160 0.461230 0.638485
0.904423 0.534746 0.699985
0.925753 0.611048 0.756413
0.944985 0.682579 0.804786
0.959754 0.742988 0.841763
0.969513 0.790619 0.867221
0.030533 0.036622 0.035416
0.030533 0.036622 0.035416
0.030533 0.036622 0.035416
0.030986 0.037555 0.035223
0.028493 0.042481 0.038612
0.037293 0.046523 0.040276
0.057211 0.050711 0.040801
0.071063 0.055343 0.040888
0.084799 0.060389 0.040728
0.108048 0.065667 0.040018
0.142457 0.070823 0.036544
0.182188 0.076505 0.029074
0.223630 0.082361 0.011331
0.268806 0.088703 0.001130
0.318096 0.094324 0.000023
0.370437 0.099774 0.000000
0.431912 0.106967 0.000000
0.500930 0.112875 0.000000
0.562152 0.107478 0.001979
0.611556 0.083129 0.035142
0.661409 0.095842 0.115940
0.708454 0.132090 0.193517
0.748056 0.174326 0.269544
0.782162 0.222633 0.343551
0.812012 0.276989 0.416880
0.837686 0.334014 0.492013
0.860409 0.395218 0.566226
0.882489 0.462504 0.634738
0.904716 0.535826 0.697360
0.926038 0.612076 0.754784
0.945193 0.683287 0.803747
0.959862 0.743364 0.841156
0.969617 0.791007 0.866973
0.030025 0.043678 0.038230
0.030633 0.038166 0.035709
0.030607 0.037151 0.035501
0.030603 0.036932 0.035446
0.030366 0.041504 0.037601
0.028817 0.046042 0.040284
0.042216 0.049566 0.041276
0.059927 0.053721 0.041646
0.075215 0.059229 0.041500
0.094433 0.066038 0.041060
0.126905 0.072892 0.038736
0.169587 0.079304 0.032343
0.214311 0.085801 0.016709
0.261806 0.093465 0.001949
0.313324 0.101608 0.000065
0.367152 0.108580 0.000000
0.420419 0.115477 0.000000
0.482040 0.124044 0.000000
0.555856 0.130629 0.000013
0.614699 0.119378 0.007729
0.660126 0.104915 0.073357
0.707827 0.135541 0.166047
0.748499 0.177032 0.250509
0.782792 0.224846 0.330438
0.812497 0.278830 0.407627
0.838056 0.335385 0.485112
0.860681 0.396228 0.561615
0.882733 0.463418 0.631716
0.904964 0.536724 0.695370
0.926198 0.612612 0.753397
0.945356 0.683842 0.802971
0.959956 0.743702 0.840659
0.969666 0.791237 0.866730
0.022872 0.061740 0.047678
0.032102 0.052641 0.039494
0.032479 0.049833 0.038580
0.031817 0.047917 0.037935
0.030533 0.048263 0.038485
0.029739 0.050653 0.041412
0.037783 0.053630 0.042681
0.053845 0.057173 0.043055
0.070108 0.061940 0.042640
0.086689 0.067985 0.042006
0.115094 0.074739 0.040050
0.157977 0.081644 0.034771
0.205393 0.089022 0.020531
0.255163 0.098267 0.003425
0.308620 0.107634 0.000087
0.364266 0.115347 0.000000
0.419102 0.122799 0.000000
0.471750 0.130510 0.000000
0.541823 0.140374 0.000000
0.614476 0.142571 0.001378
0.662209 0.122747 0.040273
0.706987 0.138296 0.138300
0.748801 0.179158 0.232345
0.783321 0.226666 0.318368
0.812910 0.280185 0.399250
0.838366 0.336498 0.479072
0.860954 0.397197 0.557537
0.882972 0.464301 0.629155
0.905166 0.537469 0.693622
0.926368 0.613184 0.752197
0.945482 0.684258 0.802237
0.960045 0.744006 0.840275
0.969728 0.791484 0.866543
0.003145 0.082738 0.053403
0.021760 0.069423 0.042264
0.022012 0.064601 0.041532
0.024407 0.061096 0.040953
0.026402 0.059870 0.041089
0.028976 0.063408 0.043435
0.043451 0.066816 0.044250
0.058970 0.071153 0.044991
0.074423 0.076846 0.044417
0.091198 0.083638 0.042874
0.119382 0.090240 0.039821
0.159775 0.095796 0.033310
0.204794 0.100386 0.017982
0.251878 0.105585 0.003675
0.304322 0.112600 0.000119
0.361404 0.120871 0.000000
0.418130 0.128985 0.000000
0.470745 0.136741 0.000000
0.528580 0.145711 0.000000
0.608463 0.154528 0.000000
0.665063 0.141589 0.018559
0.706601 0.142740 0.110461
0.748767 0.180761 0.214279
0.783731 0.228127 0.306874
0.813283 0.281330 0.391603
0.838658 0.337504 0.473598
0.861160 0.397933 0.553737
0.883159 0.464967 0.626780
0.905329 0.538075 0.692036
0.926525 0.613748 0.751186
0.945579 0.684544 0.801611
0.960111 0.744231 0.839929
0.969785 0.791665 0.866314
0.000187 0.099921 0.058473
0.005957 0.086028 0.044658
0.006018 0.081319 0.043571
0.011408 0.077647 0.043340
0.018544 0.074976 0.043666
0.034485 0.078486 0.044169
0.051939 0.083201 0.046068
0.063993 0.086308 0.044860
0.078020 0.091386 0.045077
0.095171 0.098359 0.042941
0.124171 0.105397 0.038677
0.165349 0.111778 0.030337
0.211586 0.117600 0.012658
0.259499 0.123584 0.002024
0.308864 0.126932 0.000038
0.360639 0.128038 0.000000
0.417070 0.134229 0.000000
0.470938 0.142296 0.000000
0.522916 0.150195 0.000000
0.597915 0.161080 0.000000
0.667067 0.158578 0.007579
0.707365 0.150081 0.083743
0.748631 0.182108 0.196345
0.784129 0.229385 0.295683
0.813615 0.282302 0.384165
0.838903 0.338294 0.468404
0.861371 0.398679 0.550274
0.883322 0.465578 0.624573
0.905480 0.538632 0.690616
0.926681 0.614307 0.750334
0.945690 0.684912 0.801026
0.960207 0.744576 0.839656
0.969818 0.791778 0.866070
0.000005 0.113595 0.064789
0.000324 0.099474 0.047061
0.001643 0.095700 0.045603
0.006124 0.092632 0.045982
0.019665 0.090081 0.046206
0.039104 0.092079 0.045154
0.056806 0.097291 0.044916
0.071427 0.101886 0.044814
0.083186 0.104881 0.043782
0.099227 0.110630 0.042675
0.128603 0.117797 0.037263
0.169927 0.124665 0.026644
0.217141 0.131685 0.008915
0.266228 0.139044 0.001095
0.316888 0.143903 0.000005
0.368370 0.144819 0.000000
0.419223 0.143402 0.000000
0.471141 0.147498 0.000000
0.522241 0.154867 0.000000
0.586656 0.164813 0.000000
0.665788 0.170497 0.002339
0.708827 0.158571 0.059675
0.748542 0.183633 0.178085
0.784415 0.230413 0.284066
0.813932 0.283223 0.376820
0.839148 0.339067 0.463366
0.861544 0.399275 0.546874
0.883482 0.466110 0.622415
0.905633 0.539152 0.689265
0.926813 0.614735 0.749400
0.945752 0.685116 0.800440
0.960259 0.744742 0.839313
0.969848 0.791885 0.865843
0.000000 0.129051 0.072420
0.000000 0.113026 0.049579
0.000336 0.110080 0.047824
0.006529 0.107714 0.048380
0.023145 0.105540 0.048318
0.040992 0.105702 0.047356
0.062648 0.111103 0.044375
0.079733 0.116232 0.043365
0.093210 0.121540 0.042616
0.105397 0.123837 0.041083
0.133765 0.130420 0.035373
0.174797 0.137750 0.021557
0.222692 0.145932 0.005218
0.272892 0.154616 0.000357
0.324732 0.160721 0.000000
0.377946 0.163443 0.000000
0.429103 0.162277 0.000000
0.475128 0.158124 0.000000
0.523106 0.160491 0.000000
0.577960 0.168759 0.000000
0.659191 0.180640 0.000495
0.711824 0.172152 0.034389
0.748592 0.186474 0.153453
0.784653 0.231548 0.268948
0.814311 0.284202 0.367639
0.839406 0.339835 0.457117
0.861755 0.399994 0.542611
0.883668 0.466793 0.619814
0.905796 0.539734 0.687558
0.926939 0.615158 0.748281
0.945859 0.685448 0.799787
0.960321 0.744970 0.838918
0.969897 0.792081 0.865611
0.000000 0.149070 0.084790
0.000000 0.130394 0.051560
0.000174 0.127645 0.048893
0.009603 0.125438 0.048599
0.025296 0.123284 0.048796
0.043234 0.122054 0.048217
0.066735 0.126301 0.045577
0.084595 0.131853 0.041407
0.100584 0.138250 0.038392
0.120562 0.144788 0.034712
0.142261 0.147097 0.029164
0.180859 0.154019 0.016281
0.228922 0.163565 0.003360
0.280055 0.173529 0.000015
0.333078 0.180942 0.000000
0.387836 0.185003 0.000000
0.441132 0.185519 0.000000
0.488053 0.181564 0.000000
0.528869 0.173641 0.000000
0.574956 0.174896 0.000000
0.643774 0.187675 0.000000
0.714474 0.189797 0.012688
0.749356 0.192382 0.120100
0.784906 0.232853 0.247732
0.814810 0.285329 0.354897
0.839780 0.340910 0.448614
0.862056 0.400910 0.536819
0.883914 0.467656 0.616360
0.906022 0.540519 0.685302
0.927113 0.615740 0.746845
0.946026 0.685970 0.798959
0.960411 0.745275 0.838436
0.969973 0.792373 0.865321
0.000000 0.173673 0.101396
0.000000 0.152108 0.054030
0.000122 0.149562 0.049271
0.008719 0.147533 0.045437
0.024959 0.145585 0.045177
0.045833 0.143938 0.045397
0.065682 0.144660 0.044097
0.084703 0.150636 0.038676
0.104946 0.157651 0.030484
0.130419 0.165936 0.023768
0.161352 0.174217 0.016420
0.192417 0.176958 0.008064
0.235694 0.184858 0.001911
0.287219 0.195978 0.000001
0.341400 0.204836 0.000000
0.397638 0.210365 0.000000
0.452910 0.212542 0.000000
0.502393 0.210706 0.000000
0.544697 0.203409 0.000000
0.582553 0.192400 0.000000
0.630312 0.194565 0.000000
0.709775 0.207957 0.001864
0.751847 0.204359 0.069071
0.785399 0.235679 0.216995
0.815419 0.286482 0.336462
0.840249 0.342167 0.437188
0.862456 0.402120 0.529083
0.884210 0.468653 0.611704
0.906329 0.541566 0.682330
0.927369 0.616622 0.745052
0.946214 0.686621 0.797867
0.960519 0.745613 0.837770
0.970035 0.792609 0.864897
0.000000 0.201597 0.122556
0.000000 0.177376 0.058386
0.000034 0.175318 0.050294
0.002661 0.173967 0.041828
0.017350 0.172679 0.035126
0.040646 0.171473 0.033816
0.059201 0.170191 0.034011
0.078685 0.173086 0.029677
0.105048 0.180849 0.018867
0.136395 0.190686 0.008037
0.173820 0.201643 0.004264
0.216159 0.212434 0.002769
0.251189 0.215159 0.000259
0.294559 0.221522 0.000015
0.349292 0.231742 0.000000
0.406809 0.238829 0.000000
0.463931 0.243034 0.000000
0.515710 0.243445 0.000000
0.560840 0.238860 0.000000
0.600262 0.228190 0.000000
0.633651 0.214378 0.000000
0.690903 0.220297 0.000037
0.756316 0.226006 0.022606
0.786599 0.242133 0.170563
0.816225 0.287798 0.308905
0.840909 0.343521 0.420702
0.862945 0.403485 0.518314
0.884631 0.469994 0.605103
0.906675 0.542727 0.678316
0.927703 0.617698 0.742479
0.946429 0.687320 0.796387
0.960660 0.746058 0.836920
0.970134 0.792982 0.864379
0.000000 0.232757 0.149639
0.000000 0.208224 0.067753
0.000003 0.204171 0.056307
0.000312 0.203596 0.043370
0.009146 0.203137 0.026491
0.026812 0.202869 0.013737
0.049587 0.202676 0.010095
0.071182 0.202508 0.009700
0.100060 0.207169 0.005759
0.137917 0.218526 0.001784
0.181253 0.230925 0.000336
0.229365 0.243921 0.000456
0.278637 0.256793 0.000260
0.317332 0.259558 0.000000
0.357164 0.260245 0.000000
0.415245 0.268795 0.000000
0.473746 0.274719 0.000000
0.527528 0.277359 0.000000
0.574972 0.275620 0.000000
0.617484 0.268719 0.000000
0.652536 0.256282 0.000000
0.680870 0.240637 0.000000
0.748006 0.248543 0.002126
0.789540 0.254047 0.097417
0.817602 0.291050 0.268364
0.841856 0.344820 0.396565
0.863582 0.405102 0.503128
0.885149 0.471540 0.595733
0.907130 0.544197 0.672849
0.928090 0.618966 0.739067
0.946734 0.688285 0.794443
0.960865 0.746768 0.835863
0.970263 0.793449 0.863703
0.000000 0.268592 0.182286
0.000000 0.246346 0.096547
0.000000 0.237610 0.064192
0.000005 0.237707 0.053107
0.001160 0.238008 0.036128
0.005491 0.238738 0.016635
0.028959 0.239974 0.005428
0.059827 0.241145 0.001329
0.091929 0.242400 0.000391
0.131825 0.249234 0.000107
0.182457 0.262620 0.000041
0.236336 0.276952 0.000026
0.291726 0.292583 0.000007
0.346464 0.307438 0.000004
0.390769 0.309874 0.000000
0.426772 0.303156 0.000000
0.482894 0.308127 0.000000
0.538168 0.312478 0.000000
0.587688 0.313039 0.000000
0.632476 0.309004 0.000000
0.670506 0.300491 0.000000
0.698980 0.286931 0.000000
0.731346 0.273265 0.000000
0.793752 0.277791 0.025225
0.819912 0.298552 0.204302
0.843364 0.346482 0.360063
0.864452 0.406768 0.481034
0.885829 0.473429 0.582450
0.907738 0.546022 0.665098
0.928615 0.620617 0.734403
0.947129 0.689504 0.791765
0.961112 0.747596 0.834409
0.970428 0.794049 0.862803
0.000000 0.310563 0.220665
0.000000 0.292500 0.148242
0.000000 0.282180 0.101500
0.000000 0.277871 0.072050
0.000002 0.278791 0.052343
0.000657 0.280351 0.028355
0.010741 0.282287 0.012287
0.030802 0.284521 0.004133
0.063542 0.286593 0.000483
0.114566 0.289548 0.000019
0.173051 0.298489 0.000004
0.235337 0.313925 0.000003
0.297746 0.331247 0.000000
0.359124 0.349133 0.000000
0.417800 0.363329 0.000145
0.469407 0.366289 0.000001
0.509631 0.358377 0.000000
0.551572 0.352825 0.000000
0.599968 0.353081 0.000000
0.646599 0.351237 0.000000
0.686928 0.345332 0.000000
0.721257 0.337362 0.000000
0.759465 0.330196 0.000000
0.799523 0.318048 0.000782
0.824956 0.312504 0.088512
0.846617 0.352600 0.304079
0.865716 0.408209 0.447374
0.886719 0.475481 0.562677
0.908540 0.548227 0.654145
0.929270 0.622545 0.727733
0.947629 0.690984 0.788024
0.961443 0.748671 0.832450
0.970646 0.794850 0.861597
0.000000 0.360040 0.269296
0.000000 0.346544 0.208602
0.000000 0.338155 0.170274
0.000000 0.330417 0.131168
0.000001 0.326669 0.098840
0.000028 0.327695 0.072459
0.001089 0.330288 0.048316
0.004053 0.333298 0.028271
0.017611 0.336814 0.012308
0.070795 0.340733 0.003143
0.146266 0.344945 0.000355
0.220727 0.356271 0.000007
0.294547 0.375101 0.000000
0.363787 0.394288 0.000000
0.428615 0.410564 0.000452
0.490510 0.422284 0.000568
0.551494 0.428833 0.000007
0.597582 0.423321 0.000000
0.633875 0.413447 0.000000
0.673340 0.406125 0.000000
0.715240 0.401772 0.000000
0.757058 0.400011 0.000000
0.799883 0.398846 0.000000
0.831860 0.387351 0.000000
0.844810 0.359397 0.012950
0.851380 0.362023 0.193800
0.869040 0.413141 0.395398
0.887882 0.477148 0.531232
0.909536 0.550595 0.637850
0.930099 0.624774 0.718305
0.948296 0.692924 0.782803
0.961858 0.749956 0.829736
0.970924 0.795854 0.859979
0.000000 0.413970 0.327023
0.000000 0.405436 0.273721
0.000000 0.399812 0.243629
0.000000 0.394134 0.215071
0.000000 0.388304 0.185195
0.000000 0.384236 0.156467
0.000000 0.383444 0.130927
0.000000 0.385159 0.108734
0.001787 0.388869 0.083877
0.020999 0.393987 0.052898
0.074687 0.399674 0.022221
0.176571 0.406214 0.004234
0.274691 0.421274 0.000236
0.357686 0.441797 0.000293
0.430790 0.459177 0.000366
0.498198 0.472201 0.005111
0.563781 0.482835 0.008984
0.631183 0.493272 0.000338
0.683222 0.493071 0.000000
0.726057 0.486351 0.000000
0.766385 0.479893 0.000000
0.805176 0.476768 0.000000
0.840115 0.473571 0.000000
0.865458 0.462764 0.000000
0.873478 0.435474 0.001195
0.866761 0.399590 0.063007
0.875537 0.423797 0.303299
0.890673 0.481284 0.481878
0.910801 0.552588 0.610380
0.931109 0.627066 0.704251
0.949062 0.694939 0.774813
0.962391 0.751580 0.825899
0.971275 0.797086 0.857835
0.000000 0.468027 0.389651
0.000000 0.464169 0.344201
0.000000 0.461506 0.319902
0.000000 0.458748 0.298152
0.000000 0.455686 0.277241
0.000000 0.452247 0.256285
0.000000 0.448569 0.234714
0.000000 0.446174 0.214371
0.000006 0.444929 0.190087
0.001989 0.447170 0.160827
0.017144 0.452594 0.121788
0.093934 0.459040 0.074463
0.224151 0.466891 0.029194
0.329942 0.484061 0.007042
0.419755 0.504189 0.006036
0.496966 0.519996 0.016682
0.568446 0.532529 0.028066
0.634881 0.543519 0.040649
0.701153 0.552736 0.007730
0.758206 0.556151 0.000115
0.805172 0.553981 0.000000
0.843533 0.550504 0.000000
0.873564 0.545456 0.000000
0.894501 0.535214 0.000006
0.901345 0.514271 0.001467
0.895678 0.484147 0.049928
0.891614 0.463176 0.200937
0.898198 0.493256 0.401058
0.913131 0.555547 0.564366
0.932389 0.629162 0.681589
0.949975 0.697078 0.762964
0.963039 0.753411 0.819766
0.971733 0.798687 0.854954
0.000000 0.520882 0.453270
0.000000 0.521321 0.417521
0.000000 0.520842 0.398852
0.000000 0.520082 0.382668
0.000000 0.519196 0.367572
0.000000 0.517994 0.352840
0.000000 0.516534 0.338210
0.000000 0.514840 0.323036
0.000000 0.512218 0.303047
0.000040 0.509260 0.276202
0.000801 0.508134 0.242262
0.020357 0.511576 0.203760
0.113736 0.518097 0.154955
0.265482 0.525232 0.084326
0.385376 0.541876 0.047940
0.480847 0.562116 0.055838
0.563765 0.578440 0.067198
0.637862 0.593242 0.103877
0.700137 0.603597 0.130247
0.760223 0.604558 0.045751
0.815962 0.606540 0.004644
0.860240 0.606912 0.000068
0.892030 0.603927 0.000001
0.912930 0.596393 0.000013
0.922725 0.583383 0.007542
0.923495 0.567452 0.073566
0.922292 0.552855 0.210781
0.917120 0.536521 0.320858
0.920163 0.566787 0.490298
0.934341 0.630878 0.641692
0.951131 0.699022 0.743698
0.963838 0.755485 0.810255
0.972256 0.800320 0.850057
0.000000 0.574728 0.516078
0.000000 0.578272 0.489857
0.000000 0.579116 0.476542
0.000000 0.579538 0.465154
0.000000 0.579711 0.454662
0.000000 0.579633 0.444605
0.000000 0.579420 0.434900
0.000000 0.578983 0.424694
0.000004 0.578197 0.411734
0.000007 0.576797 0.393456
0.000016 0.574119 0.366343
0.001881 0.570141 0.326902
0.031061 0.571641 0.282954
0.155017 0.578011 0.233583
0.321673 0.585859 0.167550
0.442986 0.602303 0.136146
0.544901 0.622903 0.143256
0.630927 0.639841 0.166318
0.701316 0.653840 0.198364
0.759993 0.662750 0.220146
0.813458 0.657310 0.122274
0.860250 0.654772 0.048247
0.896222 0.653542 0.025393
0.921232 0.650108 0.029768
0.936444 0.644321 0.064088
0.944667 0.639297 0.155006
0.947901 0.634559 0.254927
0.945393 0.623682 0.335870
0.938257 0.609030 0.423465
0.940106 0.639718 0.574868
0.952762 0.700281 0.710177
0.964866 0.757576 0.794568
0.972900 0.802052 0.842093
0.000000 0.628964 0.577277
0.000000 0.633486 0.557650
0.000000 0.634844 0.548243
0.000000 0.635735 0.540236
0.000004 0.636359 0.533123
0.000004 0.636772 0.526407
0.000004 0.637037 0.519915
0.000005 0.637204 0.513519
0.000010 0.637234 0.505256
0.000008 0.637036 0.493835
0.000017 0.636339 0.477439
0.000078 0.634555 0.452751
0.002221 0.631144 0.414834
0.037227 0.628890 0.362376
0.200146 0.636214 0.310380
0.376205 0.646916 0.253577
0.503802 0.663805 0.227871
0.610028 0.683760 0.236630
0.692703 0.699383 0.255910
0.758896 0.711561 0.283168
0.814745 0.719294 0.304252
0.862429 0.714522 0.245836
0.899412 0.709761 0.189476
0.927472 0.707002 0.168159
0.947290 0.705357 0.191616
0.959898 0.705079 0.244652
0.965675 0.704649 0.308959
0.966013 0.700876 0.376109
0.962104 0.690563 0.441855
0.954904 0.677736 0.516850
0.957114 0.706890 0.652692
0.966348 0.759373 0.766213
0.973761 0.803832 0.828676
0.000000 0.679395 0.635356
0.000000 0.683392 0.620070
0.000004 0.684765 0.612945
0.000021 0.685714 0.607239
0.000035 0.686403 0.602149
0.000043 0.686944 0.597388
0.000047 0.687387 0.593050
0.000048 0.687727 0.588608
0.000056 0.688086 0.583217
0.000058 0.688433 0.575896
0.000052 0.688682 0.565785
0.000251 0.688551 0.551049
0.003397 0.687714 0.529303
0.020621 0.685408 0.495218
0.082877 0.681745 0.441734
0.265965 0.690278 0.388911
0.436821 0.702462 0.335397
0.566108 0.719502 0.312829
0.670892 0.738231 0.322734
0.748344 0.752082 0.340895
0.811281 0.762755 0.366056
0.861427 0.770583 0.387894
0.901756 0.767653 0.348120
0.932579 0.764209 0.316744
0.955003 0.762810 0.311258
0.969686 0.763474 0.331803
0.977113 0.764863 0.372136
0.979420 0.765228 0.423336
0.978500 0.762296 0.479369
0.974256 0.753328 0.535726
0.968570 0.741577 0.602083
0.970090 0.766322 0.718089
0.975057 0.805306 0.802642
0.000000 0.722832 0.687448
0.000000 0.726216 0.676383
0.000003 0.727439 0.671266
0.000003 0.728304 0.667231
0.000007 0.728965 0.663464
0.000011 0.729500 0.660196
0.000076 0.729934 0.656917
0.000148 0.730329 0.653895
0.000289 0.730772 0.650112
0.000874 0.731308 0.645060
0.001885 0.731910 0.638274
0.004631 0.732497 0.628895
0.012209 0.733004 0.615628
0.030914 0.733155 0.596483
0.079990 0.732473 0.567310
0.179245 0.730740 0.521039
0.344688 0.737624 0.467661
0.497519 0.749703 0.417206
0.626761 0.766408 0.397166
0.724939 0.783521 0.407744
0.798694 0.795941 0.424992
0.855977 0.806208 0.448761
0.897565 0.814219 0.470499
0.930819 0.812162 0.441752
0.956093 0.810080 0.421786
0.973149 0.810418 0.423091
0.982748 0.812359 0.443734
0.987098 0.814763 0.478800
0.988585 0.816604 0.522636
0.987311 0.815922 0.571489
0.984050 0.809843 0.621191
0.979423 0.798591 0.676802
0.978588 0.812715 0.757453
0.000363 0.759148 0.730218
0.003375 0.762004 0.722535
0.005574 0.763087 0.719058
0.007361 0.763866 0.716403
0.009701 0.764502 0.713929
0.011773 0.765038 0.711821
0.014385 0.765507 0.709867
0.018500 0.765947 0.707880
0.023365 0.766453 0.705609
0.030150 0.767073 0.702537
0.040536 0.767844 0.698252
0.055342 0.768773 0.692583
0.077422 0.769882 0.684878
0.111019 0.771102 0.674067
0.158694 0.772340 0.658242
0.221328 0.773099 0.633737
0.300795 0.772799 0.593831
0.420976 0.777566 0.542071
0.558988 0.789155 0.495857
0.681696 0.805326 0.479361
0.773923 0.820977 0.489624
0.842539 0.832673 0.505285
0.891104 0.842647 0.527636
0.925176 0.850189 0.548802
0.952328 0.849033 0.528371
0.971995 0.848300 0.516165
0.983807 0.849481 0.521208
0.990286 0.852037 0.541240
0.993798 0.855257 0.572567
0.994628 0.858525 0.611925
0.993688 0.859772 0.655446
0.991316 0.855396 0.695592
0.987204 0.845298 0.727500
0.010780 0.790255 0.764876
0.025819 0.792664 0.759905
0.036019 0.793683 0.757804
0.043885 0.794404 0.756211
0.051394 0.795023 0.754756
0.058040 0.795552 0.753458
0.063847 0.796017 0.752327
0.069996 0.796457 0.751254
0.079886 0.797013 0.749950
0.092346 0.797701 0.748327
0.108890 0.798564 0.746238
0.132760 0.799662 0.743337
0.163069 0.801005 0.739502
0.201094 0.802646 0.734135
0.246861 0.804562 0.726422
0.296770 0.806577 0.714717
0.347941 0.808129 0.695120
0.404120 0.808496 0.660784
0.492550 0.811616 0.611073
0.618059 0.823070 0.569893
0.732251 0.838530 0.555904
0.819108 0.853009 0.564823
0.878954 0.864188 0.580139
0.919006 0.873554 0.602470
0.947431 0.880688 0.623584
0.968903 0.880487 0.608725
0.982789 0.880528 0.601483
0.990811 0.881991 0.608438
0.995769 0.884763 0.627645
0.997871 0.888313 0.656662
0.998228 0.891790 0.691585
0.997702 0.893024 0.726008
0.995869 0.890708 0.750056
0.161953 0.818361 0.797022
0.197982 0.820596 0.794794
0.212664 0.821502 0.793789
0.223407 0.822167 0.793047
0.232709 0.822744 0.792402
0.241042 0.823254 0.791776
0.248291 0.823704 0.791232
0.255040 0.824117 0.790727
0.262799 0.824600 0.790127
0.272405 0.825231 0.789252
0.284372 0.826015 0.788124
0.298831 0.826993 0.786689
0.314360 0.828243 0.784681
0.332756 0.829769 0.781996
0.355126 0.831598 0.777986
0.380851 0.833731 0.772157
0.411279 0.836127 0.763276
0.447100 0.838282 0.748131
0.490659 0.839377 0.720178
0.561375 0.841687 0.674625
0.674103 0.852843 0.637427
0.780984 0.867428 0.624650
0.859040 0.881039 0.634631
0.908858 0.891535 0.651606
0.942260 0.900134 0.673722
0.965378 0.906860 0.693801
0.980698 0.906963 0.682957
0.990100 0.907094 0.678494
0.996181 0.908680 0.686272
0.998966 0.911280 0.704182
0.999661 0.914470 0.729324
0.999806 0.917092 0.756147
0.999256 0.917685 0.775959
0.350239 0.843802 0.827409
0.366339 0.845548 0.826467
0.372692 0.846264 0.826045
0.377377 0.846783 0.825731
0.381296 0.847228 0.825449
0.384893 0.847635 0.825155
0.388095 0.847991 0.824894
0.391045 0.848325 0.824655
0.394480 0.848714 0.824374
0.398817 0.849206 0.824014
0.404538 0.849855 0.823478
0.411801 0.850677 0.822762
0.420662 0.851691 0.821836
0.431238 0.852960 0.820459
0.444089 0.854510 0.818568
0.460380 0.856404 0.815613
0.480465 0.858667 0.811224
0.505034 0.861251 0.804427
