luts/apple-log-2/33x/Apple_LOG_2_to_Fujifilm_3513DI_D55_Rec709_G2-4.cube
TITLE "Apple LOG 2 to Fujifilm 3513DI D55 Rec709 G2-4"
#  
# Apple LOG 2 to Rec.709 Hybrid LUT
#  
# This hybrid LUT converts Apple LOG 2 to Rec.709 Gamma 2.4
#  
# Based on an original creative LUT included in DaVinci Resolve, adapted for a different color space.  
#  
# Created by Tobia Montanari | tobiamontanari.com
#  
# 
LUT_3D_SIZE 9
0.031678 0.035981 0.033539
0.075313 0.045456 0.038686
0.154497 0.054841 0.036913
0.276162 0.059156 0.009937
0.462583 0.006360 0.082950
0.656572 0.057243 0.215055
0.799801 0.258978 0.425240
0.895525 0.517884 0.662019
0.965026 0.769787 0.812680
0.026878 0.060297 0.044483
0.031795 0.047263 0.036303
0.070167 0.060478 0.039715
0.203189 0.086782 0.013104
0.414783 0.120743 0.000000
0.654622 0.118574 0.027355
0.802934 0.271448 0.372684
0.897079 0.523494 0.649682
0.965454 0.771432 0.811364
0.000000 0.125746 0.067024
0.027674 0.102871 0.043980
0.094212 0.118488 0.037823
0.221276 0.142852 0.003136
0.424771 0.158970 0.000000
0.652227 0.177575 0.000050
0.804282 0.275276 0.342553
0.897700 0.525680 0.643930
0.965609 0.772003 0.810480
0.000000 0.226716 0.138999
0.014188 0.198138 0.016546
0.106768 0.202796 0.002777
0.278470 0.251416 0.000022
0.469621 0.268670 0.000000
0.645665 0.250967 0.000000
0.807429 0.281671 0.246936
0.899015 0.529995 0.629990
0.965992 0.773326 0.808656
0.000000 0.402649 0.304279
0.000000 0.378149 0.169661
0.003531 0.379045 0.069169
0.281199 0.412203 0.000150
0.562440 0.472743 0.001409
0.759477 0.468647 0.000000
0.865721 0.426537 0.000253
0.902543 0.538017 0.570757
0.967002 0.776860 0.803082
0.000000 0.612712 0.538811
0.000000 0.619886 0.497076
0.000007 0.620542 0.470470
0.007997 0.614475 0.384516
0.509480 0.646925 0.201031
0.811369 0.700613 0.274018
0.940520 0.687051 0.153430
0.954736 0.672380 0.408100
0.969512 0.783408 0.775420
0.086452 0.770138 0.714515
0.149578 0.775081 0.705788
0.178896 0.777136 0.701559
0.240166 0.781152 0.692033
0.378329 0.788083 0.650074
0.735769 0.817241 0.516486
0.945148 0.858113 0.579760
0.992279 0.862021 0.583376
0.992817 0.867958 0.699972
0.581279 0.865799 0.818549
0.591953 0.867648 0.818443
0.596644 0.868453 0.818348
0.606064 0.870071 0.818108
0.630304 0.874164 0.816874
0.688966 0.882447 0.805342
0.899146 0.907193 0.746110
0.990551 0.929811 0.792197
1.000000 0.932029 0.798445
0.811383 0.918105 0.859815
0.814006 0.918593 0.859966
0.815137 0.918807 0.860029
0.817666 0.919272 0.860166
0.824294 0.920509 0.860502
0.841897 0.923690 0.860941
0.878393 0.929590 0.857826
0.982232 0.946031 0.854751
1.000000 0.951324 0.867460
0.029977 0.037089 0.039924
0.041593 0.038806 0.053812
0.123712 0.045949 0.103718
0.261743 0.029205 0.132009
0.458112 0.000319 0.181222
0.652155 0.029029 0.274375
0.798319 0.254258 0.437355
0.895227 0.516843 0.662805
0.964965 0.769587 0.812894
0.031037 0.040324 0.036546
0.031222 0.039537 0.035935
0.083430 0.050272 0.039813
0.231743 0.063892 0.023140
0.442271 0.036914 0.056784
0.648466 0.086228 0.179009
0.801275 0.267909 0.390499
0.896732 0.522297 0.651206
0.965377 0.771159 0.811566
0.000000 0.114040 0.104801
0.007144 0.094408 0.054239
0.071085 0.098104 0.045714
0.228710 0.118801 0.014036
0.424627 0.110588 0.000044
0.645404 0.122070 0.100656
0.802756 0.272608 0.362096
0.897390 0.524620 0.645605
0.965560 0.771790 0.810768
0.000000 0.234552 0.211531
0.000000 0.206066 0.118487
0.006764 0.192857 0.053064
0.258656 0.240323 0.012695
0.493742 0.264351 0.000005
0.662037 0.228464 0.001213
0.805840 0.279064 0.274348
0.898700 0.529003 0.632068
0.965938 0.773148 0.808955
0.000000 0.404710 0.358649
0.000000 0.391618 0.268161
0.000138 0.383345 0.201431
0.181104 0.396639 0.053193
0.548274 0.464103 0.042468
0.762063 0.465370 0.000116
0.860690 0.414782 0.001228
0.902230 0.537369 0.574640
0.966941 0.776659 0.803431
0.000000 0.608407 0.545336
0.000000 0.616932 0.506279
0.000000 0.618345 0.481888
0.002749 0.614171 0.403623
0.495922 0.643247 0.203298
0.809257 0.698005 0.270703
0.939789 0.683998 0.146287
0.953649 0.668353 0.406035
0.969462 0.783324 0.776270
0.078438 0.769047 0.714906
0.139616 0.773999 0.706138
0.168766 0.776064 0.701866
0.230813 0.780169 0.692394
0.372388 0.787420 0.651327
0.733325 0.816427 0.515018
0.944866 0.857603 0.578451
0.992222 0.861531 0.582233
0.992701 0.867342 0.699520
0.579504 0.865463 0.818443
0.590263 0.867318 0.818333
0.594931 0.868126 0.818250
0.604467 0.869765 0.818039
0.628982 0.873904 0.816823
0.687804 0.882246 0.805456
0.898701 0.907034 0.745709
0.990531 0.929760 0.791988
1.000000 0.931972 0.798258
0.811046 0.918044 0.859800
0.813685 0.918534 0.859951
0.814822 0.918746 0.860014
0.817343 0.919219 0.860148
0.823979 0.920447 0.860487
0.841615 0.923640 0.860930
0.878176 0.929563 0.857876
0.982157 0.946015 0.854722
1.000000 0.951324 0.867460
0.020628 0.037861 0.105048
0.057319 0.032438 0.098430
0.115204 0.047654 0.128134
0.260074 0.023648 0.167998
0.458619 0.000141 0.219641
0.650442 0.017871 0.301248
0.796783 0.248850 0.452051
0.895154 0.516590 0.662698
0.964947 0.769497 0.813001
0.020162 0.053640 0.057200
0.025141 0.039255 0.078144
0.078730 0.049171 0.090514
0.236654 0.059897 0.113708
0.446447 0.021752 0.148625
0.647826 0.068068 0.243295
0.796640 0.264780 0.417882
0.896607 0.521865 0.651914
0.965349 0.771038 0.811659
0.000000 0.107392 0.114415
0.005284 0.093335 0.094588
0.050232 0.094352 0.089941
0.245463 0.101449 0.073746
0.434369 0.051631 0.059739
0.646564 0.088080 0.184091
0.798260 0.271210 0.390858
0.897268 0.524203 0.646380
0.965542 0.771725 0.810904
0.000000 0.233785 0.236379
0.000000 0.213673 0.179828
0.000000 0.199917 0.120667
0.246615 0.234612 0.042185
0.506526 0.249597 0.019263
0.666765 0.193156 0.026224
0.800978 0.280177 0.318131
0.898564 0.528558 0.632926
0.965907 0.773060 0.809088
0.000000 0.405526 0.383509
0.000000 0.398627 0.323622
0.000000 0.393895 0.278631
0.060639 0.387911 0.114832
0.540493 0.460580 0.071607
0.762929 0.463488 0.031121
0.844849 0.401904 0.078029
0.902106 0.537121 0.576485
0.966916 0.776569 0.803584
0.000000 0.603752 0.557606
0.000011 0.612541 0.521598
0.000045 0.614826 0.500915
0.010012 0.614121 0.438122
0.466336 0.639923 0.236454
0.804876 0.696943 0.280236
0.939312 0.683274 0.151098
0.953153 0.666530 0.405125
0.969439 0.783281 0.776642
0.074808 0.768526 0.715041
0.135480 0.773544 0.706278
0.164436 0.775607 0.702011
0.226594 0.779736 0.692562
0.369676 0.787124 0.651898
0.732195 0.816059 0.514367
0.944731 0.857371 0.577865
0.992206 0.861300 0.581708
0.992644 0.867042 0.699294
0.578761 0.865324 0.818407
0.589554 0.867190 0.818301
0.594215 0.867988 0.818228
0.603720 0.869619 0.817993
0.628339 0.873775 0.816788
0.687295 0.882157 0.805495
0.898469 0.906952 0.745513
0.990503 0.929719 0.791854
1.000000 0.931953 0.798188
0.810895 0.918016 0.859797
0.813545 0.918514 0.859939
0.814682 0.918715 0.860001
0.817184 0.919188 0.860138
0.823838 0.920419 0.860483
0.841484 0.923615 0.860930
0.878090 0.929550 0.857898
0.982122 0.945999 0.854708
1.000000 0.951324 0.867460
0.000366 0.014242 0.199316
0.066440 0.000008 0.189821
0.121519 0.002947 0.200915
0.253860 0.021502 0.227679
0.459614 0.000081 0.279409
0.652205 0.020836 0.349861
0.795104 0.242556 0.479114
0.894369 0.513736 0.668230
0.964870 0.769196 0.813279
0.000000 0.064370 0.182413
0.009161 0.018005 0.179864
0.079120 0.016474 0.185942
0.236769 0.043408 0.212099
0.452115 0.009503 0.252253
0.649817 0.062122 0.323764
0.793677 0.253857 0.460204
0.895320 0.520122 0.656110
0.965300 0.770874 0.811855
0.000000 0.124697 0.204839
0.000147 0.088940 0.203406
0.008557 0.061511 0.198524
0.219793 0.072865 0.203255
0.443478 0.034172 0.218051
0.649369 0.081069 0.291931
0.795161 0.261452 0.441492
0.896055 0.522562 0.650369
0.965486 0.771568 0.811200
0.000000 0.227227 0.274190
0.000000 0.218885 0.261336
0.000000 0.213685 0.253207
0.211740 0.247344 0.248972
0.513379 0.227701 0.213703
0.657532 0.138302 0.208284
0.797886 0.272987 0.397263
0.897538 0.527209 0.637807
0.965850 0.772847 0.809354
0.000000 0.408663 0.425619
0.000000 0.406513 0.394290
0.000000 0.406658 0.372626
0.000279 0.404073 0.291556
0.529006 0.462700 0.165036
0.756566 0.454351 0.196492
0.833443 0.382215 0.237332
0.901433 0.536662 0.585440
0.966865 0.776400 0.803891
0.000000 0.598906 0.583911
0.000000 0.610692 0.559476
0.000003 0.614781 0.545877
0.001356 0.620167 0.507019
0.348840 0.634413 0.312988
0.796446 0.696570 0.314242
0.928457 0.691041 0.289273
0.952073 0.662752 0.403756
0.969393 0.783210 0.777458
0.085248 0.765593 0.716570
0.133579 0.770843 0.708332
0.156974 0.773024 0.704330
0.209793 0.777274 0.694996
0.350574 0.785488 0.656982
0.726089 0.815012 0.516131
0.944436 0.856913 0.576751
0.992155 0.860822 0.580593
0.992527 0.866442 0.698854
0.577107 0.865009 0.818310
0.587994 0.866881 0.818206
0.592622 0.867684 0.818143
0.602231 0.869331 0.817913
0.627042 0.873523 0.816739
0.686233 0.881976 0.805608
0.898044 0.906802 0.745163
0.990485 0.929659 0.791650
1.000000 0.931903 0.798033
0.810575 0.917956 0.859774
0.813232 0.918452 0.859922
0.814386 0.918665 0.859987
0.816875 0.919131 0.860124
0.823533 0.920370 0.860468
0.841215 0.923570 0.860930
0.877896 0.929524 0.857939
0.982071 0.945997 0.854689
1.000000 0.951324 0.867460
0.000000 0.000000 0.337031
0.006957 0.000000 0.315143
0.078947 0.000000 0.312631
0.240887 0.000000 0.334676
0.454660 0.000755 0.377458
0.654422 0.027287 0.436871
0.797418 0.249397 0.536486
0.892895 0.508206 0.689036
0.964766 0.768819 0.813678
0.000000 0.002700 0.337323
0.004629 0.000000 0.314497
0.066003 0.000000 0.310491
0.238468 0.000001 0.334232
0.455261 0.001282 0.374936
0.654867 0.036550 0.432157
0.797711 0.253435 0.532515
0.893152 0.511218 0.684739
0.965088 0.770060 0.812612
0.000000 0.053542 0.339851
0.000000 0.009521 0.333407
0.001053 0.000024 0.309424
0.200605 0.000111 0.335272
0.444763 0.008690 0.369580
0.652124 0.066807 0.423455
0.796318 0.262022 0.524702
0.893391 0.514888 0.677816
0.965272 0.770767 0.812007
0.000000 0.233365 0.411061
0.000000 0.218000 0.408923
0.000000 0.197958 0.406168
0.070538 0.189738 0.409596
0.467704 0.162428 0.397458
0.652316 0.104358 0.397443
0.798983 0.276370 0.504297
0.894648 0.519744 0.669178
0.965661 0.772195 0.810378
0.000000 0.409280 0.493505
0.000000 0.412161 0.491578
0.000000 0.413081 0.489530
0.000000 0.418408 0.483975
0.482023 0.486077 0.471350
0.749443 0.436975 0.436688
0.818353 0.349809 0.438594
0.897897 0.531180 0.638065
0.966693 0.775810 0.804966
0.000000 0.602259 0.634696
0.000000 0.614568 0.620801
0.000000 0.619867 0.615010
0.000002 0.629484 0.599560
0.093502 0.645492 0.515910
0.784969 0.706845 0.409600
0.920763 0.705084 0.474734
0.938204 0.654941 0.526265
0.969260 0.782991 0.779765
0.057540 0.757204 0.733302
0.094629 0.763333 0.727543
0.111499 0.765865 0.724787
0.150150 0.770861 0.718586
0.262420 0.782177 0.695750
0.649105 0.808916 0.561649
0.938157 0.855440 0.591181
0.988851 0.860880 0.608735
0.992216 0.864797 0.697634
0.571173 0.863893 0.817785
0.582444 0.865820 0.817714
0.587281 0.866653 0.817667
0.597240 0.868365 0.817499
0.622935 0.872707 0.816473
0.683140 0.881451 0.805916
0.896513 0.906323 0.744219
0.990414 0.929490 0.791038
1.000000 0.931767 0.797557
0.809700 0.917793 0.859724
0.812393 0.918291 0.859876
0.813569 0.918515 0.859940
0.816002 0.918967 0.860075
0.822729 0.920219 0.860430
0.840467 0.923437 0.860921
0.877331 0.929455 0.858074
0.981900 0.945953 0.854618
1.000000 0.951324 0.867460
0.000000 0.000054 0.466127
0.000000 0.000051 0.465907
0.000000 0.000051 0.465335
0.048513 0.000000 0.431368
0.409296 0.000000 0.477350
0.651631 0.048723 0.542363
0.802003 0.265208 0.617187
0.895291 0.517742 0.728551
0.963806 0.765820 0.822458
0.000000 0.000051 0.465496
0.000000 0.000051 0.465294
0.000000 0.000047 0.462910
0.069002 0.000000 0.428990
0.416212 0.000000 0.478185
0.653177 0.049108 0.542260
0.802332 0.265801 0.617028
0.895357 0.517947 0.728436
0.963806 0.765790 0.822389
0.000000 0.000050 0.465229
0.000000 0.000047 0.465018
0.000000 0.000047 0.461082
0.078399 0.000000 0.428148
0.419259 0.000000 0.478576
0.653874 0.049282 0.542237
0.802467 0.266052 0.616957
0.895392 0.518063 0.728392
0.963850 0.765971 0.822243
0.000000 0.044779 0.478249
0.000000 0.045015 0.478091
0.000000 0.035361 0.475633
0.009353 0.000007 0.438453
0.406723 0.000653 0.488119
0.651437 0.079302 0.541059
0.800856 0.274064 0.613314
0.895784 0.523964 0.721711
0.964193 0.767322 0.821247
0.000000 0.396474 0.605529
0.000000 0.396459 0.605340
0.000000 0.391929 0.603908
0.000000 0.374162 0.598567
0.337678 0.409360 0.615423
0.705616 0.350747 0.601311
0.806505 0.309176 0.599244
0.899214 0.537987 0.712014
0.965130 0.770935 0.818145
0.000000 0.613575 0.697843
0.000000 0.618223 0.693251
0.000000 0.622318 0.692230
0.000000 0.631237 0.691053
0.010409 0.651574 0.684405
0.742978 0.735521 0.687467
0.910168 0.698691 0.672992
0.923649 0.627539 0.681980
0.967662 0.779956 0.805374
0.027199 0.755984 0.762257
0.052356 0.762271 0.759772
0.066328 0.764905 0.758694
0.098390 0.770190 0.756290
0.197781 0.783243 0.749127
0.483217 0.811681 0.710464
0.932079 0.866780 0.663652
0.985581 0.877315 0.722718
0.989240 0.866102 0.753887
0.513034 0.854921 0.817180
0.527295 0.857115 0.817457
0.533169 0.858054 0.817564
0.545468 0.860013 0.817720
0.576571 0.865043 0.817813
0.647860 0.876474 0.814489
0.853464 0.901303 0.759633
0.988439 0.928426 0.791124
0.999985 0.933144 0.806520
0.807302 0.917346 0.859590
0.810015 0.917853 0.859740
0.811229 0.918077 0.859813
0.813713 0.918543 0.859951
0.820524 0.919803 0.860317
0.838380 0.923059 0.860902
0.875805 0.929237 0.858389
0.981357 0.945828 0.854420
1.000000 0.951324 0.867460
0.000000 0.097875 0.569199
0.000000 0.097690 0.569110
0.000000 0.097647 0.569090
0.000000 0.097486 0.569015
0.018669 0.010016 0.545280
0.603576 0.006163 0.611645
0.806296 0.303943 0.690446
0.899056 0.535176 0.769272
0.965404 0.775119 0.839089
0.000000 0.097449 0.568992
0.000000 0.097256 0.568901
0.000000 0.097222 0.568885
0.000000 0.097082 0.568823
0.023433 0.008800 0.544966
0.606072 0.006489 0.612091
0.806610 0.304361 0.690519
0.899130 0.535396 0.769282
0.965405 0.775089 0.839053
0.000000 0.097222 0.568885
0.000000 0.097088 0.568825
0.000000 0.097002 0.568787
0.000000 0.096867 0.568720
0.025593 0.009149 0.544505
0.607192 0.006636 0.612284
0.806764 0.304583 0.690556
0.899166 0.535501 0.769288
0.965404 0.775076 0.839038
0.000000 0.096813 0.568699
0.000000 0.096670 0.568626
0.000000 0.096636 0.568609
0.000000 0.096443 0.568518
0.032925 0.011160 0.543210
0.609373 0.006721 0.612657
0.807072 0.305014 0.690638
0.899247 0.535736 0.769312
0.965400 0.775057 0.839003
0.000000 0.131969 0.579305
0.000000 0.132117 0.579326
0.000000 0.132177 0.579329
0.000000 0.132334 0.579354
0.022634 0.010065 0.542391
0.611924 0.028691 0.615879
0.807152 0.308271 0.690683
0.899835 0.539497 0.768218
0.965661 0.776148 0.838743
0.000000 0.550221 0.729050
0.000000 0.550255 0.729038
0.000000 0.550257 0.729024
0.000000 0.550260 0.729003
0.000000 0.536409 0.722588
0.627572 0.667000 0.767072
0.876549 0.610528 0.765838
0.908178 0.575442 0.765814
0.968102 0.786302 0.836390
0.000000 0.763671 0.791523
0.000029 0.763877 0.791376
0.031325 0.764587 0.789580
0.073468 0.768713 0.788626
0.134389 0.779753 0.788387
0.337091 0.805715 0.790938
0.913848 0.888634 0.824108
0.981336 0.879803 0.824972
0.982305 0.851735 0.830245
0.482620 0.852031 0.824203
0.498583 0.854245 0.824883
0.504782 0.855197 0.825176
0.517177 0.857139 0.825775
0.548856 0.862255 0.827291
0.619306 0.874366 0.830311
0.765829 0.898801 0.826612
0.986641 0.933844 0.824075
0.999217 0.940177 0.850707
0.780429 0.912639 0.858858
0.783913 0.913288 0.859115
0.785452 0.913576 0.859234
0.788606 0.914162 0.859465
0.797071 0.915738 0.860079
0.816624 0.919408 0.861376
0.860464 0.927445 0.863041
0.973014 0.945452 0.859656
1.000000 0.951641 0.869157
0.000000 0.327606 0.675642
0.000000 0.327524 0.675614
0.000000 0.327524 0.675613
0.000000 0.327497 0.675600
0.000000 0.327357 0.675541
0.001514 0.274798 0.658071
0.774049 0.274607 0.716644
0.907732 0.576257 0.801812
0.968492 0.790582 0.853917
0.000000 0.327433 0.675568
0.000000 0.327433 0.675568
0.000000 0.327424 0.675565
0.000000 0.327339 0.675535
0.000000 0.327258 0.675503
0.005205 0.271350 0.656716
0.774682 0.275334 0.716861
0.907817 0.576474 0.801858
0.968505 0.790635 0.853917
0.000000 0.327433 0.675568
0.000000 0.327340 0.675535
0.000000 0.327340 0.675535
0.000000 0.327313 0.675523
0.000000 0.327179 0.675475
0.006891 0.269817 0.656114
0.774979 0.275649 0.716944
0.907854 0.576590 0.801887
0.968519 0.790699 0.853929
0.000000 0.327280 0.675511
0.000000 0.327258 0.675503
0.000000 0.327235 0.675495
0.000000 0.327190 0.675478
0.000000 0.327058 0.675430
0.010511 0.266365 0.654763
0.775593 0.276370 0.717151
0.907920 0.576763 0.801926
0.968531 0.790748 0.853929
0.000000 0.326961 0.675386
0.000000 0.326891 0.675362
0.000000 0.326891 0.675362
0.000000 0.326863 0.675352
0.000000 0.326716 0.675296
0.028655 0.254659 0.650733
0.777116 0.278246 0.717699
0.908123 0.577323 0.802051
0.968560 0.790858 0.853933
0.000000 0.331659 0.676818
0.000000 0.331589 0.676793
0.000000 0.331595 0.676793
0.000000 0.331528 0.676765
0.000000 0.331463 0.676739
0.017859 0.230593 0.648120
0.781097 0.287749 0.720129
0.908566 0.579234 0.802116
0.968704 0.791564 0.853985
0.000000 0.609564 0.766279
0.000000 0.609564 0.766286
0.000000 0.609564 0.766286
0.000000 0.609565 0.766284
0.000000 0.609568 0.766275
0.000000 0.606631 0.765865
0.852650 0.855080 0.849408
0.967552 0.831637 0.854009
0.973551 0.815202 0.855271
0.515594 0.856621 0.833399
0.515789 0.856664 0.833414
0.515789 0.856664 0.833414
0.516069 0.856746 0.833440
0.525126 0.859530 0.834242
0.585813 0.869970 0.838685
0.707056 0.892081 0.848335
0.981894 0.940825 0.872774
0.998243 0.941847 0.875224
0.773502 0.912047 0.860932
0.776614 0.912632 0.861207
0.777980 0.912885 0.861319
0.780924 0.913442 0.861572
0.788738 0.914914 0.862235
0.807254 0.918455 0.863841
0.849372 0.926516 0.867294
0.933485 0.941460 0.872038
1.000000 0.953285 0.877741
0.000000 0.501259 0.739345
0.000000 0.501259 0.739345
0.000000 0.501259 0.739345
0.000000 0.501259 0.739345
0.000000 0.501259 0.739345
0.000000 0.501259 0.739345
0.006714 0.471372 0.732877
0.892017 0.546266 0.803971
0.973205 0.813901 0.863432
0.000000 0.501259 0.739345
0.000000 0.501259 0.739345
0.000000 0.501259 0.739345
0.000000 0.501259 0.739345
0.000000 0.501259 0.739345
0.000000 0.501259 0.739345
0.009867 0.470631 0.732378
0.892167 0.546627 0.804060
0.973220 0.813962 0.863447
0.000000 0.501259 0.739345
0.000000 0.501259 0.739345
0.000000 0.501259 0.739345
0.000000 0.501259 0.739345
0.000000 0.501259 0.739345
0.000000 0.501259 0.739345
0.011221 0.470294 0.732150
0.892215 0.546752 0.804097
0.973236 0.814023 0.863447
0.000000 0.501259 0.739345
0.000000 0.501259 0.739345
0.000000 0.501259 0.739345
0.000000 0.501259 0.739345
0.000000 0.501259 0.739345
0.000000 0.501259 0.739345
0.014278 0.469615 0.731666
0.892346 0.547067 0.804175
0.973251 0.814084 0.863462
0.000000 0.501259 0.739345
0.000000 0.501259 0.739345
0.000000 0.501259 0.739345
0.000000 0.501259 0.739345
0.000000 0.501259 0.739345
0.000000 0.501259 0.739345
0.022474 0.467567 0.730290
0.892703 0.547906 0.804387
0.973270 0.814221 0.863482
0.000000 0.501259 0.739345
0.000000 0.501259 0.739345
0.000000 0.501259 0.739345
0.000000 0.501259 0.739345
0.000000 0.501259 0.739345
0.000000 0.501259 0.739345
0.057543 0.458848 0.728428
0.893615 0.550285 0.804981
0.973358 0.814618 0.863543
0.000000 0.503607 0.740127
0.000000 0.503610 0.740127
0.000000 0.503613 0.740127
0.000000 0.503615 0.740130
0.000000 0.503627 0.740135
0.000000 0.503665 0.740150
0.079472 0.430358 0.725880
0.896624 0.559113 0.807127
0.973612 0.815914 0.863738
0.000000 0.624733 0.778050
0.000000 0.624745 0.778050
0.000000 0.624745 0.778050
0.000000 0.624745 0.778050
0.000000 0.624745 0.778050
0.000000 0.624745 0.778050
0.000000 0.624521 0.777974
0.966749 0.934067 0.877918
0.995653 0.929846 0.880362
0.801495 0.917647 0.864988
0.801495 0.917647 0.864988
0.801495 0.917647 0.864988
0.801495 0.917647 0.864988
0.801495 0.917647 0.864988
0.811453 0.919592 0.865926
0.842390 0.925581 0.868885
0.900153 0.936577 0.874416
1.000000 0.954604 0.884871
