luts/apple-log-2/33x/Apple_LOG_2_to_Fujifilm_3513DI_D65_Rec709_G2-4.cube
TITLE "Apple LOG 2 to Fujifilm 3513DI D65 Rec709 G2-4"
#  
# Apple LOG 2 to Rec.709 Hybrid LUT
#  
# This hybrid LUT converts Apple LOG 2 to Rec.709 Gamma 2.4
#  
# Based on an original creative LUT included in DaVinci Resolve, adapted for a different color space.  
#  
# Created by Tobia Montanari | tobiamontanari.com
#  
# 
LUT_3D_SIZE 5
0.029648 0.037140 0.037064
0.158007 0.057981 0.043588
0.473432 0.013624 0.100815
0.818250 0.274391 0.480532
0.973037 0.806500 0.916899
0.000000 0.131957 0.077439
0.092341 0.124106 0.046874
0.432789 0.164912 0.000000
0.822931 0.291554 0.389776
0.973587 0.808823 0.914473
0.000000 0.422237 0.345873
0.001182 0.397196 0.097367
0.565158 0.491476 0.019133
0.880151 0.442840 0.001771
0.974922 0.813943 0.906370
0.004991 0.807396 0.810388
0.043110 0.814205 0.794339
0.316075 0.824943 0.735063
0.949472 0.899624 0.662281
0.998262 0.909695 0.794284
0.800412 0.961288 0.970733
0.804410 0.962033 0.970993
0.814165 0.963829 0.971576
0.871886 0.973523 0.969024
1.000000 0.996475 0.980529
0.009256 0.038256 0.117563
0.116962 0.049220 0.143594
0.469501 0.000350 0.246619
0.815141 0.263774 0.510111
0.972958 0.806195 0.917250
0.000000 0.112222 0.129541
0.043986 0.098545 0.101289
0.444593 0.061958 0.076452
0.816489 0.287470 0.442983
0.973510 0.808545 0.914940
0.000000 0.423346 0.432163
0.000000 0.413544 0.317871
0.544267 0.481754 0.108595
0.861145 0.420653 0.110703
0.974839 0.813646 0.906915
0.003012 0.805760 0.811125
0.031249 0.812688 0.795084
0.303676 0.823939 0.737056
0.949089 0.898852 0.660198
0.998140 0.908742 0.793528
0.799893 0.961196 0.970687
0.803927 0.961944 0.970959
0.813679 0.963749 0.971555
0.871568 0.973483 0.969097
1.000000 0.996475 0.980529
0.000000 0.000000 0.381263
0.060635 0.000000 0.349457
0.464747 0.000770 0.422355
0.815311 0.263520 0.603817
0.972785 0.805482 0.917982
0.000000 0.021485 0.380063
0.000598 0.000000 0.350137
0.454765 0.009105 0.414170
0.813942 0.277109 0.590836
0.973266 0.807528 0.916156
0.000000 0.426802 0.556842
0.000000 0.430364 0.550972
0.479955 0.509007 0.532023
0.835735 0.368690 0.496498
0.974624 0.812842 0.908442
0.025484 0.793441 0.830844
0.059906 0.802548 0.820959
0.188676 0.819203 0.787020
0.942118 0.896763 0.674817
0.997873 0.906413 0.791673
0.798627 0.960964 0.970611
0.802736 0.961724 0.970883
0.812497 0.963528 0.971485
0.870771 0.973377 0.969291
1.000000 0.996475 0.980529
0.000000 0.041819 0.635352
0.000000 0.041599 0.635260
0.009794 0.001474 0.615728
0.822584 0.318527 0.775570
0.973006 0.812004 0.946247
0.000000 0.041191 0.635089
0.000000 0.040981 0.634997
0.020407 0.000690 0.614954
0.823056 0.319194 0.775702
0.973003 0.811969 0.946199
0.000000 0.079232 0.643362
0.000000 0.079464 0.643362
0.008039 0.001835 0.612565
0.823360 0.323032 0.775869
0.973232 0.813089 0.945886
0.000000 0.799958 0.896634
0.011615 0.800774 0.893881
0.086160 0.816561 0.891392
0.912737 0.930798 0.931176
0.987175 0.892297 0.937696
0.767238 0.955508 0.969459
0.772629 0.956500 0.969901
0.785069 0.958783 0.970916
0.852694 0.971201 0.974664
1.000000 0.996811 0.982412
0.000000 0.515969 0.829709
0.000000 0.515969 0.829709
0.000000 0.515969 0.829709
0.002645 0.485219 0.822723
0.979171 0.852537 0.973816
0.000000 0.515969 0.829709
0.000000 0.515969 0.829709
0.000000 0.515969 0.829709
0.004420 0.484273 0.821891
0.979187 0.852659 0.973831
0.000000 0.515969 0.829709
0.000000 0.515969 0.829709
0.000000 0.515969 0.829709
0.008849 0.481897 0.819798
0.979217 0.852858 0.973865
0.000000 0.518419 0.830599
0.000000 0.518425 0.830599
0.000000 0.518439 0.830606
0.077568 0.442467 0.814159
0.979493 0.854634 0.974179
0.789487 0.960800 0.976410
0.789487 0.960800 0.976410
0.789487 0.960800 0.976410
0.833252 0.969160 0.980996
0.999985 1.000000 0.999969
