luts/apple-log-2/33x/Apple_LOG_2_to_Kodak_2383_D55_Rec709_G2-4.cube
TITLE "Apple LOG 2 to Kodak 2383 D55 Rec709 G2-4"
#  
# Apple LOG 2 to Rec.709 Hybrid LUT
#  
# This hybrid LUT converts Apple LOG 2 to Rec.709 Gamma 2.4
#  
# Based on an original creative LUT included in DaVinci Resolve, adapted for a different color space.  
#  
# Created by Tobia Montanari | tobiamontanari.com
#  
#  
# 
LUT_3D_SIZE 9
0.031342 0.037629 0.042359
0.089382 0.050614 0.046613
0.161616 0.059077 0.045431
0.272322 0.064208 0.038250
0.465774 0.008564 0.083889
0.657925 0.034651 0.208827
0.801347 0.237234 0.409765
0.910679 0.507462 0.630696
0.972152 0.759136 0.789715
0.027885 0.053273 0.053052
0.038615 0.046067 0.044632
0.084341 0.058925 0.039145
0.213147 0.081288 0.010881
0.451856 0.113289 0.000000
0.658261 0.084867 0.034611
0.804299 0.251148 0.358858
0.912492 0.513880 0.616210
0.972610 0.761102 0.787303
0.000000 0.101721 0.075702
0.058288 0.089819 0.050650
0.104213 0.103516 0.053260
0.229754 0.125209 0.011700
0.459925 0.144052 0.000000
0.672110 0.150074 0.000381
0.805307 0.255604 0.329420
0.913238 0.516436 0.609533
0.972805 0.761840 0.785870
0.000000 0.194580 0.130276
0.023255 0.185918 0.058783
0.114370 0.190169 0.037687
0.271114 0.231193 0.009922
0.515898 0.267388 0.000000
0.702518 0.245662 0.000000
0.807502 0.263663 0.235999
0.914840 0.521628 0.593549
0.973240 0.763502 0.782926
0.000000 0.365270 0.258341
0.000000 0.355038 0.150477
0.001738 0.363001 0.082062
0.264370 0.402397 0.000173
0.573228 0.474690 0.000392
0.816048 0.499442 0.000000
0.883749 0.433354 0.000003
0.919248 0.532770 0.529403
0.974480 0.768018 0.773902
0.000000 0.580161 0.468844
0.000004 0.587550 0.427893
0.000010 0.588907 0.402205
0.002371 0.585689 0.318393
0.496503 0.644628 0.111824
0.836344 0.716336 0.197126
0.960742 0.713690 0.049149
0.969950 0.681601 0.339854
0.977846 0.777524 0.734050
0.005851 0.754591 0.661117
0.031866 0.760530 0.649654
0.052496 0.762990 0.644113
0.134252 0.767921 0.631899
0.339372 0.777678 0.582324
0.759781 0.827190 0.433964
0.961043 0.867842 0.502545
0.999942 0.866594 0.486686
0.999582 0.867621 0.614966
0.584688 0.873932 0.806527
0.597456 0.876012 0.805526
0.603006 0.876919 0.804979
0.614122 0.878711 0.803802
0.641923 0.883153 0.799739
0.705899 0.891701 0.777488
0.913391 0.912856 0.683398
0.995790 0.930711 0.730118
1.000000 0.928903 0.725393
0.819440 0.925322 0.861295
0.821985 0.925721 0.861202
0.823087 0.925890 0.861155
0.825528 0.926275 0.861033
0.831957 0.927268 0.860682
0.849081 0.929774 0.858768
0.884792 0.933991 0.845420
0.983818 0.945384 0.817482
1.000000 0.949126 0.835294
0.030428 0.038510 0.049085
0.057961 0.044421 0.060595
0.127889 0.054538 0.094861
0.249597 0.056539 0.122306
0.456033 0.002083 0.172062
0.655811 0.016870 0.266852
0.799926 0.232045 0.421486
0.910375 0.506332 0.631694
0.972091 0.758877 0.790053
0.030549 0.040369 0.045402
0.031762 0.038266 0.043010
0.091317 0.052700 0.047856
0.226852 0.067357 0.042058
0.443978 0.028709 0.059985
0.652409 0.052171 0.178230
0.802907 0.247094 0.376182
0.912113 0.512558 0.618056
0.972546 0.760780 0.787661
0.000003 0.090113 0.096533
0.006276 0.078007 0.061977
0.081329 0.085153 0.056680
0.226280 0.103154 0.026797
0.442634 0.095400 0.000006
0.651625 0.073012 0.094537
0.804126 0.252447 0.348535
0.912887 0.515249 0.611520
0.972735 0.761578 0.786338
0.000000 0.190862 0.177184
0.000000 0.176798 0.112426
0.013345 0.172381 0.072313
0.246263 0.215124 0.042510
0.515216 0.246200 0.000000
0.691499 0.206564 0.000025
0.806065 0.260450 0.262857
0.914486 0.520495 0.595937
0.973175 0.763262 0.783397
0.000000 0.362187 0.307571
0.000000 0.360129 0.235086
0.000000 0.355217 0.180696
0.143734 0.378609 0.048198
0.555595 0.461240 0.013356
0.806761 0.485452 0.000003
0.878177 0.419880 0.000527
0.918886 0.531906 0.533534
0.974402 0.767759 0.774463
0.000000 0.575770 0.475721
0.000001 0.584303 0.437396
0.000008 0.586278 0.413801
0.000659 0.584622 0.337743
0.480734 0.639824 0.119986
0.834209 0.713570 0.193018
0.960378 0.711106 0.044582
0.968877 0.677462 0.338395
0.977771 0.777375 0.735216
0.004284 0.753228 0.661580
0.025833 0.759195 0.650129
0.041913 0.761668 0.644551
0.120079 0.766689 0.632353
0.331923 0.776782 0.583760
0.757278 0.826308 0.432400
0.960837 0.867408 0.501255
0.999943 0.866179 0.485566
0.999549 0.867054 0.614627
0.582583 0.873542 0.806441
0.595473 0.875640 0.805431
0.601004 0.876539 0.804929
0.612271 0.878366 0.803800
0.640456 0.882868 0.799758
0.704696 0.891500 0.777725
0.913013 0.912721 0.682974
0.995772 0.930658 0.729858
1.000000 0.928846 0.725133
0.819106 0.925277 0.861311
0.821680 0.925673 0.861206
0.822770 0.925844 0.861161
0.825217 0.926224 0.861048
0.831665 0.927222 0.860704
0.848806 0.929732 0.858813
0.884584 0.933979 0.845569
0.983742 0.945371 0.817440
1.000000 0.949126 0.835294
0.019710 0.040801 0.093728
0.070161 0.042399 0.090171
0.119054 0.055498 0.114198
0.246327 0.055084 0.154733
0.456471 0.001307 0.209604
0.655343 0.009644 0.293101
0.798468 0.226100 0.435681
0.910302 0.506078 0.631595
0.972064 0.758767 0.790239
0.014948 0.045944 0.058327
0.029758 0.039998 0.074598
0.085599 0.052681 0.084407
0.223539 0.067143 0.104220
0.443801 0.022406 0.136655
0.651663 0.038639 0.232149
0.801061 0.241245 0.402576
0.911968 0.512070 0.618892
0.972506 0.760633 0.787850
0.000015 0.087166 0.104445
0.004009 0.076280 0.088529
0.065877 0.079601 0.084823
0.233916 0.090131 0.075221
0.435398 0.040770 0.065207
0.650422 0.056408 0.177665
0.802426 0.247850 0.379656
0.912749 0.514773 0.612432
0.972714 0.761489 0.786554
0.000000 0.188932 0.196851
0.000000 0.178486 0.155287
0.000011 0.170882 0.114224
0.233361 0.208513 0.067498
0.509959 0.223387 0.020857
0.675139 0.157505 0.018880
0.804629 0.258060 0.314381
0.914332 0.519992 0.596943
0.973143 0.763147 0.783612
0.000000 0.360076 0.329198
0.000000 0.361531 0.276146
0.000000 0.359603 0.236158
0.035035 0.366077 0.111967
0.545987 0.455221 0.038963
0.798698 0.471631 0.002370
0.861832 0.399317 0.052644
0.918732 0.531554 0.535487
0.974372 0.767644 0.774714
0.000000 0.572793 0.492017
0.000000 0.582993 0.460218
0.000011 0.586009 0.440897
0.000255 0.588104 0.382738
0.441691 0.634918 0.177244
0.830336 0.712564 0.204907
0.959632 0.709746 0.050630
0.968392 0.675587 0.337763
0.977741 0.777310 0.735732
0.003549 0.752578 0.661735
0.023549 0.758635 0.650317
0.038437 0.761102 0.644760
0.113797 0.766140 0.632569
0.328474 0.776388 0.584409
0.756123 0.825909 0.431703
0.960734 0.867206 0.500683
0.999943 0.865974 0.485051
0.999541 0.866766 0.614453
0.581699 0.873384 0.806437
0.594626 0.875486 0.805434
0.600167 0.876382 0.804935
0.611401 0.878205 0.803774
0.639750 0.882727 0.799735
0.704173 0.891412 0.777813
0.912822 0.912657 0.682768
0.995759 0.930617 0.729683
1.000000 0.928825 0.725042
0.818967 0.925258 0.861326
0.821540 0.925655 0.861217
0.822635 0.925826 0.861170
0.825070 0.926207 0.861055
0.831523 0.927202 0.860715
0.848683 0.929715 0.858831
0.884498 0.933966 0.845636
0.983708 0.945356 0.817424
1.000000 0.949126 0.835294
0.000041 0.029695 0.168744
0.076937 0.018737 0.162642
0.122567 0.035447 0.175803
0.239017 0.050557 0.209649
0.458123 0.000151 0.267632
0.658579 0.010481 0.340497
0.797111 0.219106 0.462044
0.909392 0.502783 0.638261
0.971969 0.758404 0.790734
0.000000 0.052637 0.142526
0.013648 0.033419 0.155564
0.084731 0.039363 0.162462
0.219306 0.060834 0.190306
0.448338 0.012864 0.236977
0.655783 0.032849 0.309768
0.798853 0.230737 0.441266
0.910341 0.509020 0.626763
0.972453 0.760430 0.788184
0.000000 0.089696 0.156789
0.000000 0.067699 0.157533
0.016871 0.058878 0.171932
0.204772 0.071129 0.180082
0.439838 0.032162 0.205305
0.654809 0.051182 0.281296
0.800116 0.237890 0.424408
0.911174 0.511873 0.620216
0.972656 0.761273 0.787028
0.000000 0.187429 0.234720
0.000000 0.180159 0.223146
0.000000 0.176952 0.217101
0.196672 0.209917 0.219631
0.510500 0.196915 0.200482
0.661364 0.107140 0.199212
0.802637 0.250408 0.380798
0.912884 0.517572 0.605254
0.973079 0.762883 0.784036
0.000000 0.362636 0.369882
0.000000 0.366926 0.342318
0.000000 0.368468 0.323434
0.000024 0.368330 0.247897
0.531407 0.452505 0.139831
0.784855 0.451922 0.176934
0.845802 0.369255 0.221140
0.917662 0.530321 0.546134
0.974311 0.767419 0.775199
0.000000 0.566758 0.516527
0.000000 0.579604 0.494460
0.000000 0.584301 0.481390
0.000035 0.590867 0.443082
0.322238 0.621684 0.249618
0.825516 0.713095 0.251306
0.949762 0.708985 0.227623
0.967334 0.671680 0.337021
0.977671 0.777171 0.736849
0.018198 0.750193 0.666479
0.046284 0.756540 0.655691
0.065629 0.759161 0.650491
0.121153 0.764340 0.638560
0.308643 0.775165 0.592751
0.749320 0.824482 0.434392
0.960505 0.866805 0.499601
0.999942 0.865559 0.483951
0.999514 0.866209 0.614121
0.579710 0.873022 0.806381
0.592784 0.875142 0.805371
0.598305 0.876039 0.804908
0.609672 0.877876 0.803738
0.638319 0.882452 0.799743
0.703059 0.891224 0.778037
0.912462 0.912538 0.682393
0.995743 0.930569 0.729423
1.000000 0.928775 0.724813
0.818662 0.925204 0.861330
0.821237 0.925608 0.861230
0.822354 0.925780 0.861185
0.824764 0.926149 0.861070
0.831223 0.927156 0.860734
0.848419 0.929676 0.858867
0.884307 0.933957 0.845779
0.983646 0.945354 0.817406
1.000000 0.949126 0.835294
0.000000 0.000000 0.281011
0.021782 0.000035 0.281071
0.094094 0.000000 0.278864
0.225322 0.000000 0.305988
0.453215 0.000687 0.361337
0.662857 0.008900 0.424933
0.800708 0.225729 0.519933
0.907458 0.495781 0.663057
0.971858 0.757920 0.791432
0.000000 0.000871 0.278780
0.014603 0.000063 0.278076
0.083922 0.000000 0.277321
0.223305 0.000039 0.306328
0.453758 0.001343 0.358856
0.662987 0.014761 0.420409
0.801469 0.229967 0.515953
0.907455 0.498887 0.658527
0.972213 0.759426 0.789535
0.000000 0.029206 0.275815
0.000000 0.004979 0.274248
0.002079 0.000833 0.273881
0.185624 0.003350 0.304660
0.441385 0.007254 0.351795
0.661124 0.034167 0.410078
0.802852 0.238740 0.507683
0.908182 0.501938 0.653517
0.972418 0.760293 0.788434
0.000000 0.175844 0.338329
0.000000 0.159076 0.335871
0.000000 0.139886 0.333156
0.079886 0.157904 0.367192
0.463137 0.138573 0.376852
0.660768 0.073187 0.385421
0.805819 0.253373 0.488434
0.909618 0.507438 0.643364
0.972854 0.762050 0.785693
0.000000 0.366681 0.439761
0.000000 0.370627 0.438231
0.000000 0.372447 0.436751
0.000000 0.377938 0.433142
0.480885 0.465101 0.445879
0.776656 0.425536 0.423688
0.829671 0.331792 0.422214
0.913590 0.521371 0.606598
0.974090 0.766649 0.776937
0.000000 0.568713 0.570624
0.000000 0.582557 0.561295
0.000000 0.587968 0.555994
0.000000 0.598481 0.541461
0.043023 0.619752 0.456867
0.814029 0.720681 0.361953
0.942349 0.716559 0.430883
0.955944 0.659952 0.473141
0.977473 0.776776 0.739995
0.004458 0.741487 0.690427
0.017122 0.749073 0.682871
0.026077 0.752223 0.679206
0.056694 0.758453 0.670824
0.200353 0.772843 0.641691
0.667496 0.816191 0.488310
0.957003 0.867618 0.520153
0.999041 0.868866 0.524341
0.999448 0.864677 0.613197
0.572363 0.871701 0.805982
0.585959 0.873884 0.804999
0.591725 0.874817 0.804544
0.603538 0.876729 0.803455
0.633556 0.881529 0.799679
0.699778 0.890674 0.778696
0.911114 0.912144 0.681404
0.995699 0.930403 0.728643
1.000000 0.928627 0.724153
0.817808 0.925075 0.861368
0.820417 0.925478 0.861261
0.821565 0.925656 0.861216
0.823919 0.926024 0.861113
0.830446 0.927039 0.860784
0.847697 0.929569 0.858977
0.883757 0.933916 0.846175
0.983481 0.945319 0.817322
1.000000 0.949126 0.835294
0.000000 0.000000 0.408777
0.000000 0.000000 0.408547
0.000000 0.000000 0.408400
0.076246 0.000000 0.402972
0.404460 0.000000 0.461121
0.662756 0.019642 0.532434
0.806375 0.239334 0.606718
0.909090 0.502982 0.710508
0.970493 0.753151 0.805826
0.000000 0.000000 0.408106
0.000000 0.000000 0.407889
0.000000 0.000000 0.407502
0.092492 0.000000 0.401453
0.412301 0.000000 0.462322
0.664280 0.020460 0.532359
0.806696 0.239966 0.606502
0.909157 0.503205 0.710323
0.970493 0.753124 0.805715
0.000000 0.000000 0.407822
0.000000 0.000000 0.407595
0.000000 0.000000 0.406983
0.100299 0.000000 0.400891
0.415758 0.000000 0.462867
0.664966 0.020818 0.532345
0.806830 0.240236 0.606410
0.909192 0.503334 0.710252
0.970545 0.753343 0.805459
0.000000 0.001633 0.416104
0.000000 0.001668 0.415897
0.000000 0.000748 0.414455
0.007347 0.000000 0.402778
0.396510 0.000085 0.469345
0.662738 0.045265 0.531003
0.808337 0.249373 0.603415
0.909646 0.508484 0.706264
0.970913 0.754962 0.803681
0.000000 0.323477 0.537192
0.000000 0.323474 0.536980
0.000000 0.319045 0.536255
0.000000 0.300913 0.533446
0.330947 0.377563 0.594632
0.727971 0.330253 0.595310
0.815896 0.285700 0.588504
0.913360 0.523650 0.693844
0.971946 0.759377 0.798166
0.000000 0.578463 0.646552
0.000000 0.584861 0.646588
0.000000 0.589480 0.647053
0.000000 0.598925 0.647657
0.000132 0.621254 0.644633
0.771598 0.737364 0.665324
0.927912 0.697117 0.647104
0.938502 0.621883 0.649345
0.974944 0.770949 0.776847
0.001311 0.740931 0.733357
0.005409 0.748692 0.730458
0.011073 0.751977 0.729052
0.026982 0.758634 0.725854
0.117092 0.774995 0.715844
0.481996 0.811386 0.664120
0.949376 0.876354 0.604458
0.994970 0.881502 0.661281
0.996830 0.864241 0.688361
0.511992 0.862704 0.812053
0.528684 0.865287 0.811847
0.535555 0.866386 0.811726
0.549938 0.868666 0.811354
0.585905 0.874432 0.809771
0.664736 0.886827 0.799948
0.873787 0.909690 0.709755
0.994594 0.930847 0.736470
1.000000 0.930285 0.738254
0.815481 0.924712 0.861463
0.818117 0.925124 0.861356
0.819291 0.925305 0.861309
0.821706 0.925677 0.861207
0.828302 0.926701 0.860894
0.845659 0.929285 0.859270
0.882247 0.933791 0.847188
0.982932 0.945213 0.817117
1.000000 0.949126 0.835294
0.000000 0.008553 0.522437
0.000000 0.008516 0.522358
0.000000 0.008498 0.522340
0.000000 0.008460 0.522273
0.020908 0.001616 0.516592
0.617771 0.001784 0.610216
0.815362 0.280866 0.691919
0.912540 0.518201 0.765158
0.971202 0.759885 0.829748
0.000000 0.008450 0.522252
0.000000 0.008413 0.522164
0.000000 0.008402 0.522150
0.000000 0.008369 0.522085
0.027198 0.002821 0.516732
0.620316 0.001852 0.610687
0.815659 0.281280 0.691962
0.912613 0.518424 0.765145
0.971199 0.759867 0.829701
0.000000 0.008402 0.522150
0.000000 0.008372 0.522087
0.000000 0.008342 0.522053
0.000000 0.008315 0.521997
0.031624 0.004418 0.516673
0.621463 0.001879 0.610891
0.815811 0.281498 0.691989
0.912647 0.518531 0.765137
0.971199 0.759864 0.829685
0.000000 0.008301 0.521974
0.000000 0.008269 0.521910
0.000000 0.008260 0.521896
0.000000 0.008209 0.521806
0.044576 0.008999 0.516810
0.623680 0.001859 0.611292
0.816113 0.281926 0.692042
0.912728 0.518776 0.765124
0.971199 0.759843 0.829632
0.000000 0.028793 0.527934
0.000000 0.028879 0.527919
0.000000 0.028900 0.527902
0.000000 0.028993 0.527892
0.030058 0.007035 0.516793
0.626165 0.015297 0.614653
0.816893 0.285228 0.692126
0.912916 0.521880 0.764128
0.971433 0.761084 0.829118
0.000000 0.480752 0.687705
0.000000 0.480776 0.687664
0.000000 0.480777 0.687642
0.000000 0.480770 0.687603
0.000000 0.470046 0.685009
0.653550 0.655049 0.772589
0.893220 0.594967 0.766289
0.920980 0.558530 0.759389
0.973729 0.772546 0.824315
0.000000 0.749842 0.779779
0.000019 0.750131 0.779678
0.008688 0.752318 0.778541
0.014943 0.757960 0.778437
0.062415 0.771782 0.778323
0.320343 0.804223 0.782715
0.926534 0.891223 0.810318
0.987103 0.878978 0.801867
0.986900 0.844066 0.803503
0.476154 0.859385 0.827573
0.494358 0.862012 0.828164
0.501659 0.863136 0.828388
0.516143 0.865427 0.828835
0.553172 0.871408 0.829854
0.632918 0.885009 0.830627
0.785570 0.908820 0.812838
0.991371 0.936116 0.785769
1.000000 0.938826 0.813055
0.789130 0.920791 0.863974
0.792528 0.921334 0.864022
0.794036 0.921578 0.864048
0.797103 0.922074 0.864087
0.805350 0.923400 0.864174
0.824259 0.926405 0.863905
0.866775 0.932847 0.860316
0.974098 0.945485 0.830286
1.000000 0.949645 0.839925
0.000000 0.249561 0.641995
0.000000 0.249452 0.641941
0.000000 0.249452 0.641941
0.000000 0.249422 0.641927
0.000000 0.249260 0.641845
0.001854 0.208383 0.626611
0.791913 0.271612 0.728703
0.920600 0.560871 0.805924
0.973451 0.774055 0.850177
0.000000 0.249346 0.641893
0.000000 0.249346 0.641893
0.000000 0.249337 0.641887
0.000000 0.249239 0.641834
0.000000 0.249119 0.641774
0.005745 0.205314 0.625288
0.792489 0.272245 0.728893
0.920673 0.561071 0.805951
0.973464 0.774109 0.850176
0.000000 0.249346 0.641893
0.000000 0.249239 0.641834
0.000000 0.249239 0.641834
0.000000 0.249199 0.641813
0.000000 0.249026 0.641733
0.007522 0.203949 0.624710
0.792751 0.272508 0.728963
0.920707 0.561190 0.805971
0.973477 0.774186 0.850188
0.000000 0.249149 0.641789
0.000000 0.249119 0.641774
0.000000 0.249091 0.641760
0.000000 0.249038 0.641737
0.000000 0.248882 0.641658
0.011339 0.200785 0.623387
0.793310 0.273131 0.729151
0.920763 0.561332 0.805994
0.973475 0.774234 0.850186
0.000000 0.248766 0.641605
0.000000 0.248678 0.641560
0.000000 0.248678 0.641560
0.000000 0.248643 0.641542
0.000000 0.248457 0.641448
0.029718 0.191024 0.620061
0.794684 0.274760 0.729624
0.920941 0.561853 0.806075
0.973506 0.774355 0.850178
0.000000 0.253779 0.643454
0.000000 0.253684 0.643404
0.000000 0.253693 0.643408
0.000000 0.253615 0.643373
0.000000 0.253530 0.643324
0.016365 0.200238 0.630419
0.798873 0.283634 0.732009
0.921386 0.563655 0.806243
0.973642 0.775085 0.850194
0.000000 0.567974 0.754173
0.000000 0.567995 0.754170
0.000000 0.567995 0.754170
0.000000 0.567996 0.754169
0.000000 0.567991 0.754148
0.000000 0.564256 0.753041
0.870384 0.853039 0.855035
0.972610 0.821860 0.852771
0.978006 0.800398 0.849989
0.504614 0.864250 0.843603
0.504842 0.864283 0.843605
0.504841 0.864283 0.843605
0.505019 0.864356 0.843615
0.526838 0.868458 0.844781
0.596178 0.880205 0.849005
0.724501 0.902759 0.856689
0.983578 0.942277 0.869434
0.999915 0.940551 0.867098
0.781454 0.920153 0.869647
0.784486 0.920660 0.869795
0.785822 0.920880 0.869856
0.788694 0.921357 0.869982
0.796314 0.922618 0.870329
0.814252 0.925578 0.871085
0.854831 0.932249 0.872174
0.933956 0.944014 0.868684
1.000000 0.952329 0.863680
0.000000 0.437644 0.722377
0.000000 0.437644 0.722377
0.000000 0.437644 0.722377
0.000000 0.437644 0.722377
0.000000 0.437644 0.722377
0.000000 0.437644 0.722377
0.006188 0.423637 0.721443
0.912808 0.563458 0.817993
0.977646 0.802213 0.862745
0.000000 0.437644 0.722377
0.000000 0.437644 0.722377
0.000000 0.437644 0.722377
0.000000 0.437644 0.722377
0.000000 0.437644 0.722377
0.000000 0.437644 0.722377
0.009095 0.423300 0.721172
0.912928 0.563757 0.818066
0.977646 0.802274 0.862745
0.000000 0.437644 0.722377
0.000000 0.437644 0.722377
0.000000 0.437644 0.722377
0.000000 0.437644 0.722377
0.000000 0.437644 0.722377
0.000000 0.437644 0.722377
0.010344 0.423131 0.721050
0.912973 0.563863 0.818088
0.977661 0.802335 0.862760
0.000000 0.437644 0.722377
0.000000 0.437644 0.722377
0.000000 0.437644 0.722377
0.000000 0.437644 0.722377
0.000000 0.437644 0.722377
0.000000 0.437644 0.722377
0.013163 0.422829 0.720790
0.913087 0.564124 0.818141
0.977676 0.802396 0.862760
0.000000 0.437644 0.722377
0.000000 0.437644 0.722377
0.000000 0.437644 0.722377
0.000000 0.437644 0.722377
0.000000 0.437644 0.722377
0.000000 0.437644 0.722377
0.020717 0.421795 0.720013
0.913396 0.564822 0.818309
0.977695 0.802517 0.862791
0.000000 0.437644 0.722377
0.000000 0.437644 0.722377
0.000000 0.437644 0.722377
0.000000 0.437644 0.722377
0.000000 0.437644 0.722377
0.000000 0.437644 0.722377
0.056856 0.415696 0.719401
0.914163 0.566808 0.818738
0.977768 0.802930 0.862848
0.000000 0.439577 0.722967
0.000000 0.439577 0.722970
0.000000 0.439580 0.722970
0.000000 0.439581 0.722970
0.000000 0.439592 0.722973
0.000000 0.439622 0.722981
0.081259 0.408517 0.723779
0.916580 0.574079 0.820282
0.977989 0.804225 0.863034
0.000000 0.598254 0.773326
0.000000 0.598254 0.773337
0.000000 0.598254 0.773337
0.000000 0.598254 0.773337
0.000000 0.598254 0.773337
0.000000 0.598265 0.773337
0.000000 0.597447 0.773105
0.965969 0.931378 0.880081
0.996434 0.924027 0.878918
0.807218 0.924743 0.875013
0.807218 0.924743 0.875013
0.807218 0.924743 0.875013
0.807218 0.924743 0.875013
0.807218 0.924743 0.875013
0.816885 0.926368 0.875593
0.846848 0.931389 0.877368
0.900822 0.940328 0.880473
1.000000 0.954589 0.884855
