luts/apple-log-2/33x/Apple_LOG_2_to_Fujifilm_3513DI_D55_Rec709_G2-4.cube
TITLE "Apple LOG 2 to Fujifilm 3513DI D55 Rec709 G2-4"
#  
# Apple LOG 2 to Rec.709 Hybrid LUT
#  
# This hybrid LUT converts Apple LOG 2 to Rec.709 Gamma 2.4
#  
# Based on an original creative LUT included in DaVinci Resolve, adapted for a different color space.  
#  
# Created by Tobia Montanari | tobiamontanari.com
#  
# 
LUT_3D_SIZE 5
0.031678 0.035981 0.033539
0.154497 0.054841 0.036913
0.462583 0.006360 0.082950
0.799801 0.258978 0.425240
0.965026 0.769787 0.812680
0.000000 0.125746 0.067024
0.094212 0.118488 0.037823
0.424771 0.158970 0.000000
0.804282 0.275276 0.342553
0.965609 0.772003 0.810480
0.000000 0.402649 0.304279
0.003531 0.379045 0.069169
0.562440 0.472743 0.001409
0.865721 0.426537 0.000253
0.967002 0.776860 0.803082
0.086452 0.770138 0.714515
0.178896 0.777136 0.701559
0.378329 0.788083 0.650074
0.945148 0.858113 0.579760
0.992817 0.867958 0.699972
0.811383 0.918105 0.859815
0.815137 0.918807 0.860029
0.824294 0.920509 0.860502
0.878393 0.929590 0.857826
1.000000 0.951324 0.867460
0.020628 0.037861 0.105048
0.115204 0.047654 0.128134
0.458619 0.000141 0.219641
0.796783 0.248850 0.452051
0.964947 0.769497 0.813001
0.000000 0.107392 0.114415
0.050232 0.094352 0.089941
0.434369 0.051631 0.059739
0.798260 0.271210 0.390858
0.965542 0.771725 0.810904
0.000000 0.405526 0.383509
0.000000 0.393895 0.278631
0.540493 0.460580 0.071607
0.844849 0.401904 0.078029
0.966916 0.776569 0.803584
0.074808 0.768526 0.715041
0.164436 0.775607 0.702011
0.369676 0.787124 0.651898
0.944731 0.857371 0.577865
0.992644 0.867042 0.699294
0.810895 0.918016 0.859797
0.814682 0.918715 0.860001
0.823838 0.920419 0.860483
0.878090 0.929550 0.857898
1.000000 0.951324 0.867460
0.000000 0.000000 0.337031
0.078947 0.000000 0.312631
0.454660 0.000755 0.377458
0.797418 0.249397 0.536486
0.964766 0.768819 0.813678
0.000000 0.053542 0.339851
0.001053 0.000024 0.309424
0.444763 0.008690 0.369580
0.796318 0.262022 0.524702
0.965272 0.770767 0.812007
0.000000 0.409280 0.493505
0.000000 0.413081 0.489530
0.482023 0.486077 0.471350
0.818353 0.349809 0.438594
0.966693 0.775810 0.804966
0.057540 0.757204 0.733302
0.111499 0.765865 0.724787
0.262420 0.782177 0.695750
0.938157 0.855440 0.591181
0.992216 0.864797 0.697634
0.809700 0.917793 0.859724
0.813569 0.918515 0.859940
0.822729 0.920219 0.860430
0.877331 0.929455 0.858074
1.000000 0.951324 0.867460
0.000000 0.097875 0.569199
0.000000 0.097647 0.569090
0.018669 0.010016 0.545280
0.806296 0.303943 0.690446
0.965404 0.775119 0.839089
0.000000 0.097222 0.568885
0.000000 0.097002 0.568787
0.025593 0.009149 0.544505
0.806764 0.304583 0.690556
0.965404 0.775076 0.839038
0.000000 0.131969 0.579305
0.000000 0.132177 0.579329
0.022634 0.010065 0.542391
0.807152 0.308271 0.690683
0.965661 0.776148 0.838743
0.000000 0.763671 0.791523
0.031325 0.764587 0.789580
0.134389 0.779753 0.788387
0.913848 0.888634 0.824108
0.982305 0.851735 0.830245
0.780429 0.912639 0.858858
0.785452 0.913576 0.859234
0.797071 0.915738 0.860079
0.860464 0.927445 0.863041
1.000000 0.951641 0.869157
0.000000 0.501259 0.739345
0.000000 0.501259 0.739345
0.000000 0.501259 0.739345
0.006714 0.471372 0.732877
0.973205 0.813901 0.863432
0.000000 0.501259 0.739345
0.000000 0.501259 0.739345
0.000000 0.501259 0.739345
0.011221 0.470294 0.732150
0.973236 0.814023 0.863447
0.000000 0.501259 0.739345
0.000000 0.501259 0.739345
0.000000 0.501259 0.739345
0.022474 0.467567 0.730290
0.973270 0.814221 0.863482
0.000000 0.503607 0.740127
0.000000 0.503613 0.740127
0.000000 0.503627 0.740135
0.079472 0.430358 0.725880
0.973612 0.815914 0.863738
0.801495 0.917647 0.864988
0.801495 0.917647 0.864988
0.801495 0.917647 0.864988
0.842390 0.925581 0.868885
1.000000 0.954604 0.884871
