luts/apple-log-2/33x/Apple_LOG_2_to_Fujifilm_3513DI_D55_Rec709_G2-4.cube
TITLE "Apple LOG 2 to Fujifilm 3513DI D55 Rec709 G2-4"
#  
# Apple LOG 2 to Rec.709 Hybrid LUT
#  
# This hybrid LUT converts Apple LOG 2 to Rec.709 Gamma 2.4
#  
# Based on an original creative LUT included in DaVinci Resolve, adapted for a different color space.  
#  
# Created by Tobia Montanari | tobiamontanari.com
#  
# 
LUT_3D_SIZE 33
0.031678 0.035981 0.033539
0.031683 0.035982 0.033544
0.032156 0.036600 0.034795
0.052656 0.039508 0.036637
0.075313 0.045456 0.038686
0.093300 0.049912 0.039936
0.112193 0.052423 0.040566
0.132313 0.053652 0.039248
0.154497 0.054841 0.036913
0.179648 0.056156 0.033093
0.207767 0.057403 0.023353
0.239424 0.058466 0.012467
0.276162 0.059156 0.009937
0.317464 0.055023 0.017072
0.362638 0.038308 0.032468
0.411887 0.017184 0.053832
0.462583 0.006360 0.082950
0.512555 0.007948 0.107741
0.562798 0.014271 0.137167
0.611467 0.029637 0.173018
0.656572 0.057243 0.215055
0.697238 0.100510 0.261694
0.734804 0.150213 0.312257
0.769151 0.202257 0.366486
0.799801 0.258978 0.425240
0.826060 0.317203 0.487293
0.849482 0.378733 0.548985
0.872378 0.445424 0.607143
0.895525 0.517884 0.662019
0.917850 0.592961 0.712517
0.938403 0.663627 0.755829
0.954205 0.723073 0.789389
0.965026 0.769787 0.812680
0.031678 0.035981 0.033539
0.031678 0.035981 0.033539
0.031688 0.035989 0.033537
0.032258 0.038384 0.033387
0.036056 0.042214 0.036474
0.056716 0.046322 0.037355
0.070976 0.051298 0.037590
0.082419 0.055257 0.037325
0.100198 0.059033 0.036775
0.126451 0.062519 0.034569
0.158917 0.065935 0.028139
0.193857 0.070053 0.015755
0.232248 0.075330 0.003373
0.276132 0.080904 0.000179
0.328565 0.085376 0.000000
0.389214 0.088033 0.000000
0.449331 0.087840 0.000108
0.505546 0.079604 0.002195
0.554776 0.050816 0.022390
0.605266 0.051977 0.082064
0.654880 0.080644 0.143538
0.699096 0.118828 0.206741
0.737425 0.162689 0.270751
0.771371 0.211584 0.334690
0.801476 0.266073 0.400177
0.827449 0.322597 0.468179
0.850578 0.382864 0.535564
0.873286 0.448903 0.598041
0.896336 0.520862 0.655711
0.918546 0.595338 0.708556
0.938877 0.665185 0.753774
0.954510 0.724128 0.788315
0.965226 0.770584 0.812014
0.031678 0.035981 0.033539
0.031678 0.035981 0.033539
0.031678 0.035981 0.033539
0.032101 0.036894 0.033355
0.029678 0.041655 0.036457
0.038239 0.045530 0.037924
0.057458 0.049552 0.038328
0.070865 0.054070 0.038331
0.084213 0.058908 0.037938
0.107119 0.064011 0.037037
0.140923 0.068859 0.033280
0.180017 0.074196 0.021779
0.221366 0.080450 0.006733
0.266286 0.087171 0.000469
0.314979 0.092730 0.000007
0.366658 0.098144 0.000000
0.427393 0.105366 0.000000
0.495677 0.111401 0.000003
0.556371 0.106503 0.000946
0.604715 0.079980 0.026822
0.652720 0.088036 0.100601
0.699076 0.124485 0.177099
0.738282 0.166760 0.250008
0.772223 0.214802 0.320183
0.802062 0.268371 0.389450
0.827940 0.324419 0.460269
0.850988 0.384343 0.530129
0.873614 0.450135 0.594484
0.896631 0.521901 0.653222
0.918843 0.596332 0.707002
0.939097 0.665865 0.752782
0.954620 0.724489 0.787723
0.965329 0.770972 0.811780
0.031255 0.042816 0.036103
0.031776 0.037478 0.033792
0.031749 0.036485 0.033618
0.031745 0.036281 0.033564
0.031512 0.040708 0.035527
0.030043 0.045084 0.037981
0.043022 0.048474 0.038809
0.060170 0.052512 0.039084
0.074952 0.057819 0.038763
0.093692 0.064341 0.038031
0.125696 0.070988 0.035608
0.167646 0.077057 0.026589
0.212027 0.083713 0.010050
0.259382 0.091783 0.000791
0.310311 0.099848 0.000015
0.363460 0.106760 0.000000
0.416065 0.113617 0.000000
0.476944 0.122103 0.000000
0.550005 0.128817 0.000001
0.608350 0.117772 0.005257
0.651895 0.098696 0.058020
0.698443 0.127915 0.149643
0.738713 0.169459 0.231661
0.772829 0.216962 0.307670
0.802531 0.270151 0.380653
0.828295 0.325749 0.453727
0.851257 0.385352 0.525758
0.873843 0.451028 0.591626
0.896878 0.522768 0.651350
0.919006 0.596855 0.705678
0.939259 0.666398 0.752060
0.954727 0.724812 0.787257
0.965378 0.771187 0.811538
0.026878 0.060297 0.044483
0.033363 0.051494 0.037185
0.033714 0.048783 0.036379
0.033021 0.046931 0.035799
0.031795 0.047263 0.036303
0.031061 0.049554 0.038983
0.038871 0.052448 0.040093
0.054404 0.055876 0.040317
0.070167 0.060478 0.039715
0.086233 0.066257 0.038906
0.114121 0.072807 0.036840
0.156306 0.079428 0.030691
0.203189 0.086782 0.013104
0.252810 0.096392 0.001615
0.305704 0.105735 0.000019
0.360648 0.113381 0.000000
0.414783 0.120743 0.000000
0.466777 0.128369 0.000000
0.536064 0.138188 0.000000
0.608087 0.140615 0.000813
0.654622 0.118574 0.027355
0.697655 0.130859 0.120469
0.739000 0.171567 0.214084
0.773349 0.218731 0.296120
0.802934 0.271448 0.372684
0.828606 0.326818 0.447994
0.851530 0.386293 0.521896
0.874081 0.451873 0.589203
0.897079 0.523494 0.649682
0.919177 0.597405 0.704549
0.939386 0.666809 0.751356
0.954814 0.725104 0.786888
0.965454 0.771432 0.811364
0.006069 0.080663 0.049582
0.025034 0.067761 0.039369
0.025908 0.063086 0.038780
0.028351 0.059712 0.038366
0.029789 0.058525 0.038533
0.032108 0.061933 0.040562
0.045006 0.065252 0.041280
0.059582 0.069452 0.041812
0.074653 0.074950 0.040992
0.091139 0.081531 0.039260
0.118600 0.087922 0.035977
0.158337 0.093315 0.028393
0.202782 0.097922 0.011339
0.249604 0.103461 0.001743
0.301491 0.110562 0.000023
0.357845 0.118765 0.000000
0.413841 0.126735 0.000000
0.465799 0.134376 0.000000
0.522946 0.143206 0.000000
0.602049 0.152176 0.000000
0.657888 0.138574 0.009492
0.697446 0.135774 0.090311
0.738966 0.173114 0.196291
0.773747 0.220138 0.285130
0.803301 0.272556 0.365401
0.828876 0.327798 0.442808
0.851745 0.387019 0.518287
0.874258 0.452531 0.586956
0.897241 0.524081 0.648183
0.919344 0.597948 0.703578
0.939481 0.667103 0.750751
0.954892 0.725325 0.786558
0.965499 0.771601 0.811152
0.000538 0.097341 0.054361
0.008981 0.083838 0.040925
0.010505 0.079276 0.040114
0.016338 0.075730 0.040108
0.022885 0.073158 0.040500
0.037488 0.076560 0.040860
0.053449 0.081144 0.042540
0.065101 0.084189 0.041372
0.078477 0.089125 0.041368
0.095409 0.095906 0.038961
0.123743 0.102708 0.034079
0.164079 0.108908 0.023382
0.209844 0.114945 0.006586
0.257333 0.121120 0.000710
0.306041 0.124467 0.000000
0.357109 0.125669 0.000000
0.412804 0.131799 0.000000
0.465998 0.139748 0.000000
0.517337 0.147458 0.000000
0.591538 0.158368 0.000000
0.660092 0.155885 0.003313
0.698594 0.143980 0.062206
0.738826 0.174386 0.178464
0.774121 0.221329 0.274402
0.803617 0.273486 0.358311
0.829114 0.328550 0.437869
0.851954 0.387746 0.514997
0.874420 0.453128 0.584864
0.897394 0.524623 0.646840
0.919497 0.598491 0.702780
0.939582 0.667448 0.750196
0.954980 0.725666 0.786287
0.965530 0.771713 0.810913
0.000011 0.110718 0.060185
0.000906 0.096865 0.042669
0.003509 0.093228 0.041523
0.010282 0.090284 0.042028
0.024606 0.087838 0.042446
0.044388 0.089817 0.041496
0.061151 0.094894 0.041069
0.073574 0.099347 0.040749
0.083947 0.102271 0.039710
0.099647 0.107852 0.038364
0.128462 0.114828 0.032291
0.168875 0.121545 0.019439
0.215561 0.128812 0.003805
0.264145 0.136305 0.000118
0.314075 0.141024 0.000000
0.364790 0.141879 0.000000
0.414953 0.140653 0.000000
0.466203 0.144783 0.000000
0.516674 0.151958 0.000000
0.580370 0.161851 0.000000
0.658853 0.167770 0.000352
0.700468 0.153255 0.039158
0.738736 0.175849 0.160157
0.774387 0.222272 0.263202
0.803923 0.274355 0.351306
0.829358 0.329288 0.433079
0.852137 0.388325 0.511779
0.874573 0.453650 0.582821
0.897540 0.525126 0.645555
0.919622 0.598905 0.701890
0.939646 0.667639 0.749641
0.955030 0.725822 0.785980
0.965560 0.771820 0.810709
0.000000 0.125746 0.067024
0.000046 0.110018 0.044867
0.000865 0.107220 0.043321
0.008868 0.104920 0.043867
0.027674 0.102871 0.043980
0.046506 0.103079 0.043144
0.066184 0.108342 0.039990
0.081488 0.113323 0.038765
0.094212 0.118488 0.037823
0.106045 0.120719 0.036249
0.133814 0.127156 0.029980
0.174053 0.134487 0.016222
0.221276 0.142852 0.003136
0.270844 0.151521 0.000037
0.321987 0.157539 0.000000
0.374363 0.160121 0.000000
0.424771 0.158970 0.000000
0.470179 0.155045 0.000000
0.517547 0.157396 0.000000
0.571755 0.165537 0.000000
0.652227 0.177575 0.000050
0.704053 0.167962 0.020751
0.738906 0.178780 0.134419
0.774613 0.223277 0.248572
0.804282 0.275276 0.342553
0.829591 0.330016 0.427150
0.852347 0.389033 0.507734
0.874762 0.454312 0.580354
0.897700 0.525680 0.643930
0.919756 0.599312 0.700821
0.939760 0.667977 0.749035
0.955105 0.726049 0.785604
0.965609 0.772003 0.810480
0.000000 0.145233 0.078381
0.000000 0.126943 0.046240
0.000215 0.124324 0.043711
0.010707 0.122181 0.043414
0.027905 0.120131 0.043632
0.046351 0.118980 0.043172
0.069547 0.123123 0.040384
0.086686 0.128538 0.036133
0.101894 0.134770 0.032517
0.121444 0.141182 0.027502
0.142552 0.143496 0.021500
0.180392 0.150486 0.009889
0.227770 0.160172 0.001750
0.278143 0.169994 0.000008
0.330379 0.177262 0.000000
0.384267 0.181174 0.000000
0.436743 0.181594 0.000000
0.482995 0.177740 0.000000
0.523257 0.170132 0.000000
0.568785 0.171414 0.000000
0.636883 0.184213 0.000000
0.707049 0.186228 0.005886
0.739931 0.185022 0.100666
0.774841 0.224411 0.227972
0.804754 0.276320 0.330388
0.829947 0.331033 0.419069
0.852635 0.389911 0.502246
0.874992 0.455150 0.577080
0.897922 0.526437 0.641799
0.919929 0.599882 0.699467
0.939919 0.668474 0.748248
0.955211 0.726343 0.785140
0.965688 0.772293 0.810196
0.000000 0.169054 0.093528
0.000000 0.148057 0.047925
0.000173 0.145611 0.043004
0.010870 0.143711 0.039436
0.029055 0.141854 0.039112
0.050507 0.140297 0.039384
0.070315 0.141032 0.038261
0.088001 0.146869 0.032181
0.106767 0.153755 0.022661
0.131720 0.161998 0.014980
0.162152 0.170261 0.008008
0.192343 0.173132 0.003082
0.234836 0.181028 0.000241
0.285474 0.191901 0.000007
0.338799 0.200549 0.000000
0.394105 0.205878 0.000000
0.448523 0.207938 0.000000
0.497289 0.206175 0.000000
0.538982 0.199147 0.000000
0.576319 0.188445 0.000000
0.623520 0.190708 0.000000
0.702389 0.204287 0.000658
0.743414 0.198688 0.054915
0.775317 0.227087 0.197559
0.805334 0.277349 0.312734
0.830385 0.332209 0.408205
0.853022 0.391080 0.494907
0.875286 0.456131 0.572681
0.898219 0.527455 0.638976
0.920194 0.600732 0.697763
0.940110 0.669110 0.747203
0.955318 0.726674 0.784512
0.965762 0.772525 0.809808
0.000000 0.196188 0.113112
0.000000 0.172748 0.052029
0.000069 0.170652 0.042956
0.004874 0.169403 0.033858
0.022877 0.168301 0.027213
0.048318 0.167213 0.025815
0.067057 0.166000 0.026462
0.084701 0.168902 0.021724
0.108820 0.176679 0.010872
0.138870 0.186621 0.003096
0.175227 0.197435 0.001440
0.216467 0.208015 0.000896
0.250580 0.210659 0.000024
0.293058 0.216820 0.000003
0.346902 0.226790 0.000000
0.403416 0.233645 0.000000
0.459630 0.237735 0.000000
0.510655 0.238212 0.000000
0.555102 0.233804 0.000000
0.593942 0.223438 0.000000
0.626844 0.209970 0.000000
0.683503 0.216043 0.000000
0.748550 0.221471 0.017303
0.776707 0.233802 0.151697
0.806087 0.278524 0.286266
0.831007 0.333453 0.392519
0.853492 0.392381 0.484687
0.875698 0.457422 0.566425
0.898570 0.528575 0.635172
0.920515 0.601777 0.695323
0.940336 0.669791 0.745798
0.955462 0.727104 0.783688
0.965862 0.772883 0.809305
0.000000 0.226716 0.138999
0.000000 0.202749 0.060232
0.000026 0.198786 0.048595
0.000606 0.198267 0.033393
0.014188 0.198138 0.016546
0.038918 0.198287 0.006461
0.062091 0.198256 0.004627
0.081224 0.198132 0.005306
0.106768 0.202796 0.002777
0.142084 0.213966 0.000490
0.183595 0.226118 0.000058
0.230237 0.238852 0.000100
0.278470 0.251416 0.000022
0.315995 0.253915 0.000000
0.355080 0.254604 0.000000
0.412087 0.262897 0.000000
0.469621 0.268670 0.000000
0.522563 0.271293 0.000000
0.569255 0.269626 0.000000
0.611121 0.262986 0.000000
0.645665 0.250967 0.000000
0.673573 0.235755 0.000000
0.740232 0.243759 0.001556
0.780491 0.246993 0.082937
0.807429 0.281671 0.246936
0.831899 0.334623 0.369508
0.854103 0.393906 0.470276
0.876220 0.458926 0.557533
0.899015 0.529995 0.629990
0.920917 0.603002 0.692092
0.940638 0.670716 0.743950
0.955672 0.727788 0.782685
0.965992 0.773326 0.808656
0.000000 0.261705 0.169762
0.000000 0.239779 0.086632
0.000000 0.231332 0.055095
0.000012 0.231441 0.041905
0.002737 0.232001 0.023050
0.012871 0.233247 0.006786
0.041828 0.234815 0.001322
0.073550 0.236095 0.000274
0.102926 0.237346 0.000081
0.138520 0.243981 0.000006
0.186061 0.257041 0.000005
0.238014 0.271060 0.000007
0.292132 0.286373 0.000003
0.345785 0.300854 0.000000
0.388743 0.302974 0.000000
0.423820 0.296369 0.000000
0.478931 0.301193 0.000000
0.533317 0.305459 0.000000
0.582024 0.306020 0.000000
0.626097 0.302123 0.000000
0.663525 0.293888 0.000000
0.691546 0.280745 0.000000
0.723495 0.267576 0.000000
0.785491 0.271830 0.020076
0.809816 0.289191 0.183295
0.833334 0.336159 0.334613
0.854907 0.395446 0.449285
0.876894 0.460742 0.544940
0.899601 0.531744 0.622646
0.921440 0.604597 0.687657
0.941029 0.671899 0.741417
0.955941 0.728585 0.781296
0.966147 0.773918 0.807798
0.000000 0.302678 0.205668
0.000000 0.284744 0.136250
0.000000 0.274645 0.090219
0.000000 0.270501 0.059472
0.000013 0.271590 0.037593
0.001336 0.273654 0.015434
0.017233 0.276001 0.004537
0.046711 0.278454 0.001185
0.083725 0.280592 0.000077
0.127888 0.283401 0.000000
0.179353 0.292074 0.000000
0.238541 0.307159 0.000000
0.298957 0.324080 0.000000
0.359144 0.341599 0.000003
0.416747 0.355501 0.000046
0.466803 0.358051 0.000001
0.505831 0.350152 0.000000
0.546859 0.344708 0.000000
0.594456 0.344991 0.000000
0.640304 0.343198 0.000000
0.679950 0.337474 0.000000
0.713725 0.329736 0.000000
0.751396 0.322882 0.000000
0.791139 0.311335 0.000597
0.816029 0.304693 0.075649
0.836539 0.342134 0.280570
0.856076 0.396744 0.417261
0.877758 0.462720 0.526171
0.900373 0.533861 0.612255
0.922090 0.606456 0.681330
0.941514 0.673334 0.737868
0.956290 0.729640 0.779443
0.966369 0.774693 0.806661
0.000000 0.350430 0.250767
0.000000 0.337626 0.193530
0.000000 0.329310 0.156545
0.000000 0.321704 0.118096
0.000009 0.318069 0.084653
0.000081 0.319303 0.056038
0.002967 0.322190 0.032457
0.010345 0.325560 0.018274
0.029889 0.329373 0.008554
0.088226 0.333445 0.002043
0.159999 0.337588 0.000140
0.227349 0.348574 0.000002
0.297660 0.366938 0.000000
0.364971 0.385720 0.000004
0.428498 0.401762 0.000065
0.489252 0.413385 0.000116
0.548378 0.419212 0.000000
0.593116 0.413527 0.000000
0.628464 0.403799 0.000000
0.667124 0.396653 0.000000
0.708272 0.392430 0.000000
0.749423 0.390768 0.000000
0.791670 0.389757 0.000000
0.823358 0.378815 0.000000
0.836384 0.351738 0.009930
0.841606 0.351818 0.172407
0.859315 0.401487 0.367591
0.878858 0.464289 0.496329
0.901338 0.536136 0.596808
0.922909 0.608622 0.672391
0.942172 0.675211 0.732913
0.956731 0.730897 0.776868
0.966648 0.775655 0.805119
0.000000 0.402649 0.304279
0.000000 0.394716 0.254332
0.000000 0.389382 0.225929
0.000000 0.383864 0.198683
0.000000 0.378149 0.169661
0.000009 0.374169 0.141171
0.000029 0.373435 0.115020
0.000111 0.375218 0.093457
0.003531 0.379045 0.069169
0.033770 0.384565 0.040753
0.103662 0.390839 0.016070
0.195284 0.397526 0.003011
0.281199 0.412203 0.000150
0.360884 0.432266 0.000029
0.432232 0.449436 0.000012
0.498199 0.462350 0.001890
0.562440 0.472743 0.001409
0.627908 0.482464 0.000019
0.678349 0.481767 0.000000
0.720030 0.474994 0.000000
0.759477 0.468647 0.000000
0.797577 0.465635 0.000000
0.832056 0.462669 0.000000
0.857279 0.452516 0.000000
0.865721 0.426537 0.000253
0.858471 0.390501 0.044966
0.865717 0.411797 0.277316
0.881524 0.468197 0.449348
0.902543 0.538017 0.570757
0.923875 0.610851 0.659080
0.942917 0.677145 0.725322
0.957289 0.732475 0.773213
0.967002 0.776860 0.803082
0.000000 0.455538 0.363181
0.000000 0.451783 0.320143
0.000000 0.449245 0.297217
0.000000 0.446616 0.276644
0.000000 0.443614 0.256718
0.000000 0.440255 0.236699
0.000000 0.436685 0.215920
0.000000 0.434338 0.195939
0.000013 0.433098 0.171006
0.003894 0.435381 0.140989
0.027772 0.441125 0.104779
0.113771 0.448191 0.062710
0.240316 0.456562 0.021339
0.336896 0.473757 0.002185
0.423326 0.493622 0.003745
0.498420 0.508912 0.005893
0.568308 0.521148 0.012863
0.633306 0.531731 0.026418
0.698154 0.541005 0.003988
0.753408 0.543855 0.000052
0.799079 0.541390 0.000001
0.836583 0.537919 0.000000
0.866158 0.533147 0.000000
0.887090 0.523581 0.000000
0.894428 0.503822 0.000048
0.888145 0.473439 0.023885
0.881979 0.450334 0.170403
0.888911 0.479759 0.371804
0.904774 0.540831 0.527047
0.925120 0.612855 0.637603
0.943804 0.679196 0.714091
0.957937 0.734242 0.767395
0.967464 0.778408 0.800335
0.000000 0.507271 0.423083
0.000000 0.507732 0.389186
0.000000 0.507261 0.371554
0.000000 0.506449 0.356131
0.000000 0.505474 0.341682
0.000000 0.504269 0.327627
0.000000 0.502814 0.313673
0.000000 0.501140 0.299187
0.000000 0.498560 0.280085
0.000149 0.495677 0.254369
0.002309 0.494621 0.221550
0.032224 0.498161 0.183658
0.145000 0.505069 0.134461
0.283331 0.513028 0.065183
0.392106 0.529803 0.034087
0.483980 0.549228 0.031083
0.564709 0.565232 0.042195
0.636651 0.578928 0.078198
0.697078 0.588299 0.094327
0.756994 0.591234 0.017395
0.811872 0.593895 0.000971
0.854982 0.594014 0.000000
0.886104 0.591102 0.000000
0.906881 0.584059 0.000000
0.916875 0.571695 0.005598
0.916643 0.554797 0.055868
0.913270 0.537901 0.181532
0.907950 0.521900 0.293480
0.911665 0.551671 0.456328
0.926947 0.614456 0.599743
0.944890 0.681048 0.695822
0.958692 0.736229 0.758379
0.968002 0.779995 0.795697
0.000000 0.559796 0.481626
0.000000 0.563364 0.457019
0.000000 0.564241 0.444469
0.000000 0.564629 0.433630
0.000000 0.564711 0.423588
0.000000 0.564535 0.413946
0.000000 0.564225 0.404628
0.000000 0.563727 0.394860
0.000000 0.562904 0.382498
0.000000 0.561494 0.365113
0.000027 0.558869 0.339333
0.003087 0.555002 0.301672
0.042672 0.556611 0.259308
0.176787 0.563247 0.210800
0.336083 0.571387 0.145174
0.449096 0.587402 0.108724
0.547324 0.607448 0.113664
0.630749 0.623581 0.136406
0.699308 0.636922 0.166552
0.756586 0.645517 0.189315
0.809805 0.641859 0.092991
0.856372 0.640729 0.036967
0.891822 0.639927 0.018826
0.916229 0.636474 0.021646
0.930646 0.630072 0.048105
0.937198 0.623139 0.124654
0.939582 0.617548 0.223399
0.937043 0.607014 0.306345
0.929926 0.592804 0.391714
0.932563 0.622954 0.536103
0.946414 0.682230 0.664046
0.959669 0.738241 0.743504
0.968658 0.781685 0.788137
0.000000 0.612712 0.538811
0.000000 0.617207 0.520418
0.000000 0.618537 0.511548
0.000000 0.619349 0.503899
0.000000 0.619886 0.497076
0.000000 0.620227 0.490633
0.000000 0.620428 0.484417
0.000006 0.620555 0.478313
0.000007 0.620542 0.470470
0.000008 0.620322 0.459656
0.000022 0.619614 0.444071
0.000544 0.617827 0.420564
0.007997 0.614475 0.384516
0.059274 0.612452 0.334698
0.231221 0.620044 0.284936
0.390602 0.630564 0.228182
0.509480 0.646925 0.201031
0.611952 0.666261 0.208468
0.692318 0.681392 0.227418
0.756850 0.693154 0.254192
0.811369 0.700613 0.274018
0.857722 0.695948 0.212443
0.893946 0.691610 0.154465
0.921500 0.689137 0.133051
0.940520 0.687051 0.153430
0.952618 0.686416 0.208352
0.958308 0.686009 0.276921
0.958666 0.682393 0.344034
0.954736 0.672380 0.408100
0.947587 0.659952 0.480311
0.950676 0.688596 0.609415
0.961070 0.739950 0.716622
0.969512 0.783408 0.775420
0.000003 0.661991 0.593173
0.000026 0.665838 0.578772
0.000030 0.667125 0.572034
0.000033 0.667996 0.566561
0.000037 0.668607 0.561645
0.000036 0.669080 0.557033
0.000036 0.669464 0.552834
0.000050 0.669762 0.548563
0.000116 0.670064 0.543392
0.000430 0.670365 0.536402
0.001872 0.670576 0.526817
0.006012 0.670450 0.512910
0.018546 0.669683 0.492436
0.047468 0.667543 0.460390
0.118249 0.664211 0.410004
0.293125 0.672840 0.359734
0.449092 0.684701 0.307409
0.571381 0.701192 0.284488
0.672576 0.719343 0.293137
0.747852 0.732749 0.310179
0.809209 0.743082 0.334136
0.858211 0.750641 0.354958
0.897358 0.747686 0.315149
0.927249 0.744235 0.282903
0.949078 0.742811 0.277103
0.963450 0.743458 0.298174
0.970806 0.744840 0.338572
0.973146 0.745226 0.388686
0.972271 0.742402 0.442993
0.968040 0.733731 0.497339
0.962402 0.722340 0.560873
0.964720 0.746644 0.670912
0.970712 0.784792 0.750746
0.000029 0.704219 0.641555
0.000088 0.707330 0.630963
0.000122 0.708487 0.626101
0.000150 0.709318 0.622289
0.000154 0.709949 0.618715
0.000200 0.710463 0.615619
0.000495 0.710882 0.612493
0.000805 0.711257 0.609607
0.001485 0.711677 0.605999
0.003167 0.712194 0.601194
0.006796 0.712773 0.594773
0.014387 0.713349 0.585937
0.031899 0.713891 0.573539
0.068443 0.714180 0.555784
0.132941 0.713762 0.528722
0.225351 0.712321 0.485383
0.370605 0.719118 0.434543
0.508557 0.730759 0.385561
0.631385 0.746908 0.365463
0.726358 0.763489 0.374898
0.798086 0.775508 0.390947
0.853947 0.785463 0.413447
0.894624 0.793227 0.434049
0.926855 0.791130 0.405953
0.951383 0.789047 0.386344
0.968007 0.789337 0.387513
0.977414 0.791224 0.407550
0.981798 0.793592 0.441506
0.983371 0.795427 0.483731
0.982217 0.794810 0.530631
0.979047 0.788944 0.578234
0.974416 0.778040 0.631339
0.974182 0.791945 0.707812
0.003384 0.739431 0.681132
0.012251 0.742213 0.673978
0.017705 0.743288 0.670779
0.021836 0.744064 0.668320
0.026333 0.744710 0.666048
0.030232 0.745251 0.664100
0.034782 0.745732 0.662310
0.041299 0.746195 0.660516
0.048951 0.746726 0.658469
0.059274 0.747378 0.655688
0.073507 0.748189 0.651795
0.092834 0.749165 0.646640
0.119604 0.750336 0.639616
0.157112 0.751651 0.629706
0.206141 0.752974 0.615049
0.265553 0.753791 0.592067
0.335765 0.753521 0.554335
0.440355 0.758086 0.504912
0.568445 0.769229 0.460295
0.685711 0.784855 0.443843
0.775091 0.800009 0.452990
0.841846 0.811337 0.467554
0.889224 0.821004 0.488667
0.922570 0.828344 0.508716
0.948843 0.827130 0.488908
0.967951 0.826381 0.477048
0.979513 0.827523 0.481843
0.985889 0.830009 0.501030
0.989447 0.833177 0.531062
0.990407 0.836391 0.568691
0.989658 0.837678 0.610250
0.987367 0.833444 0.648558
0.983243 0.823660 0.679032
0.086452 0.770138 0.714515
0.116940 0.772639 0.710241
0.130599 0.773689 0.708426
0.140652 0.774435 0.707049
0.149578 0.775081 0.705788
0.157350 0.775628 0.704654
0.164134 0.776109 0.703661
0.170642 0.776569 0.702724
0.178896 0.777136 0.701559
0.189114 0.777839 0.700117
0.202097 0.778722 0.698236
0.219005 0.779814 0.695573
0.240166 0.781152 0.692033
0.266670 0.782778 0.687017
0.298629 0.784648 0.679741
0.336144 0.786598 0.668666
0.378329 0.788083 0.650074
0.427398 0.788370 0.617462
0.507915 0.791302 0.570058
0.626187 0.802308 0.530407
0.735769 0.817241 0.516486
0.819958 0.831256 0.524463
0.878206 0.842084 0.538722
0.917346 0.851178 0.559788
0.945148 0.858113 0.579760
0.965975 0.857855 0.565430
0.979486 0.857874 0.558439
0.987338 0.859296 0.565057
0.992279 0.862021 0.583376
0.994505 0.865538 0.611061
0.995092 0.868975 0.644358
0.994716 0.870212 0.677094
0.992817 0.867958 0.699972
0.240083 0.798004 0.745867
0.268270 0.800255 0.743968
0.279142 0.801159 0.743086
0.287097 0.801822 0.742428
0.293866 0.802398 0.741847
0.299865 0.802905 0.741288
0.305086 0.803353 0.740796
0.309948 0.803765 0.740344
0.315549 0.804246 0.739800
0.322550 0.804863 0.738989
0.331283 0.805637 0.737945
0.341952 0.806600 0.736610
0.354242 0.807811 0.734711
0.369114 0.809292 0.732148
0.387617 0.811063 0.728334
0.409753 0.813126 0.722784
0.436622 0.815431 0.714317
0.468784 0.817489 0.699909
0.508384 0.818488 0.673356
0.573996 0.820620 0.629977
0.681032 0.831349 0.594217
0.783869 0.845427 0.581575
0.859595 0.858610 0.590649
0.908137 0.868789 0.606521
0.940815 0.877147 0.627380
0.963478 0.883700 0.646358
0.978306 0.883756 0.635955
0.987398 0.883859 0.631670
0.993409 0.885408 0.639052
0.996520 0.888065 0.656184
0.997805 0.891343 0.680218
0.998256 0.893958 0.705747
0.997306 0.894424 0.724430
0.386252 0.823037 0.775012
0.399814 0.824732 0.774079
0.405241 0.825423 0.773670
0.409237 0.825927 0.773357
0.412589 0.826356 0.773081
0.415688 0.826748 0.772803
0.418451 0.827100 0.772550
0.421000 0.827421 0.772313
0.423960 0.827799 0.772045
0.427704 0.828273 0.771698
0.432678 0.828895 0.771183
0.439007 0.829694 0.770487
0.446757 0.830671 0.769594
0.456231 0.831904 0.768265
0.467841 0.833407 0.766453
0.482635 0.835240 0.763627
0.500964 0.837419 0.759431
0.523507 0.839909 0.752939
