luts/apple-log-2/33x/Apple_LOG_2_to_Kodak_2383_D55_Rec709_G2-4.cube
TITLE "Apple LOG 2 to Kodak 2383 D55 Rec709 G2-4"
#  
# Apple LOG 2 to Rec.709 Hybrid LUT
#  
# This hybrid LUT converts Apple LOG 2 to Rec.709 Gamma 2.4
#  
# Based on an original creative LUT included in DaVinci Resolve, adapted for a different color space.  
#  
# Created by Tobia Montanari | tobiamontanari.com
#  
#  
# 
LUT_3D_SIZE 33
0.031342 0.037629 0.042359
0.031377 0.037636 0.042363
0.039986 0.039520 0.043471
0.068323 0.045332 0.045794
0.089382 0.050614 0.046613
0.105918 0.054119 0.047133
0.122959 0.056090 0.047418
0.141439 0.057497 0.046588
0.161616 0.059077 0.045431
0.183817 0.060902 0.043900
0.208764 0.062782 0.041680
0.237569 0.064353 0.039937
0.272322 0.064208 0.038250
0.313991 0.060064 0.038474
0.361730 0.046059 0.047192
0.413375 0.024778 0.061134
0.465774 0.008564 0.083889
0.516395 0.005423 0.105671
0.566453 0.009563 0.133047
0.614127 0.015843 0.167697
0.657925 0.034651 0.208827
0.697267 0.066475 0.254414
0.734079 0.118498 0.303724
0.768494 0.175468 0.355361
0.801347 0.237234 0.409765
0.832360 0.299979 0.466700
0.860911 0.364814 0.523422
0.887032 0.433661 0.577690
0.910679 0.507462 0.630696
0.931779 0.583591 0.681015
0.950064 0.654968 0.725617
0.963452 0.713509 0.762449
0.972152 0.759136 0.789715
0.031342 0.037629 0.042359
0.031342 0.037629 0.042359
0.031373 0.037637 0.042352
0.038294 0.040054 0.040453
0.051535 0.044781 0.038407
0.072480 0.049626 0.037259
0.086549 0.053926 0.036640
0.098347 0.057351 0.036122
0.115856 0.060385 0.034535
0.141181 0.063037 0.031875
0.172164 0.065703 0.023999
0.205720 0.069451 0.010240
0.244424 0.074764 0.001770
0.290879 0.079356 0.000090
0.346209 0.081300 0.000027
0.406860 0.079420 0.000002
0.464377 0.072688 0.000147
0.515758 0.057833 0.004490
0.562349 0.033356 0.031402
0.610225 0.032230 0.085030
0.656105 0.052318 0.140418
0.697610 0.084923 0.201182
0.735275 0.131866 0.263576
0.770091 0.185803 0.324632
0.802946 0.245062 0.385572
0.834020 0.305893 0.448023
0.862396 0.369466 0.509725
0.888221 0.437660 0.567715
0.911628 0.510839 0.623283
0.932502 0.586240 0.676031
0.950551 0.656714 0.722751
0.963772 0.714763 0.760691
0.972367 0.760086 0.788484
0.031342 0.037629 0.042359
0.031342 0.037629 0.042359
0.031342 0.037629 0.042359
0.033124 0.038334 0.041490
0.040426 0.042620 0.038076
0.054096 0.047179 0.037955
0.072936 0.051462 0.037930
0.085836 0.055211 0.037473
0.099532 0.059328 0.037053
0.121909 0.063240 0.034917
0.154434 0.066914 0.031032
0.191613 0.071342 0.017464
0.232320 0.077491 0.004229
0.279855 0.083622 0.000154
0.335438 0.088430 0.000000
0.396216 0.093366 0.000000
0.458636 0.096976 0.000000
0.517306 0.094906 0.000000
0.567700 0.082114 0.002225
0.610899 0.052251 0.031301
0.654951 0.057811 0.101720
0.697488 0.090609 0.172918
0.735596 0.136090 0.243519
0.770606 0.189387 0.310569
0.803516 0.247644 0.375164
0.834591 0.307899 0.440282
0.862953 0.371140 0.504208
0.888663 0.439089 0.563843
0.911968 0.512052 0.620366
0.932802 0.587332 0.674067
0.950760 0.657483 0.721432
0.963910 0.715213 0.759822
0.972486 0.760549 0.788038
0.030633 0.041879 0.045031
0.031647 0.038620 0.042618
0.031556 0.037981 0.042424
0.031554 0.037841 0.042351
0.037469 0.041037 0.038379
0.043333 0.045406 0.038089
0.058842 0.049397 0.038676
0.075242 0.053224 0.038449
0.089590 0.057638 0.038058
0.108387 0.063015 0.037103
0.139253 0.068062 0.033778
0.179373 0.073009 0.024001
0.222228 0.079247 0.007319
0.271276 0.086749 0.000379
0.328741 0.094094 0.000000
0.391789 0.100800 0.000000
0.453769 0.107201 0.000000
0.513129 0.111140 0.000000
0.570328 0.108079 0.000032
0.616293 0.087804 0.006755
0.655012 0.066111 0.063631
0.697102 0.094017 0.147353
0.735683 0.138912 0.225836
0.770909 0.191773 0.298435
0.803967 0.249664 0.366617
0.835021 0.309386 0.433884
0.863322 0.372282 0.499778
0.888983 0.440134 0.560745
0.912249 0.513057 0.618159
0.932989 0.587943 0.672437
0.950925 0.658089 0.720426
0.964005 0.715600 0.759142
0.972548 0.760811 0.787630
0.027885 0.053273 0.053052
0.035960 0.047751 0.045823
0.037595 0.046324 0.044684
0.037714 0.045365 0.043954
0.038615 0.046067 0.044632
0.043452 0.048072 0.039993
0.054377 0.051402 0.039965
0.069573 0.054900 0.039782
0.084341 0.058925 0.039145
0.100435 0.063928 0.038581
0.127601 0.069122 0.035737
0.168212 0.074408 0.029332
0.213147 0.081288 0.010881
0.263619 0.090373 0.001112
0.322410 0.098959 0.000000
0.387487 0.106366 0.000000
0.451856 0.113289 0.000000
0.510280 0.119285 0.000000
0.568664 0.121451 0.000000
0.620891 0.113536 0.001191
0.658261 0.084867 0.034611
0.696750 0.096776 0.121805
0.735707 0.141154 0.208922
0.771157 0.193739 0.287238
0.804299 0.251148 0.358858
0.835377 0.310575 0.428269
0.863692 0.373367 0.495879
0.889295 0.441115 0.558114
0.912492 0.513880 0.616210
0.933163 0.588560 0.671023
0.951063 0.658538 0.719496
0.964106 0.715939 0.758590
0.972610 0.761102 0.787303
0.008708 0.068350 0.058233
0.035754 0.060617 0.049110
0.039311 0.057827 0.047598
0.041919 0.055669 0.046438
0.044594 0.055248 0.046380
0.050424 0.058755 0.049118
0.061626 0.061489 0.043320
0.074555 0.065239 0.041591
0.088305 0.070083 0.040983
0.104427 0.075777 0.039798
0.130980 0.081184 0.036997
0.169423 0.085859 0.029825
0.212241 0.090525 0.011734
0.259521 0.096119 0.001593
0.316872 0.102926 0.000000
0.383351 0.110798 0.000000
0.450122 0.118105 0.000000
0.509893 0.124570 0.000000
0.565840 0.129608 0.000000
0.622619 0.127804 0.000004
0.662672 0.105398 0.015713
0.696950 0.101919 0.096291
0.735625 0.142913 0.192060
0.771314 0.195317 0.276569
0.804596 0.252417 0.351745
0.835709 0.311666 0.423179
0.863983 0.374204 0.492264
0.889530 0.441868 0.555690
0.912682 0.514560 0.614456
0.933332 0.589175 0.669817
0.951159 0.658879 0.718702
0.964173 0.716204 0.758106
0.972669 0.761314 0.786949
0.000950 0.080480 0.063632
0.025648 0.073246 0.051738
0.034977 0.070981 0.049757
0.041991 0.068989 0.048385
0.047350 0.067400 0.047584
0.058733 0.070763 0.049447
0.070191 0.074784 0.051686
0.080042 0.077213 0.045121
0.092026 0.081327 0.042312
0.108350 0.087118 0.040742
0.135583 0.092945 0.037744
0.174651 0.098341 0.029962
0.218658 0.103914 0.011559
0.266474 0.110056 0.001496
0.320616 0.114159 0.000000
0.381623 0.116331 0.000000
0.448374 0.122145 0.000000
0.509741 0.128956 0.000000
0.564755 0.134836 0.000000
0.621903 0.136972 0.000000
0.667253 0.124145 0.006309
0.698342 0.110566 0.071964
0.735511 0.144424 0.175322
0.771466 0.196663 0.266162
0.804839 0.253490 0.344816
0.835980 0.312537 0.418329
0.864279 0.375038 0.488949
0.889758 0.442570 0.553450
0.912864 0.515194 0.612899
0.933500 0.589780 0.668803
0.951261 0.659267 0.717952
0.964271 0.716579 0.757698
0.972704 0.761482 0.786574
0.000011 0.090004 0.069485
0.013722 0.082936 0.054238
0.029428 0.081407 0.051806
0.041085 0.079990 0.050357
0.051875 0.078698 0.048939
0.065488 0.080828 0.049459
0.077521 0.085132 0.051586
0.086893 0.088805 0.052034
0.096739 0.091345 0.045636
0.112325 0.096180 0.041888
0.139964 0.102199 0.038394
0.179284 0.108061 0.030060
0.224062 0.114373 0.011744
0.272891 0.121545 0.001494
0.328375 0.127132 0.000000
0.389028 0.129306 0.000000
0.450044 0.129254 0.000000
0.509637 0.133052 0.000000
0.565013 0.138975 0.000000
0.620128 0.143168 0.000000
0.670348 0.137418 0.001816
0.700600 0.120221 0.050322
0.735484 0.146197 0.158269
0.771548 0.197786 0.255326
0.805067 0.254518 0.337980
0.836252 0.313384 0.413603
0.864515 0.375724 0.485708
0.889959 0.443188 0.551259
0.913037 0.515783 0.611412
0.933628 0.590254 0.667698
0.951335 0.659501 0.717216
0.964335 0.716780 0.757240
0.972748 0.761622 0.786250
0.000000 0.101721 0.075702
0.002310 0.092941 0.057220
0.021133 0.091667 0.054110
0.042284 0.090634 0.052427
0.058288 0.089819 0.050650
0.071380 0.090586 0.049810
0.084017 0.095089 0.051235
0.094188 0.099212 0.052889
0.104213 0.103516 0.053260
0.117664 0.105982 0.044315
0.145007 0.111720 0.038907
0.184429 0.118112 0.029626
0.229754 0.125209 0.011700
0.279446 0.133248 0.001409
0.336183 0.139947 0.000000
0.398575 0.143698 0.000000
0.459925 0.144052 0.000000
0.513466 0.141521 0.000000
0.565778 0.143577 0.000000
0.618785 0.148683 0.000000
0.672110 0.150074 0.000381
0.704961 0.135556 0.028352
0.735853 0.149734 0.135257
0.771596 0.199064 0.241209
0.805307 0.255604 0.329420
0.836506 0.314232 0.407765
0.864783 0.376540 0.481644
0.890218 0.443975 0.548637
0.913238 0.516436 0.609533
0.933776 0.590732 0.666381
0.951452 0.659889 0.716404
0.964411 0.717064 0.756692
0.972805 0.761840 0.785870
0.000000 0.118650 0.084852
0.000217 0.108621 0.060966
0.011335 0.106748 0.057108
0.038751 0.105203 0.054706
0.062269 0.104031 0.052741
0.075725 0.103574 0.050480
0.088958 0.107316 0.051250
0.099958 0.111997 0.052096
0.111241 0.117295 0.053391
0.127955 0.122982 0.052906
0.152144 0.126270 0.039803
0.190442 0.132861 0.026150
0.236265 0.141365 0.009017
0.287085 0.150836 0.000935
0.344927 0.158543 0.000001
0.408952 0.163281 0.000000
0.472573 0.164736 0.000000
0.526840 0.161726 0.000000
0.571415 0.154612 0.000000
0.619090 0.154955 0.000000
0.671025 0.161583 0.000000
0.710895 0.155367 0.009808
0.737157 0.156995 0.104238
0.771602 0.200583 0.221352
0.805588 0.256870 0.317512
0.836890 0.315424 0.399792
0.865148 0.377569 0.476135
0.890544 0.444970 0.545140
0.913506 0.517337 0.607065
0.933966 0.591385 0.664701
0.951612 0.660449 0.715335
0.964514 0.717406 0.756011
0.972897 0.762188 0.785409
0.000000 0.140738 0.096514
0.000010 0.130206 0.065969
0.003350 0.128498 0.060914
0.028818 0.126868 0.056894
0.057775 0.125464 0.054329
0.076160 0.124483 0.051646
0.090433 0.125404 0.049943
0.102661 0.130537 0.050554
0.116664 0.136525 0.050610
0.137111 0.143436 0.051045
0.164473 0.150578 0.047856
0.199168 0.154866 0.023892
0.243691 0.163684 0.005624
0.295439 0.174896 0.000345
0.354491 0.184225 0.000004
0.420284 0.190470 0.000000
0.486179 0.193460 0.000000
0.543042 0.191957 0.000000
0.588338 0.184018 0.000000
0.627200 0.172225 0.000000
0.670092 0.172537 0.000000
0.716259 0.177272 0.001229
0.741171 0.171500 0.057822
0.772078 0.204125 0.192396
0.805875 0.258181 0.300261
0.837355 0.316824 0.389072
0.865632 0.378929 0.468778
0.890940 0.446150 0.540454
0.913862 0.518536 0.603810
0.934238 0.592352 0.662577
0.951814 0.661162 0.713948
0.964628 0.717818 0.755096
0.972976 0.762484 0.784777
0.000000 0.166190 0.111379
0.000000 0.155478 0.072985
0.000382 0.155351 0.066005
0.015493 0.154710 0.059939
0.042495 0.154094 0.055387
0.069626 0.153498 0.052265
0.087445 0.152734 0.048746
0.100472 0.155354 0.046623
0.117952 0.161826 0.045434
0.143116 0.169616 0.043041
0.175298 0.178377 0.040751
0.213731 0.187370 0.031846
0.254941 0.193975 0.004415
0.304918 0.204358 0.000059
0.364796 0.215621 0.000000
0.432457 0.223997 0.000000
0.500772 0.229400 0.000000
0.560298 0.230281 0.000000
0.608120 0.224782 0.000000
0.647200 0.211895 0.000000
0.678729 0.195535 0.000000
0.717123 0.196308 0.000017
0.749795 0.196353 0.018303
0.773937 0.212387 0.148741
0.806260 0.259727 0.274398
0.837896 0.318338 0.373540
0.866213 0.380497 0.458538
0.891477 0.447702 0.533897
0.914290 0.519894 0.599443
0.934591 0.593553 0.659566
0.952048 0.661954 0.712073
0.964788 0.718354 0.753913
0.973091 0.762937 0.783969
0.000000 0.194580 0.130276
0.000000 0.184314 0.082608
0.000041 0.184469 0.073766
0.003482 0.185345 0.065842
0.023255 0.185918 0.058783
0.053578 0.186264 0.053174
0.076490 0.186271 0.047990
0.093175 0.186345 0.043015
0.114370 0.190169 0.037687
0.144513 0.198717 0.031454
0.182490 0.208627 0.025042
0.225730 0.219528 0.020574
0.271114 0.231193 0.009922
0.320382 0.240861 0.000059
0.376148 0.249343 0.000000
0.445083 0.259746 0.000000
0.515898 0.267388 0.000000
0.578379 0.271140 0.000000
0.628915 0.269271 0.000000
0.670571 0.260843 0.000000
0.702518 0.245662 0.000000
0.724609 0.225975 0.000000
0.757582 0.225205 0.001652
0.779050 0.227617 0.082197
0.807502 0.263663 0.235999
0.838530 0.319822 0.350718
0.866941 0.382384 0.444096
0.892109 0.449553 0.524638
0.914840 0.521628 0.593549
0.935028 0.594991 0.655595
0.952377 0.663040 0.709610
0.965013 0.719176 0.752436
0.973240 0.763502 0.782926
0.000000 0.227524 0.152570
0.000000 0.218424 0.100623
0.000001 0.216106 0.081853
0.000289 0.218695 0.074045
0.006714 0.220613 0.066099
0.023124 0.222134 0.058269
0.049959 0.223265 0.050290
0.077048 0.224032 0.041730
0.104245 0.225022 0.030317
0.138040 0.230667 0.016444
0.183343 0.241937 0.010346
0.233466 0.254541 0.007328
0.284235 0.268351 0.003542
0.337102 0.282750 0.000806
0.395763 0.293733 0.000000
0.458647 0.299170 0.000000
0.530849 0.307978 0.000000
0.596238 0.314025 0.000000
0.649919 0.315131 0.000000
0.694366 0.310250 0.000000
0.729318 0.299665 0.000000
0.752151 0.282935 0.000000
0.767812 0.262167 0.000000
0.791260 0.255909 0.019827
0.810826 0.273251 0.174201
0.839512 0.321754 0.316025
0.867811 0.384412 0.423054
0.892944 0.451871 0.511584
0.915558 0.523798 0.585359
0.935607 0.596876 0.650162
0.952793 0.664406 0.706249
0.965291 0.720164 0.750409
0.973437 0.764244 0.781541
0.000000 0.267094 0.178706
0.000000 0.259759 0.131638
0.000000 0.255583 0.103173
0.000000 0.255707 0.085595
0.000450 0.258882 0.075242
0.002967 0.261827 0.065885
0.016299 0.264205 0.056657
0.039260 0.266168 0.046029
0.071391 0.267974 0.031936
0.118022 0.271009 0.014162
0.172499 0.279581 0.003994
0.232181 0.293845 0.001840
0.291097 0.309910 0.000754
0.349418 0.326385 0.000067
0.410460 0.341482 0.000256
0.480137 0.353526 0.000001
0.550135 0.359217 0.000000
0.613995 0.362918 0.000000
0.669817 0.365646 0.000000
0.717274 0.363642 0.000000
0.755391 0.356127 0.000000
0.782640 0.344228 0.000000
0.801805 0.328212 0.000000
0.813273 0.304626 0.000580
0.820236 0.292747 0.069218
0.842702 0.328751 0.261952
0.868850 0.386335 0.390851
0.894026 0.454546 0.492334
0.916480 0.526481 0.573825
0.936347 0.599127 0.642535
0.953319 0.666091 0.701593
0.965663 0.721452 0.747712
0.973697 0.765213 0.779686
0.000000 0.313855 0.213891
0.000000 0.308530 0.169172
0.000000 0.304863 0.143660
0.000000 0.301790 0.118777
0.000004 0.301667 0.098544
0.000060 0.304803 0.084701
0.001864 0.308469 0.072437
0.006201 0.311726 0.058580
0.019839 0.315182 0.040730
0.068429 0.319351 0.019066
0.139295 0.325052 0.004096
0.214791 0.337426 0.000693
0.286733 0.355904 0.000015
0.353569 0.374922 0.000000
0.420077 0.391853 0.000410
0.489865 0.406298 0.000484
0.569412 0.421202 0.000013
0.639649 0.428248 0.000000
0.694745 0.429179 0.000000
0.742486 0.427039 0.000000
0.783506 0.422352 0.000000
0.815502 0.415082 0.000000
0.838572 0.403633 0.000000
0.850254 0.381892 0.000000
0.848236 0.347104 0.007577
0.849267 0.342462 0.151494
0.871677 0.392034 0.340406
0.895346 0.457148 0.461955
0.917659 0.529580 0.556959
0.937287 0.601848 0.631860
0.954035 0.668306 0.695136
0.966140 0.723017 0.744031
0.974037 0.766468 0.777187
0.000000 0.365270 0.258341
0.000000 0.362405 0.214888
0.000000 0.360021 0.191821
0.000000 0.357558 0.171194
0.000000 0.355038 0.150477
0.000003 0.353921 0.130989
0.000010 0.355317 0.114694
0.000012 0.358390 0.100219
0.001738 0.363001 0.082062
0.019398 0.368867 0.055456
0.067953 0.375786 0.024258
0.166412 0.385041 0.004293
0.264370 0.402397 0.000173
0.345690 0.424675 0.000083
0.421263 0.444420 0.000182
0.496375 0.460276 0.000675
0.573228 0.474690 0.000392
0.654645 0.492050 0.000023
0.720238 0.501026 0.000000
0.772693 0.502291 0.000000
0.816048 0.499442 0.000000
0.849304 0.494030 0.000000
0.872134 0.484062 0.000000
0.884307 0.465511 0.000000
0.883749 0.433354 0.000003
0.871971 0.391943 0.028668
0.877762 0.405100 0.245421
0.898040 0.462709 0.413894
0.919248 0.532770 0.529403
0.938463 0.604885 0.616171
0.954892 0.670721 0.685459
0.966756 0.724988 0.738870
0.974480 0.768018 0.773902
0.000000 0.417766 0.308204
0.000000 0.417367 0.269715
0.000000 0.416427 0.249220
0.000000 0.415336 0.231296
0.000000 0.414038 0.214636
0.000000 0.412466 0.198200
0.000000 0.410906 0.181880
0.000000 0.410426 0.166535
0.000007 0.411260 0.148497
0.001946 0.415437 0.126701
0.016518 0.422864 0.096092
0.089028 0.432338 0.055894
0.212803 0.444987 0.017024
0.316559 0.467142 0.001813
0.408161 0.491476 0.000701
0.493573 0.510984 0.000323
0.576684 0.527128 0.002310
0.653151 0.541437 0.001264
0.727746 0.557947 0.000041
0.790131 0.567546 0.000000
0.839919 0.570140 0.000000
0.876472 0.567796 0.000000
0.900034 0.560079 0.000000
0.912796 0.545384 0.000000
0.914810 0.521358 0.000002
0.906466 0.486443 0.008360
0.895439 0.451770 0.118904
0.904411 0.476950 0.332562
0.921995 0.537758 0.483829
0.940074 0.608194 0.591684
0.955981 0.673453 0.671235
0.967530 0.727280 0.730912
0.975044 0.770039 0.769480
0.000000 0.470913 0.361013
0.000000 0.472671 0.330149
0.000000 0.472814 0.313866
0.000000 0.472633 0.299812
0.000000 0.472333 0.286651
0.000000 0.471856 0.273924
0.000000 0.471190 0.261376
0.000000 0.470367 0.248412
0.000000 0.469086 0.231669
0.000043 0.468064 0.209384
0.000816 0.469398 0.181239
0.019548 0.475842 0.148133
0.107978 0.487212 0.103471
0.252773 0.502549 0.044780
0.371707 0.526696 0.011465
0.473907 0.552164 0.006233
0.569296 0.572653 0.007290
0.653771 0.589562 0.013287
0.722084 0.602361 0.024990
0.789273 0.614922 0.003620
0.847139 0.623178 0.000133
0.890008 0.625851 0.000000
0.917363 0.622343 0.000000
0.932668 0.612635 0.000000
0.938723 0.597199 0.000735
0.935770 0.574934 0.011650
0.927412 0.547094 0.095899
0.922109 0.524819 0.243395
0.928763 0.552226 0.409191
0.942628 0.612113 0.550108
0.957451 0.676392 0.648651
0.968545 0.729975 0.718751
0.975727 0.772229 0.762528
0.000000 0.525540 0.414542
0.000000 0.529189 0.391001
0.000000 0.530148 0.379165
0.000000 0.530698 0.369058
0.000000 0.531005 0.359715
0.000000 0.531104 0.350765
0.000000 0.531087 0.342123
0.000000 0.530880 0.332956
0.000004 0.530473 0.321313
0.000004 0.529673 0.304904
0.000004 0.528147 0.280644
0.001913 0.526315 0.245378
0.030241 0.531135 0.205354
0.147602 0.543414 0.157746
0.306406 0.560564 0.088546
0.430554 0.585308 0.045039
0.544650 0.611530 0.035000
0.643663 0.632919 0.042467
0.720735 0.648716 0.067704
0.781716 0.659380 0.084681
0.841599 0.667262 0.027236
0.890516 0.673282 0.006340
0.923731 0.674329 0.002178
0.943464 0.669355 0.002432
0.953522 0.659478 0.007549
0.955659 0.645639 0.035563
0.953767 0.631123 0.133241
0.950989 0.615743 0.244092
0.945804 0.598437 0.335386
0.949075 0.624695 0.481071
0.959726 0.679518 0.610865
0.969904 0.732965 0.699100
0.976615 0.774707 0.751731
0.000000 0.580161 0.468844
0.000000 0.584568 0.450636
0.000000 0.585960 0.441885
0.000000 0.586876 0.434475
0.000004 0.587550 0.427893
0.000005 0.588041 0.421689
0.000008 0.588400 0.415692
0.000008 0.588689 0.409800
0.000010 0.588907 0.402205
0.000011 0.588990 0.391709
0.000013 0.588717 0.376567
0.000100 0.587667 0.353672
0.002371 0.585689 0.318393
0.035971 0.586505 0.269242
0.189918 0.600116 0.219008
0.360247 0.619701 0.153981
0.496503 0.644628 0.111824
0.618242 0.671196 0.109312
0.710546 0.691435 0.120429
0.780167 0.706524 0.162305
0.836344 0.716336 0.197126
0.884762 0.718285 0.114215
0.921477 0.719775 0.056968
0.946098 0.718613 0.040591
0.960742 0.713690 0.049149
0.968244 0.706638 0.094985
0.971358 0.700139 0.182856
0.972479 0.693816 0.270328
0.969950 0.681601 0.339854
0.964050 0.666455 0.415467
0.965288 0.689623 0.548125
0.971973 0.736232 0.664629
0.977846 0.777524 0.734050
0.000000 0.631004 0.522924
0.000003 0.635139 0.508377
0.000012 0.636630 0.501585
0.000031 0.637728 0.496097
0.000043 0.638557 0.491185
0.000054 0.639235 0.486579
0.000062 0.639809 0.482385
0.000063 0.640302 0.478103
0.000067 0.640847 0.472918
0.000071 0.641453 0.465885
0.000071 0.642085 0.456210
0.000264 0.642536 0.442171
0.003238 0.642623 0.421544
0.019116 0.641721 0.389217
0.077148 0.640606 0.338263
0.252264 0.655273 0.287816
0.425000 0.675867 0.231403
0.568913 0.701369 0.201320
0.687670 0.727366 0.207099
0.770102 0.745708 0.229925
0.833518 0.758896 0.261090
0.882450 0.768045 0.286257
0.919480 0.766767 0.229840
0.946002 0.764112 0.176816
0.964463 0.761910 0.159109
0.976834 0.760528 0.186463
0.983820 0.759547 0.245342
0.986892 0.758042 0.306658
0.986917 0.753278 0.363855
0.983489 0.742316 0.420826
0.977772 0.727663 0.488373
0.976806 0.745935 0.607746
0.979760 0.780468 0.701016
0.000000 0.675998 0.573694
0.000003 0.679894 0.562737
0.000003 0.681373 0.557719
0.000006 0.682451 0.553775
0.000007 0.683353 0.550112
0.000013 0.684108 0.546938
0.000066 0.684762 0.543753
0.000126 0.685352 0.540823
0.000246 0.686036 0.537136
0.000757 0.686882 0.532211
0.001659 0.687920 0.525606
0.004162 0.689072 0.516471
0.011168 0.690339 0.503521
0.028618 0.691508 0.484770
0.074405 0.692242 0.456092
0.167526 0.692727 0.410721
0.331495 0.705093 0.358936
0.494968 0.725439 0.307884
0.640822 0.751276 0.285728
0.747792 0.774836 0.296116
0.822408 0.790381 0.315175
0.878140 0.801796 0.341140
0.917302 0.809788 0.363440
0.946365 0.808186 0.330065
0.967604 0.805819 0.302744
0.982329 0.805188 0.300030
0.991168 0.805622 0.320001
0.995229 0.806153 0.353542
0.996657 0.806098 0.396294
0.995764 0.803268 0.444441
0.992792 0.794943 0.494600
0.987256 0.780767 0.554967
0.984348 0.790255 0.644345
0.000010 0.716650 0.619130
0.000558 0.720280 0.611240
0.001252 0.721683 0.607692
0.001926 0.722703 0.604973
0.003313 0.723553 0.602451
0.004580 0.724281 0.600295
0.006409 0.724921 0.598299
0.009659 0.725531 0.596253
0.013499 0.726236 0.593922
0.019008 0.727116 0.590764
0.028016 0.728217 0.586373
0.041315 0.729565 0.580570
0.062328 0.731216 0.572653
0.095435 0.733150 0.561551
0.143263 0.735328 0.545375
0.206931 0.737342 0.520328
0.287827 0.738948 0.479631
0.414298 0.748414 0.427336
0.568132 0.768318 0.379946
0.704611 0.792849 0.362097
0.799727 0.812774 0.373322
0.866491 0.825788 0.390702
0.912160 0.835563 0.413957
0.942515 0.841993 0.434590
0.965761 0.840657 0.409575
0.982868 0.839468 0.392334
0.993498 0.839610 0.392902
0.998348 0.840281 0.409095
0.999596 0.841060 0.437362
0.999735 0.842168 0.474940
0.999234 0.841573 0.518132
0.997580 0.835863 0.562196
0.993581 0.824471 0.601647
0.005851 0.754591 0.661117
0.014805 0.757608 0.655526
0.021649 0.758862 0.653129
0.026953 0.759762 0.651308
0.031866 0.760530 0.649654
0.036142 0.761187 0.648172
0.039876 0.761761 0.646881
0.044230 0.762308 0.645649
0.052496 0.762990 0.644113
0.063028 0.763831 0.642206
0.077807 0.764884 0.639749
0.102158 0.766246 0.636354
0.134252 0.767921 0.631899
0.176436 0.769987 0.625698
0.227953 0.772456 0.616892
0.283635 0.775173 0.603767
0.339372 0.777678 0.582324
0.399645 0.779476 0.545494
0.497152 0.786541 0.492753
0.638080 0.805655 0.448746
0.759781 0.827190 0.433964
0.845180 0.843590 0.444857
0.901569 0.854640 0.461255
0.937257 0.862633 0.483060
0.961043 0.867842 0.502545
0.979855 0.867134 0.482611
0.992531 0.866525 0.470083
0.998635 0.866400 0.472055
0.999942 0.866594 0.486686
0.999997 0.867972 0.512806
0.999997 0.869826 0.546827
0.999924 0.870040 0.584141
0.999582 0.867621 0.614966
0.152573 0.790288 0.703237
0.187441 0.792894 0.700143
0.201744 0.793941 0.698743
0.212226 0.794714 0.697719
0.221309 0.795383 0.696812
0.229459 0.795967 0.695948
0.236548 0.796479 0.695197
0.243149 0.796957 0.694499
0.250787 0.797514 0.693665
0.260435 0.798225 0.692455
0.272501 0.799125 0.690899
0.287239 0.800243 0.688914
0.303972 0.801660 0.686141
0.324199 0.803398 0.682463
0.349179 0.805494 0.677129
0.378075 0.807960 0.669495
0.412072 0.810766 0.658079
0.451787 0.813550 0.639586
0.499914 0.815734 0.607182
0.578445 0.821088 0.556338
0.700939 0.837994 0.515447
0.808884 0.855855 0.502374
0.883167 0.869545 0.513363
0.928099 0.878706 0.529483
0.956074 0.885106 0.549876
0.975236 0.889773 0.567943
0.989372 0.889283 0.551970
0.997615 0.888452 0.542194
0.999899 0.887768 0.544542
1.000000 0.888304 0.558552
1.000000 0.890071 0.581945
1.000000 0.891687 0.610422
1.000000 0.892129 0.635636
0.342904 0.822161 0.743541
0.361552 0.824154 0.741892
0.368927 0.824964 0.741161
0.374363 0.825571 0.740617
0.378906 0.826067 0.740135
0.383048 0.826529 0.739651
0.386754 0.826940 0.739219
0.390157 0.827320 0.738819
0.394122 0.827761 0.738352
0.399124 0.828322 0.737757
0.405698 0.829060 0.736886
0.414042 0.829995 0.735726
0.424211 0.831141 0.734234
0.436252 0.832565 0.732024
0.450840 0.834308 0.729044
0.469276 0.836432 0.724554
0.491921 0.838976 0.718044
0.519477 0.841903 0.708243
