luts/apple-log-2/33x/Apple_LOG_2_to_Kodak_2383_D60_Rec709_G2-4.cube
TITLE "Apple LOG 2 to Kodak 2383 D60 Rec709 G2-4"
#  
# Apple LOG 2 to Rec.709 Hybrid LUT
#  
# This hybrid LUT converts Apple LOG 2 to Rec.709 Gamma 2.4
#  
# Based on an original creative LUT included in DaVinci Resolve, adapted for a different color space.  
#  
# Created by Tobia Montanari | tobiamontanari.com
#  
#  
# 
LUT_3D_SIZE 33
0.030549 0.038148 0.044801
0.030582 0.038155 0.044806
0.039030 0.040254 0.046171
0.068684 0.046381 0.048760
0.090155 0.051786 0.049800
0.106881 0.055339 0.050521
0.124162 0.057378 0.051032
0.142996 0.058989 0.050558
0.163548 0.060755 0.049776
0.186084 0.062733 0.048612
0.211426 0.064959 0.046905
0.240672 0.067006 0.045784
0.275926 0.067187 0.045084
0.318164 0.063458 0.047371
0.366571 0.050500 0.058400
0.418841 0.030377 0.073378
0.471695 0.012838 0.093777
0.522896 0.008110 0.116083
0.573567 0.011380 0.144755
0.621944 0.019391 0.181223
0.666474 0.041528 0.224782
0.706581 0.077129 0.273289
0.743852 0.126412 0.325551
0.778521 0.182842 0.380353
0.811467 0.245463 0.438150
0.842408 0.309330 0.498704
0.870713 0.375341 0.559086
0.896373 0.445634 0.616921
0.919405 0.521194 0.673494
0.939572 0.599107 0.727268
0.956823 0.672207 0.774970
0.969204 0.732185 0.814402
0.976989 0.778912 0.843565
0.030549 0.038148 0.044801
0.030549 0.038148 0.044801
0.030578 0.038157 0.044794
0.037271 0.040739 0.042881
0.051254 0.045753 0.040802
0.072867 0.050752 0.039591
0.087165 0.055135 0.039076
0.099202 0.058710 0.038761
0.116952 0.061843 0.037285
0.142745 0.064714 0.034746
0.174327 0.067835 0.028904
0.208206 0.071782 0.017036
0.246913 0.076421 0.004112
0.293763 0.080559 0.000382
0.349731 0.082400 0.000040
0.411019 0.080197 0.000013
0.469088 0.072755 0.000202
0.521082 0.057206 0.006322
0.568942 0.035334 0.042586
0.618104 0.037835 0.099465
0.664845 0.060432 0.154730
0.707023 0.094667 0.217907
0.745095 0.139733 0.283534
0.780137 0.193343 0.348065
0.813097 0.253490 0.412693
0.844103 0.315437 0.479030
0.872229 0.380177 0.544658
0.897572 0.449760 0.606427
0.920330 0.524687 0.665686
0.940283 0.601821 0.722014
0.957298 0.674027 0.771965
0.969524 0.733484 0.812551
0.977204 0.779893 0.842289
0.030549 0.038148 0.044801
0.030549 0.038148 0.044801
0.030549 0.038148 0.044801
0.032222 0.038905 0.043912
0.039538 0.043418 0.040350
0.053936 0.048255 0.040344
0.073258 0.052622 0.040370
0.086472 0.056504 0.040052
0.100378 0.060751 0.039795
0.123076 0.064812 0.037766
0.156238 0.068844 0.034143
0.194016 0.073748 0.024515
0.234808 0.079460 0.008722
0.282609 0.085075 0.000805
0.338860 0.089847 0.000016
0.400397 0.094823 0.000000
0.463501 0.098236 0.000000
0.522680 0.095559 0.000000
0.573567 0.082228 0.005179
0.618071 0.055752 0.044872
0.663669 0.066143 0.116922
0.706932 0.100207 0.188982
0.745442 0.144034 0.262613
0.780669 0.197002 0.333320
0.813662 0.256121 0.401753
0.844689 0.317501 0.470878
0.872799 0.381914 0.538831
0.898002 0.451227 0.602352
0.920666 0.525924 0.662618
0.940579 0.602955 0.719956
0.957494 0.674814 0.770571
0.969648 0.733951 0.811638
0.977308 0.780357 0.841811
0.029723 0.042538 0.047709
0.030781 0.039188 0.045106
0.030732 0.038517 0.044892
0.030738 0.038375 0.044802
0.036465 0.041743 0.040648
0.042641 0.046350 0.040422
0.058772 0.050510 0.041120
0.075589 0.054423 0.041003
0.090318 0.059040 0.040814
0.109348 0.064567 0.039998
0.140737 0.069907 0.036811
0.181563 0.075292 0.029621
0.224719 0.081358 0.013942
0.273923 0.088363 0.001549
0.332049 0.095732 0.000050
0.395901 0.102565 0.000000
0.458640 0.109015 0.000000
0.518622 0.112779 0.000000
0.576240 0.108909 0.000206
0.622731 0.088695 0.011690
0.663316 0.073250 0.078251
0.706555 0.103647 0.163278
0.745534 0.146919 0.244243
0.780983 0.199466 0.320609
0.814115 0.258166 0.392762
0.845129 0.319026 0.464135
0.873187 0.383109 0.534166
0.898344 0.452315 0.599065
0.920948 0.526948 0.660289
0.940755 0.603585 0.718236
0.957670 0.675432 0.769518
0.969754 0.734351 0.810911
0.977370 0.780633 0.841386
0.025885 0.054307 0.056296
0.034999 0.048825 0.048777
0.036753 0.047381 0.047564
0.036841 0.046356 0.046762
0.037800 0.047119 0.047521
0.042766 0.049119 0.042499
0.054085 0.052560 0.042535
0.069650 0.056123 0.042418
0.084970 0.060375 0.041991
0.101277 0.065531 0.041542
0.128846 0.070941 0.038891
0.170174 0.076645 0.033313
0.215595 0.083498 0.018444
0.266178 0.092139 0.003045
0.325607 0.100773 0.000081
0.391523 0.108352 0.000000
0.456686 0.115338 0.000000
0.515786 0.121269 0.000000
0.574707 0.122977 0.000000
0.627252 0.114407 0.002224
0.665886 0.089499 0.045260
0.706164 0.106346 0.138193
0.745585 0.149229 0.226736
0.781244 0.201500 0.308898
0.814458 0.259685 0.384612
0.845486 0.320257 0.458227
0.873559 0.384228 0.530064
0.898655 0.453325 0.596305
0.921177 0.527810 0.658246
0.940926 0.604221 0.716745
0.957795 0.675897 0.768532
0.969844 0.734704 0.810328
0.977432 0.780940 0.841046
0.006429 0.069921 0.062110
0.034203 0.061938 0.052287
0.038261 0.059092 0.050690
0.041036 0.056908 0.049482
0.043827 0.056485 0.049406
0.049861 0.059984 0.052223
0.061238 0.062918 0.046363
0.074560 0.066819 0.044701
0.088700 0.071864 0.044232
0.105196 0.077738 0.043206
0.132114 0.083306 0.040614
0.171252 0.088241 0.034060
0.214555 0.092852 0.019060
0.261999 0.098023 0.003908
0.319971 0.104870 0.000148
0.387310 0.112918 0.000000
0.454910 0.120297 0.000000
0.515393 0.126694 0.000000
0.571944 0.131474 0.000000
0.629093 0.129127 0.000091
0.669829 0.108090 0.022278
0.706226 0.110679 0.113253
0.745501 0.151088 0.209585
0.781400 0.203140 0.297755
0.814758 0.260976 0.377148
0.845831 0.321380 0.452873
0.873853 0.385096 0.526242
0.898893 0.454111 0.593739
0.921379 0.528510 0.656397
0.941097 0.604850 0.715476
0.957893 0.676242 0.767694
0.969923 0.734973 0.809818
0.977490 0.781155 0.840666
0.000621 0.082489 0.068095
0.019347 0.074980 0.055258
0.031497 0.072621 0.053084
0.040428 0.070583 0.051673
0.045999 0.068959 0.050853
0.057924 0.072391 0.052794
0.069825 0.076532 0.055167
0.079900 0.079120 0.048753
0.092165 0.083403 0.046091
0.108942 0.089393 0.044707
0.136584 0.095364 0.041869
0.176346 0.100969 0.034612
0.220804 0.106424 0.017435
0.268899 0.112256 0.003203
0.323685 0.116316 0.000105
0.385520 0.118541 0.000000
0.453125 0.124434 0.000000
0.515227 0.131202 0.000000
0.570870 0.136889 0.000000
0.628508 0.138739 0.000008
0.674164 0.125857 0.009216
0.707319 0.117848 0.088892
0.745396 0.152737 0.192678
0.781565 0.204560 0.286889
0.815013 0.262076 0.369882
0.846106 0.322260 0.447758
0.874154 0.385957 0.522748
0.899122 0.454829 0.591382
0.921560 0.529164 0.654751
0.941256 0.605476 0.714404
0.957996 0.676658 0.766920
0.970008 0.735361 0.809404
0.977526 0.781321 0.840274
0.000008 0.092344 0.074599
0.005612 0.084998 0.058114
0.021971 0.083322 0.055263
0.038535 0.081857 0.053755
0.050564 0.080572 0.052435
0.064687 0.082756 0.052989
0.077151 0.087195 0.055222
0.086865 0.091003 0.055851
0.096833 0.093677 0.049786
0.112754 0.098688 0.046376
0.140913 0.104886 0.043054
0.180903 0.110932 0.035080
0.226069 0.117039 0.016383
0.275264 0.123981 0.002660
0.331436 0.129526 0.000055
0.392934 0.131718 0.000000
0.454780 0.131689 0.000000
0.515110 0.135423 0.000000
0.571129 0.141155 0.000000
0.626795 0.145195 0.000000
0.677261 0.139124 0.003176
0.709232 0.126455 0.066405
0.745378 0.154626 0.175626
0.781666 0.205764 0.275623
0.815249 0.263111 0.362719
0.846386 0.323126 0.442804
0.874401 0.386661 0.519330
0.899335 0.455464 0.589073
0.921732 0.529762 0.653176
0.941389 0.605966 0.713241
0.958079 0.676896 0.766142
0.970071 0.735563 0.808909
0.977569 0.781458 0.839930
0.000000 0.104429 0.081387
0.000740 0.095353 0.061449
0.012644 0.093959 0.058007
0.034784 0.092846 0.056122
0.055899 0.092004 0.054327
0.070620 0.092804 0.053581
0.083632 0.097420 0.055025
0.094054 0.101684 0.056803
0.104283 0.106131 0.057395
0.117914 0.108730 0.049049
0.145972 0.114699 0.044209
0.186024 0.121251 0.035280
0.231613 0.128018 0.015282
0.281696 0.135812 0.002091
0.339227 0.142641 0.000013
0.402501 0.146447 0.000000
0.464692 0.146724 0.000000
0.518948 0.144047 0.000000
0.571892 0.145892 0.000000
0.625487 0.150900 0.000000
0.679129 0.152072 0.000697
0.713016 0.140045 0.040863
0.745709 0.158064 0.153817
0.781722 0.207148 0.261029
0.815497 0.264219 0.353738
0.846642 0.323994 0.436652
0.874677 0.387512 0.515051
0.899596 0.456271 0.586303
0.921921 0.530442 0.651200
0.941528 0.606463 0.711852
0.958189 0.677292 0.765285
0.970148 0.735849 0.808341
0.977618 0.781689 0.839533
0.000000 0.121571 0.090804
0.000033 0.111393 0.065460
0.006485 0.109504 0.061454
0.031597 0.107865 0.058836
0.059270 0.106630 0.056696
0.074630 0.106173 0.054530
0.088248 0.109986 0.055243
0.099423 0.114789 0.056169
0.111027 0.120262 0.057686
0.128118 0.126138 0.057695
0.152780 0.129591 0.046004
0.191768 0.136291 0.033686
0.237992 0.144542 0.013857
0.289251 0.153814 0.001654
0.347944 0.161705 0.000003
0.412905 0.166555 0.000000
0.477390 0.167846 0.000000
0.532387 0.164629 0.000000
0.577571 0.157220 0.000000
0.625807 0.157343 0.000000
0.678182 0.163934 0.000000
0.718525 0.158655 0.017706
0.746894 0.164917 0.124356
0.781747 0.208798 0.240569
0.815787 0.265505 0.341273
0.847035 0.325207 0.428275
0.875046 0.388575 0.509257
0.899931 0.457295 0.582610
0.922192 0.531372 0.648603
0.941718 0.607126 0.710086
0.958350 0.677878 0.764166
0.970250 0.736208 0.807616
0.977694 0.782043 0.839048
0.000000 0.144178 0.103385
0.000006 0.133636 0.071363
0.002676 0.131863 0.065941
0.025705 0.130149 0.061660
0.053859 0.128651 0.058846
0.073470 0.127626 0.056122
0.088636 0.128578 0.054662
0.101294 0.133846 0.055368
0.115788 0.140006 0.055626
0.136802 0.147133 0.056662
0.164903 0.154532 0.054552
0.200177 0.158762 0.032548
0.245122 0.167258 0.010159
0.297480 0.178481 0.001164
0.357470 0.188060 0.000010
0.424224 0.194456 0.000000
0.491029 0.197365 0.000000
0.548682 0.195701 0.000000
0.594618 0.187522 0.000000
0.633989 0.175187 0.000000
0.677344 0.175250 0.000000
0.723731 0.180137 0.003760
0.750243 0.177931 0.079560
0.782239 0.212510 0.211341
0.816094 0.266885 0.323259
0.847509 0.326637 0.417002
0.875536 0.389985 0.501514
0.900346 0.458513 0.577673
0.922550 0.532599 0.645170
0.941989 0.608120 0.707850
0.958549 0.678610 0.762695
0.970364 0.736631 0.806665
0.977771 0.782352 0.838388
0.000000 0.170373 0.119522
0.000000 0.159728 0.079464
0.000297 0.159509 0.072192
0.012615 0.158792 0.065780
0.037909 0.158099 0.060806
0.065201 0.157427 0.057553
0.083755 0.156629 0.054634
0.097611 0.159330 0.053102
0.115918 0.165990 0.052459
0.141889 0.173999 0.050861
0.175063 0.183011 0.049646
0.214379 0.192169 0.042525
0.256052 0.198195 0.009190
0.306715 0.208620 0.000264
0.367642 0.220255 0.000004
0.436316 0.228830 0.000000
0.505605 0.234274 0.000000
0.565997 0.235131 0.000000
0.614510 0.229476 0.000000
0.654150 0.216101 0.000000
0.686083 0.199008 0.000000
0.724780 0.199655 0.000143
0.757880 0.200877 0.030539
0.783985 0.220735 0.168597
0.816512 0.268581 0.296357
0.848079 0.328193 0.400697
0.876125 0.391617 0.490736
0.900888 0.460133 0.570771
0.922975 0.534002 0.640567
0.942338 0.609361 0.704685
0.958787 0.679422 0.760723
0.970524 0.737191 0.805417
0.977886 0.782817 0.837544
0.000000 0.199769 0.140181
0.000000 0.189260 0.089680
0.000013 0.189540 0.081080
0.001837 0.190369 0.073292
0.017191 0.190846 0.065780
0.043670 0.191109 0.059836
0.068447 0.191074 0.055321
0.087582 0.191151 0.051457
0.110517 0.195053 0.047225
0.142010 0.203776 0.041897
0.181193 0.213775 0.035614
0.225588 0.224857 0.031971
0.271757 0.236478 0.020092
0.321798 0.245929 0.000417
0.378683 0.254752 0.000000
0.448766 0.265444 0.000000
0.520637 0.273238 0.000000
0.584047 0.277023 0.000000
0.635371 0.275105 0.000000
0.677647 0.266424 0.000000
0.710065 0.250707 0.000000
0.732466 0.230391 0.000000
0.765437 0.229351 0.003378
0.788286 0.234690 0.099694
0.817802 0.272786 0.256908
0.848737 0.329740 0.376786
0.876883 0.393587 0.475549
0.901541 0.462078 0.561023
0.923528 0.535789 0.634364
0.942766 0.610837 0.700501
0.959098 0.680530 0.758136
0.970748 0.738031 0.803860
0.978027 0.783397 0.836436
0.000000 0.233700 0.164444
0.000000 0.224187 0.109076
0.000000 0.221887 0.089710
0.000044 0.224650 0.082575
0.002246 0.226611 0.075142
0.008261 0.228076 0.067156
0.031255 0.229124 0.059706
0.061505 0.229842 0.052435
0.094229 0.230721 0.042460
0.132647 0.236190 0.029715
0.180371 0.247456 0.021226
0.232002 0.260095 0.013989
0.283800 0.274035 0.008546
0.337724 0.288634 0.003288
0.397753 0.300043 0.000002
0.462077 0.305849 0.000000
0.535413 0.314856 0.000000
0.601823 0.321041 0.000000
0.656348 0.322144 0.000000
0.701481 0.317085 0.000000
0.736996 0.306194 0.000000
0.760223 0.289002 0.000000
0.776055 0.267528 0.000011
0.799509 0.261417 0.026334
0.821064 0.282452 0.195110
0.849773 0.331795 0.340569
0.877781 0.395692 0.453433
0.902407 0.464510 0.547278
0.924263 0.538026 0.625734
0.943330 0.612789 0.694779
0.959515 0.681943 0.754606
0.971025 0.739042 0.801730
0.978210 0.784161 0.834974
0.000000 0.274369 0.192699
0.000000 0.266640 0.142286
0.000000 0.262305 0.112559
0.000000 0.262497 0.094804
0.000016 0.265895 0.085304
0.000482 0.268938 0.076846
0.007332 0.271308 0.068656
0.021922 0.273177 0.059764
0.051630 0.274761 0.047055
0.105038 0.277279 0.026074
0.165895 0.285570 0.010568
0.228740 0.299954 0.004176
0.289489 0.316326 0.001640
0.349146 0.333157 0.001101
0.411361 0.348592 0.000805
0.482660 0.361209 0.000001
0.554247 0.367293 0.000000
0.619305 0.371171 0.000000
0.676113 0.373995 0.000000
0.724391 0.371959 0.000000
0.763105 0.364157 0.000000
0.790795 0.351859 0.000000
0.810244 0.335355 0.000000
0.821621 0.310838 0.000794
0.829208 0.300228 0.083021
0.853031 0.339068 0.284773
0.878866 0.397684 0.419637
0.903514 0.467312 0.527023
0.925213 0.540819 0.613592
0.944064 0.615117 0.686740
0.960044 0.683686 0.749693
0.971398 0.740373 0.798883
0.978458 0.785157 0.833025
0.000000 0.322099 0.229518
0.000000 0.316822 0.182639
0.000000 0.313015 0.155720
0.000000 0.309845 0.130051
0.000003 0.309801 0.109850
0.000020 0.313091 0.096906
0.000271 0.316863 0.085999
0.001288 0.320128 0.074562
0.011132 0.323431 0.059401
0.053195 0.327024 0.036021
0.122510 0.332024 0.011777
0.206668 0.344425 0.001800
0.283043 0.363341 0.000180
0.352002 0.382826 0.000150
0.419940 0.400090 0.001437
0.491020 0.414790 0.001527
0.572513 0.430445 0.000025
0.644366 0.437976 0.000000
0.700664 0.439103 0.000000
0.749372 0.436988 0.000000
0.791086 0.432126 0.000000
0.823583 0.424552 0.000000
0.846958 0.412667 0.000000
0.858726 0.390183 0.000000
0.856593 0.354456 0.011537
0.859230 0.352498 0.175614
0.881753 0.403563 0.367020
0.904891 0.470035 0.495079
0.926425 0.544038 0.595830
0.945027 0.617926 0.675492
0.960753 0.685971 0.742895
0.971871 0.741983 0.795007
0.978779 0.786443 0.830403
0.000000 0.374798 0.276962
0.000000 0.371909 0.231217
0.000000 0.369643 0.207147
0.000000 0.367119 0.185596
0.000000 0.364588 0.164379
0.000000 0.363529 0.144854
0.000000 0.365017 0.128954
0.000008 0.368175 0.115612
0.000922 0.372815 0.099668
0.011301 0.378425 0.074758
0.047954 0.384651 0.039812
0.149234 0.393283 0.009570
0.256141 0.410856 0.000701
0.341667 0.433672 0.000483
0.419385 0.453775 0.000730
0.496135 0.469861 0.003136
0.574458 0.484481 0.002395
0.658021 0.502810 0.000072
0.725179 0.512387 0.000000
0.778843 0.513860 0.000000
0.823112 0.511003 0.000000
0.856974 0.505406 0.000000
0.880196 0.495086 0.000000
0.892469 0.475825 0.000000
0.891543 0.442319 0.000234
0.879841 0.400285 0.042365
0.887788 0.416890 0.270876
0.907657 0.475784 0.444717
0.928047 0.547345 0.566833
0.946232 0.621071 0.658961
0.961610 0.688468 0.732698
0.972483 0.744022 0.789584
0.979179 0.788034 0.826955
0.000000 0.429041 0.330882
0.000000 0.428389 0.290070
0.000000 0.427485 0.268550
0.000000 0.426469 0.249813
0.000000 0.425192 0.232430
0.000000 0.423633 0.215391
0.000000 0.422084 0.198631
0.000000 0.421619 0.182981
0.000004 0.422485 0.164932
0.001004 0.426727 0.144222
0.010179 0.434088 0.115904
0.072102 0.443009 0.073554
0.192945 0.454864 0.025973
0.307940 0.477044 0.005158
0.403777 0.501805 0.003747
0.491467 0.521596 0.003438
0.576429 0.538046 0.008931
0.654456 0.552678 0.012956
0.730921 0.569866 0.000877
0.794999 0.580206 0.000008
0.846064 0.583135 0.000000
0.883422 0.580805 0.000000
0.907375 0.572773 0.000000
0.920197 0.557397 0.000000
0.921880 0.532225 0.000023
0.913393 0.496389 0.017388
0.904789 0.464018 0.150755
0.914079 0.490473 0.360562
0.930870 0.552526 0.518969
0.947890 0.624510 0.633183
0.962711 0.691307 0.717722
0.973267 0.746383 0.781188
0.979714 0.790117 0.822299
0.000000 0.483474 0.387385
0.000000 0.485517 0.355093
0.000000 0.485668 0.337882
0.000000 0.485426 0.322950
0.000000 0.485064 0.309042
0.000000 0.484574 0.295683
0.000000 0.483893 0.282554
0.000000 0.483053 0.269003
0.000000 0.481769 0.251638
0.000008 0.480734 0.228674
0.000229 0.482146 0.200235
0.013642 0.488685 0.167988
0.088819 0.499793 0.124380
0.236591 0.514302 0.061070
0.363682 0.538211 0.025711
0.469625 0.563873 0.018708
0.567580 0.584851 0.022594
0.654029 0.602300 0.034275
0.723918 0.615728 0.046800
0.792163 0.627862 0.008832
0.851485 0.636556 0.000456
0.895455 0.639530 0.000001
0.923448 0.635957 0.000000
0.938889 0.625757 0.000000
0.944768 0.609540 0.001475
0.941973 0.587001 0.028363
0.935914 0.561428 0.141282
0.931545 0.539595 0.271058
0.937703 0.567464 0.441169
0.950544 0.628614 0.589477
0.964223 0.694345 0.693929
0.974257 0.749165 0.768369
0.980385 0.792390 0.814985
0.000000 0.539295 0.444370
0.000000 0.543417 0.420187
0.000000 0.544497 0.407731
0.000000 0.545061 0.396993
0.000000 0.545344 0.387059
0.000000 0.545364 0.377530
0.000000 0.545253 0.368311
0.000000 0.545032 0.358628
0.000001 0.544628 0.346407
0.000009 0.543856 0.329240
0.000025 0.542363 0.303984
0.001180 0.540553 0.267471
0.020244 0.545452 0.226908
0.124243 0.557647 0.180252
0.287775 0.574383 0.114811
0.422838 0.599086 0.072568
0.541259 0.625703 0.065901
0.642854 0.647591 0.072185
0.722306 0.664730 0.108075
0.784791 0.676052 0.135762
0.844396 0.681706 0.044508
0.894098 0.687321 0.008341
0.928122 0.688440 0.003113
0.948262 0.683289 0.003633
0.958455 0.673109 0.010783
0.961174 0.659649 0.049795
0.961355 0.647436 0.167652
0.959564 0.632745 0.274645
0.954433 0.614899 0.365608
0.957074 0.641616 0.517277
0.966588 0.697614 0.654156
0.975625 0.752264 0.747679
0.981303 0.794967 0.803619
0.000000 0.595353 0.502340
0.000000 0.599972 0.483379
0.000000 0.601516 0.474282
0.000000 0.602538 0.466511
0.000000 0.603280 0.459589
0.000000 0.603791 0.453072
0.000000 0.604155 0.446753
0.000004 0.604442 0.440546
0.000007 0.604645 0.432547
0.000015 0.604727 0.421518
0.000015 0.604513 0.405666
0.000027 0.603567 0.381763
0.000395 0.601621 0.344967
0.021237 0.602337 0.293946
0.160069 0.615861 0.242951
0.344524 0.635654 0.182575
0.490098 0.661062 0.146687
0.616180 0.688374 0.147664
0.711049 0.709367 0.167734
0.782426 0.725080 0.203445
0.840023 0.735446 0.234063
0.888605 0.735916 0.141890
0.925392 0.736271 0.077188
0.950436 0.734790 0.060241
0.965691 0.730106 0.073795
0.974408 0.724297 0.132647
0.978740 0.719113 0.223595
0.980027 0.712705 0.303117
0.977568 0.700112 0.371983
0.971722 0.684501 0.449534
0.972233 0.708068 0.588387
0.977767 0.755670 0.711396
0.982607 0.797895 0.784995
0.000000 0.647504 0.560236
0.000000 0.651888 0.545027
0.000000 0.653496 0.537918
0.000000 0.654671 0.532184
0.000000 0.655557 0.527055
0.000000 0.656278 0.522258
0.000000 0.656897 0.517891
0.000002 0.657428 0.513439
0.000003 0.658015 0.508032
0.000007 0.658677 0.500707
0.000007 0.659401 0.490626
0.000005 0.659956 0.475964
0.000185 0.660085 0.454296
0.004769 0.659095 0.420198
0.046225 0.657705 0.366531
0.221099 0.672332 0.314202
0.411041 0.693445 0.258965
0.563686 0.719800 0.232738
0.686392 0.746577 0.241592
0.771039 0.765531 0.264159
0.835989 0.779135 0.294956
0.885987 0.788515 0.319725
0.924103 0.787309 0.269261
0.951292 0.784485 0.224964
0.970248 0.782225 0.213713
0.983059 0.780968 0.237096
0.990157 0.780030 0.284659
0.992857 0.778264 0.339999
0.992846 0.773323 0.397994
0.989835 0.762163 0.456354
0.984305 0.747126 0.526361
0.982671 0.765700 0.651671
0.984627 0.800984 0.750195
0.000003 0.693789 0.614797
0.000010 0.697913 0.603431
0.000022 0.699468 0.598184
0.000022 0.700596 0.594054
0.000025 0.701552 0.590224
0.000025 0.702343 0.586904
0.000025 0.703036 0.583584
0.000028 0.703674 0.580521
0.000028 0.704394 0.576665
0.000033 0.705298 0.571510
0.000129 0.706405 0.564600
0.000793 0.707625 0.555015
0.003819 0.708934 0.541327
0.014272 0.710099 0.521454
0.046564 0.710700 0.490949
0.124429 0.710872 0.442717
0.302655 0.723322 0.388670
0.483310 0.744287 0.337112
0.636529 0.770951 0.315806
0.746879 0.795256 0.328166
0.823465 0.811271 0.348358
0.880525 0.823041 0.375235
0.920567 0.831287 0.398454
0.950524 0.829716 0.364657
0.972418 0.827361 0.338751
0.987582 0.826757 0.336038
0.995893 0.826914 0.354500
0.998521 0.826884 0.388031
0.999158 0.826515 0.431436
0.998639 0.823744 0.481071
0.996789 0.815572 0.533368
0.992344 0.801365 0.596628
0.989251 0.811089 0.690662
0.000021 0.735717 0.663818
0.000045 0.739473 0.655547
0.000067 0.740940 0.651835
0.000079 0.742009 0.648999
0.000091 0.742902 0.646339
0.000100 0.743651 0.644078
0.000110 0.744317 0.641968
0.000140 0.744946 0.639799
0.000167 0.745665 0.637320
0.000363 0.746566 0.633975
0.001458 0.747687 0.629306
0.003709 0.749046 0.623091
0.008372 0.750667 0.614553
0.022650 0.752489 0.602480
0.060079 0.754493 0.584912
0.137058 0.756372 0.558097
0.244965 0.757940 0.515133
0.393212 0.767711 0.460714
0.558858 0.788282 0.412417
0.701222 0.813604 0.395238
0.799199 0.834156 0.407803
0.867718 0.847582 0.426364
0.914454 0.857653 0.450731
0.945517 0.864292 0.472326
0.969469 0.862966 0.446776
0.987152 0.861818 0.429239
0.997018 0.861576 0.429473
0.999730 0.861422 0.445207
0.999968 0.861885 0.473939
0.999988 0.863000 0.512804
0.999903 0.862530 0.557837
0.999277 0.856998 0.604099
0.996931 0.845856 0.645842
0.004284 0.774722 0.709010
0.010944 0.777850 0.703116
0.016021 0.779147 0.700560
0.019903 0.780053 0.698621
0.023441 0.780847 0.696836
0.026515 0.781513 0.695245
0.029200 0.782098 0.693858
0.032331 0.782647 0.692517
0.038615 0.783319 0.690823
0.046666 0.784148 0.688710
0.057652 0.785187 0.685977
0.075160 0.786480 0.682164
0.098029 0.788077 0.677150
0.129492 0.790031 0.670229
0.175498 0.792381 0.660502
0.233989 0.795012 0.646291
0.301186 0.797530 0.623551
0.373954 0.799439 0.584872
0.481594 0.806811 0.529873
0.630710 0.826591 0.484723
0.757108 0.848832 0.470294
0.845056 0.865766 0.482372
0.902884 0.877165 0.499906
0.939385 0.885399 0.522853
0.963739 0.890783 0.543314
0.983116 0.890095 0.522752
0.995650 0.889296 0.509628
0.999702 0.888363 0.510843
1.000000 0.888239 0.525694
1.000000 0.889690 0.552905
1.000000 0.891611 0.588380
0.999993 0.891819 0.627395
0.999936 0.889408 0.659682
0.108495 0.810748 0.752429
0.137538 0.813284 0.748823
0.150550 0.814317 0.747229
0.160103 0.815077 0.746063
0.168465 0.815733 0.745039
0.176043 0.816308 0.744060
0.182651 0.816813 0.743218
0.188797 0.817288 0.742424
0.195987 0.817836 0.741488
0.205616 0.818545 0.740153
0.217821 0.819440 0.738434
0.233048 0.820551 0.736266
0.252531 0.822000 0.733309
0.276621 0.823775 0.729417
0.306372 0.825926 0.723788
0.341634 0.828477 0.715775
0.382751 0.831400 0.703819
0.428779 0.834313 0.684424
0.482114 0.836637 0.650414
0.566496 0.842256 0.597235
0.695003 0.859769 0.555047
0.806922 0.878228 0.542076
0.883314 0.892365 0.554136
0.929364 0.901820 0.571332
0.957961 0.908390 0.592834
0.977547 0.913215 0.611889
0.992143 0.912738 0.595257
0.999085 0.911349 0.584514
0.999990 0.910190 0.586508
1.000000 0.910761 0.601172
1.000000 0.912603 0.625706
1.000000 0.914287 0.655565
1.000000 0.914724 0.681965
0.288936 0.842927 0.794092
0.314394 0.844990 0.792398
0.324264 0.845832 0.791640
0.331533 0.846453 0.791081
0.337538 0.846973 0.790593
0.342913 0.847446 0.790082
0.347695 0.847869 0.789634
0.352097 0.848265 0.789216
0.357214 0.848721 0.788731
0.363653 0.849298 0.788115
0.371989 0.850056 0.787202
0.382469 0.851021 0.785993
0.395100 0.852206 0.784438
0.408989 0.853688 0.782141
0.425399 0.855485 0.779038
0.445950 0.857691 0.774340
0.470893 0.860322 0.767516
0.500917 0.863366 0.757244
