luts/apple-log-2/33x/Apple_LOG_2_to_Fujifilm_3513DI_D65_Rec709_G2-4.cube
TITLE "Apple LOG 2 to Fujifilm 3513DI D65 Rec709 G2-4"
#  
# Apple LOG 2 to Rec.709 Hybrid LUT
#  
# This hybrid LUT converts Apple LOG 2 to Rec.709 Gamma 2.4
#  
# Based on an original creative LUT included in DaVinci Resolve, adapted for a different color space.  
#  
# Created by Tobia Montanari | tobiamontanari.com
#  
# 
LUT_3D_SIZE 33
0.029648 0.037140 0.037064
0.029653 0.037142 0.037070
0.030149 0.037781 0.038533
0.052493 0.041181 0.040849
0.076517 0.047565 0.043495
0.094790 0.052178 0.045384
0.114262 0.055028 0.046571
0.135078 0.056508 0.045639
0.158007 0.057981 0.043588
0.183902 0.059562 0.039899
0.212715 0.061069 0.033845
0.244959 0.062208 0.027422
0.281946 0.062184 0.019217
0.324242 0.058720 0.025897
0.371069 0.045053 0.048207
0.421451 0.026078 0.070895
0.473432 0.013624 0.100815
0.524602 0.012075 0.127469
0.576062 0.020527 0.159243
0.626232 0.038977 0.199054
0.672620 0.068600 0.245879
0.714474 0.113672 0.298031
0.752826 0.163772 0.354438
0.787543 0.216188 0.414916
0.818250 0.274391 0.480532
0.844202 0.334553 0.549934
0.866992 0.398324 0.619048
0.888824 0.467655 0.684385
0.910619 0.543206 0.746178
0.931227 0.621627 0.803212
0.949851 0.695452 0.852262
0.963877 0.757649 0.890366
0.973037 0.806500 0.916899
0.029648 0.037140 0.037064
0.029648 0.037140 0.037064
0.029658 0.037148 0.037062
0.030273 0.039685 0.036948
0.034346 0.043811 0.040596
0.056482 0.048330 0.041828
0.071517 0.053504 0.042218
0.083382 0.057703 0.042221
0.101752 0.061738 0.042053
0.128881 0.065578 0.040118
0.162473 0.069569 0.036137
0.198163 0.073996 0.026787
0.236669 0.078409 0.009566
0.281137 0.083303 0.001247
0.334761 0.087740 0.000000
0.396757 0.090246 0.000002
0.458035 0.089300 0.000175
0.515458 0.080490 0.006045
0.566709 0.057887 0.043061
0.619857 0.063929 0.108086
0.671185 0.094246 0.170894
0.716511 0.132675 0.238824
0.755573 0.176546 0.309197
0.789846 0.225906 0.380043
0.819971 0.281783 0.452944
0.845649 0.340212 0.528843
0.868120 0.402716 0.604217
0.889746 0.471354 0.674326
0.911415 0.546353 0.739240
0.931908 0.624138 0.798866
0.950324 0.697103 0.850005
0.964167 0.758750 0.889184
0.973221 0.807343 0.916171
0.029648 0.037140 0.037064
0.029648 0.037140 0.037064
0.029648 0.037140 0.037064
0.030100 0.038107 0.036877
0.027532 0.043181 0.040499
0.036530 0.047374 0.042364
0.056983 0.051684 0.043029
0.071083 0.056419 0.043254
0.085282 0.061664 0.043274
0.108871 0.067064 0.042710
0.143792 0.072455 0.039483
0.184060 0.078400 0.033155
0.225678 0.083987 0.015286
0.271000 0.089973 0.002340
0.320762 0.095621 0.000050
0.373663 0.101064 0.000000
0.435774 0.108220 0.000000
0.505417 0.113949 0.000000
0.567196 0.108698 0.004474
0.617623 0.085740 0.045271
0.668889 0.101421 0.128624
0.716532 0.138445 0.207691
0.756472 0.180698 0.286750
0.790732 0.229259 0.364181
0.820583 0.284202 0.441161
0.846153 0.342119 0.520114
0.868543 0.404297 0.598220
0.890085 0.472662 0.670402
0.911708 0.547452 0.736484
0.932191 0.625170 0.797149
0.950531 0.697827 0.848933
0.964276 0.759141 0.888535
0.973311 0.807746 0.915908
0.029025 0.044401 0.040125
0.029743 0.038730 0.037384
0.029721 0.037683 0.037171
0.029717 0.037460 0.037099
0.029433 0.042177 0.039443
0.027818 0.046850 0.042330
0.041553 0.050483 0.043457
0.059598 0.054740 0.043985
0.075241 0.060421 0.044049
0.095055 0.067463 0.043802
0.127946 0.074483 0.041637
0.171225 0.081146 0.036410
0.216290 0.087568 0.021259
0.263898 0.094849 0.003309
0.315899 0.103031 0.000135
0.370308 0.110042 0.000000
0.424141 0.116957 0.000000
0.486387 0.125583 0.000000
0.560847 0.132020 0.000127
0.620156 0.120450 0.010434
0.667188 0.109465 0.084695
0.715913 0.141863 0.179810
0.756928 0.183423 0.267053
0.791374 0.231505 0.350534
0.821071 0.286073 0.431492
0.846534 0.343520 0.512899
0.868830 0.405358 0.593397
0.890331 0.473616 0.667244
0.911956 0.548377 0.734412
0.932364 0.625733 0.795702
0.950693 0.698399 0.848124
0.964381 0.759493 0.888035
0.973372 0.807962 0.915650
0.018741 0.062946 0.050513
0.030898 0.053577 0.041489
0.031387 0.050703 0.040499
0.030788 0.048760 0.039800
0.029422 0.049100 0.040391
0.028602 0.051583 0.043560
0.036776 0.054631 0.044971
0.053333 0.058261 0.045515
0.069898 0.063164 0.045319
0.087001 0.069429 0.044832
0.115943 0.076361 0.043008
0.159380 0.083444 0.038336
0.207331 0.090943 0.026135
0.257204 0.099839 0.005357
0.311104 0.109174 0.000198
0.367360 0.116928 0.000000
0.422788 0.124445 0.000000
0.475990 0.132184 0.000000
0.546734 0.142088 0.000000
0.619912 0.144035 0.001728
0.668714 0.125907 0.048275
0.715040 0.144503 0.152179
0.757243 0.185548 0.248282
0.791919 0.233351 0.337978
0.821490 0.287458 0.422754
0.846840 0.344654 0.506579
0.869107 0.406360 0.589128
0.890572 0.474519 0.664566
0.912157 0.549139 0.732585
0.932521 0.626306 0.794446
0.950808 0.698829 0.847358
0.964469 0.759798 0.887620
0.973421 0.808223 0.915462
0.001799 0.084419 0.056578
0.019771 0.070844 0.045102
0.018849 0.065902 0.044156
0.021072 0.062291 0.043355
0.023494 0.061033 0.043435
0.025529 0.064685 0.046093
0.041903 0.068159 0.046980
0.058461 0.072613 0.047860
0.074271 0.078448 0.047466
0.091278 0.085405 0.046180
0.119964 0.092178 0.043197
0.161018 0.097891 0.037294
0.206709 0.102659 0.025719
0.253893 0.107387 0.006353
0.306742 0.114251 0.000342
0.364441 0.122573 0.000000
0.421786 0.130769 0.000000
0.474951 0.138577 0.000000
0.533380 0.147618 0.000000
0.613930 0.156328 0.000003
0.671189 0.143939 0.023478
0.714543 0.148669 0.124485
0.757218 0.187115 0.229769
0.792342 0.234818 0.326027
0.821874 0.288629 0.414780
0.847131 0.345682 0.500861
0.869333 0.407138 0.585147
0.890760 0.475213 0.662083
0.912319 0.549759 0.730917
0.932678 0.626889 0.793388
0.950904 0.699129 0.846694
0.964533 0.760023 0.887261
0.973477 0.808406 0.915219
0.000055 0.102058 0.062037
0.004726 0.087901 0.048165
0.002581 0.083098 0.047095
0.007148 0.079320 0.046689
0.014728 0.076550 0.046809
0.031933 0.080124 0.047228
0.050357 0.084913 0.049177
0.063066 0.088106 0.048035
0.077664 0.093307 0.048484
0.095089 0.100449 0.046623
0.124586 0.107656 0.042699
0.166465 0.114184 0.035087
0.213232 0.119985 0.018772
0.261425 0.125685 0.003956
0.311281 0.128929 0.000183
0.363649 0.129949 0.000000
0.420694 0.136144 0.000000
0.475123 0.144264 0.000000
0.527648 0.152255 0.000000
0.603356 0.163180 0.000002
0.673039 0.160689 0.009837
0.715039 0.155425 0.097327
0.757095 0.188447 0.211507
0.792748 0.236087 0.314406
0.822216 0.289623 0.407012
0.847384 0.346492 0.495428
0.869555 0.407910 0.581514
0.890936 0.475851 0.659765
0.912472 0.550332 0.729434
0.932843 0.627462 0.792502
0.951013 0.699501 0.846082
0.964619 0.760380 0.886973
0.973510 0.808530 0.914961
0.000003 0.116032 0.069009
0.000237 0.101703 0.050874
0.000392 0.097843 0.049573
0.003275 0.094720 0.049889
0.015895 0.092034 0.049829
0.035255 0.094010 0.048558
0.054324 0.099322 0.048332
0.070198 0.104010 0.048415
0.082608 0.107091 0.047588
0.098958 0.112982 0.046702
0.128909 0.120340 0.041987
0.170979 0.127360 0.032918
0.218580 0.134155 0.013885
0.268031 0.141340 0.002044
0.319307 0.146262 0.000019
0.371419 0.147170 0.000000
0.422843 0.145549 0.000000
0.475321 0.149584 0.000000
0.526966 0.157044 0.000000
0.592018 0.167091 0.000000
0.671738 0.172685 0.003373
0.716226 0.163312 0.072378
0.757005 0.189954 0.193040
0.793045 0.237117 0.302364
0.822548 0.290561 0.399351
0.847637 0.347283 0.490163
0.869732 0.408525 0.577958
0.891100 0.476387 0.657503
0.912617 0.550865 0.728017
0.932968 0.627895 0.791520
0.951085 0.699706 0.845474
0.964682 0.760549 0.886625
0.973541 0.808637 0.914730
0.000000 0.131957 0.077439
0.000000 0.115615 0.053533
0.000051 0.112650 0.052039
0.005084 0.110154 0.052318
0.019907 0.107825 0.052025
0.036758 0.107937 0.051073
0.060087 0.113448 0.048347
0.078377 0.118670 0.047439
0.092341 0.124106 0.046874
0.104715 0.126460 0.045479
0.133873 0.133220 0.040762
0.175802 0.140708 0.029734
0.224094 0.148691 0.011334
0.274649 0.157187 0.001402
0.327122 0.163381 0.000000
0.381005 0.166164 0.000000
0.432789 0.164912 0.000000
0.479337 0.160484 0.000000
0.527822 0.162796 0.000000
0.583246 0.171198 0.000000
0.665152 0.183041 0.000737
0.718760 0.175946 0.044307
0.757021 0.192723 0.169066
0.793298 0.238266 0.286741
0.822931 0.291554 0.389776
0.847895 0.348067 0.483639
0.869952 0.409273 0.573499
0.891299 0.477100 0.654788
0.912780 0.551462 0.726234
0.933094 0.628330 0.790352
0.951187 0.700060 0.844792
0.964747 0.760789 0.886212
0.973587 0.808823 0.914473
0.000000 0.152448 0.090750
0.000000 0.133316 0.055867
0.000127 0.130605 0.053620
0.008054 0.128246 0.053049
0.022220 0.125945 0.052909
0.040259 0.124653 0.052332
0.064097 0.128959 0.050159
0.082489 0.134636 0.046139
0.099290 0.141171 0.043327
0.119871 0.147856 0.040139
0.142096 0.150182 0.034673
0.181467 0.157088 0.022554
0.230015 0.166466 0.007030
0.281648 0.176410 0.000688
0.335400 0.183977 0.000000
0.390899 0.188153 0.000000
0.444891 0.188718 0.000000
0.492354 0.184530 0.000000
0.533618 0.176248 0.000000
0.580217 0.177525 0.000000
0.649670 0.190392 0.000000
0.721073 0.192987 0.018983
0.757678 0.198460 0.136674
0.793567 0.239586 0.264846
0.823442 0.292717 0.376508
0.848271 0.349160 0.474753
0.870259 0.410215 0.567444
0.891550 0.477988 0.651169
0.913003 0.552263 0.723878
0.933266 0.628933 0.788856
0.951335 0.700594 0.843929
0.964834 0.761097 0.885701
0.973651 0.809128 0.914180
0.000000 0.177571 0.108270
0.000000 0.155453 0.058626
0.000096 0.152951 0.054456
0.005749 0.150827 0.051081
0.019024 0.148743 0.050594
0.040096 0.147009 0.050454
0.060426 0.147700 0.049294
0.080999 0.153812 0.044491
0.102818 0.160925 0.036153
0.129219 0.169295 0.029110
0.160865 0.177598 0.021184
0.192536 0.180180 0.011586
0.236464 0.188015 0.002982
0.288644 0.199275 0.000095
0.343630 0.208376 0.000000
0.400689 0.214077 0.000000
0.456691 0.216319 0.000000
0.506748 0.214322 0.000000
0.549523 0.206668 0.000000
0.587847 0.195375 0.000000
0.636109 0.197535 0.000000
0.716185 0.211031 0.004010
0.759686 0.209789 0.087394
0.794082 0.242525 0.233556
0.824078 0.293912 0.357354
0.848744 0.350445 0.462818
0.870668 0.411451 0.559341
0.891862 0.479035 0.646294
0.913304 0.553339 0.720768
0.933521 0.629827 0.786979
0.951533 0.701256 0.842789
0.964941 0.761436 0.885005
0.973724 0.809376 0.913741
0.000000 0.206136 0.130460
0.000000 0.181310 0.063790
0.000040 0.179234 0.055975
0.000607 0.177857 0.048672
0.010955 0.176449 0.042375
0.031068 0.175119 0.040619
0.050031 0.173774 0.040946
0.072436 0.176697 0.037287
0.101555 0.184446 0.025807
0.134135 0.194165 0.011130
0.172684 0.205194 0.006658
0.215848 0.216076 0.003820
0.251708 0.218873 0.000533
0.295808 0.225382 0.000000
0.351398 0.235864 0.000000
0.409783 0.243148 0.000000
0.467639 0.247424 0.000000
0.520039 0.247733 0.000000
0.565738 0.242961 0.000000
0.605665 0.231983 0.000000
0.639446 0.217764 0.000000
0.697224 0.223670 0.000156
0.763387 0.230321 0.034390
0.795211 0.249080 0.187805
0.824926 0.295313 0.328787
0.849423 0.351822 0.445621
0.871173 0.412844 0.548079
0.892297 0.480415 0.639391
0.913655 0.554535 0.716564
0.933856 0.630935 0.784287
0.951751 0.701983 0.841239
0.965085 0.761893 0.884113
0.973816 0.809752 0.913201
0.000000 0.237895 0.159050
0.000000 0.212850 0.074210
0.000003 0.208698 0.062787
0.000033 0.208153 0.051837
0.003121 0.207552 0.037073
0.010778 0.206937 0.022295
0.033241 0.206546 0.016662
0.060207 0.206346 0.016718
0.093813 0.210936 0.010610
0.134160 0.222305 0.002949
0.179265 0.234894 0.000598
0.228584 0.248102 0.000659
0.278805 0.261217 0.000346
0.318460 0.264232 0.000004
0.359010 0.264936 0.000000
0.418023 0.273714 0.000000
0.477278 0.279715 0.000000
0.531795 0.282383 0.000000
0.579911 0.280613 0.000000
0.622972 0.273522 0.000000
0.658467 0.260732 0.000000
0.687131 0.244585 0.000000
0.754716 0.252518 0.004081
0.797525 0.260229 0.113498
0.826357 0.298764 0.287072
0.850404 0.353179 0.420463
0.871837 0.414490 0.532196
0.892842 0.482037 0.629582
0.914118 0.556040 0.710845
0.934253 0.632235 0.780718
0.952054 0.702964 0.839208
0.965283 0.762618 0.883010
0.973942 0.810222 0.912494
0.000000 0.274523 0.193699
0.000000 0.251705 0.103999
0.000000 0.242838 0.071564
0.000011 0.242971 0.061580
0.000342 0.243222 0.047051
0.002125 0.243619 0.026077
0.020974 0.244440 0.010110
0.049195 0.245390 0.003025
0.082240 0.246609 0.001122
0.126038 0.253572 0.000281
0.179269 0.267221 0.000032
0.234770 0.281817 0.000041
0.291397 0.297718 0.000019
0.347110 0.312885 0.000004
0.392524 0.315596 0.000000
0.429301 0.308794 0.000000
0.486256 0.313851 0.000000
0.542375 0.318318 0.000000
0.592619 0.318933 0.000000
0.637987 0.314762 0.000000
0.676501 0.305988 0.000000
0.705359 0.292078 0.000000
0.738073 0.277945 0.000016
0.800905 0.282754 0.031309
0.828625 0.306362 0.222093
0.851985 0.354988 0.382494
0.872718 0.416198 0.509109
0.893559 0.484007 0.615691
0.914738 0.557922 0.702739
0.934779 0.633930 0.775833
0.952438 0.704212 0.836413
0.965538 0.763464 0.881495
0.974097 0.810845 0.911544
0.000000 0.317453 0.234447
0.000000 0.298949 0.158401
0.000000 0.288399 0.110340
0.000000 0.284022 0.081020
0.000011 0.284960 0.063739
0.000251 0.286325 0.042307
0.004004 0.287851 0.022462
0.012062 0.289704 0.008181
0.037869 0.291598 0.000997
0.100120 0.294628 0.000046
0.167658 0.303799 0.000004
0.232592 0.319523 0.000004
0.296683 0.337169 0.000000
0.359104 0.355364 0.000000
0.418830 0.369818 0.000275
0.471728 0.373142 0.000000
0.512908 0.365224 0.000000
0.555651 0.359586 0.000000
0.604735 0.359808 0.000000
0.651985 0.357860 0.000000
0.692886 0.351792 0.000000
0.727708 0.343636 0.000000
0.766396 0.336233 0.000000
0.806701 0.323522 0.000959
0.832614 0.318918 0.098625
0.855337 0.361365 0.324654
0.874034 0.417715 0.473973
0.894491 0.486165 0.594996
0.915564 0.560195 0.691264
0.935438 0.635900 0.768857
0.952928 0.705738 0.832503
0.965868 0.764581 0.879455
0.974315 0.811658 0.910296
0.000000 0.367426 0.285440
0.000000 0.354537 0.222523
0.000000 0.345810 0.182423
0.000000 0.337876 0.142281
0.000000 0.334010 0.110192
0.000004 0.334978 0.086295
0.000008 0.337375 0.063539
0.000129 0.340015 0.040259
0.009249 0.343132 0.018864
0.056943 0.346827 0.005293
0.132226 0.351043 0.000728
0.214402 0.362640 0.000016
0.291956 0.381857 0.000001
0.362816 0.401380 0.000000
0.428782 0.417862 0.001339
0.491738 0.429700 0.001408
0.554258 0.436833 0.000011
0.601511 0.431502 0.000000
0.638580 0.421501 0.000000
0.678699 0.413992 0.000000
0.721243 0.409516 0.000000
0.763640 0.407685 0.000000
0.806962 0.406406 0.000000
0.839198 0.394439 0.000000
0.852020 0.365686 0.015101
0.859820 0.370547 0.211239
0.877452 0.422869 0.419901
0.895732 0.487928 0.562120
0.916610 0.562648 0.674212
0.936282 0.638200 0.758984
0.953580 0.707732 0.827044
0.966287 0.765904 0.876619
0.974578 0.812684 0.908606
0.000000 0.422237 0.345873
0.000000 0.414357 0.290771
0.000000 0.408718 0.259465
0.000000 0.402992 0.229890
0.000000 0.397047 0.199110
0.000000 0.392880 0.170158
0.000000 0.392027 0.145724
0.000000 0.393654 0.123629
0.001182 0.397196 0.097367
0.014533 0.402004 0.064288
0.057702 0.407304 0.031148
0.162243 0.413499 0.006716
0.268841 0.428781 0.000330
0.354898 0.449690 0.001083
0.429670 0.467263 0.001399
0.498327 0.480422 0.008253
0.565158 0.491476 0.019133
0.633995 0.502237 0.001436
0.687458 0.502496 0.000008
0.731309 0.495840 0.000000
0.772394 0.489296 0.000000
0.811749 0.486040 0.000000
0.847070 0.482604 0.000000
0.872558 0.471309 0.000000
0.880151 0.442840 0.001771
0.873940 0.407176 0.074161
0.884029 0.433804 0.325385
0.898604 0.492208 0.510619
0.917921 0.564728 0.645482
0.937306 0.640588 0.744281
0.954347 0.709792 0.818683
0.966830 0.767570 0.872608
0.974922 0.813943 0.906370
0.000000 0.477503 0.412028
0.000000 0.474204 0.365082
0.000000 0.471566 0.339675
0.000000 0.468827 0.317030
0.000000 0.465735 0.295258
0.000000 0.462244 0.273455
0.000000 0.458532 0.251174
0.000000 0.456108 0.230319
0.000004 0.454842 0.205770
0.001246 0.457095 0.176982
0.012133 0.462420 0.139850
0.080058 0.468340 0.088928
0.208427 0.475517 0.034807
0.323550 0.492743 0.012393
0.416682 0.513027 0.011165
0.495848 0.529356 0.025088
0.569103 0.542707 0.051894
0.636634 0.553837 0.061400
0.703745 0.562428 0.010548
0.762297 0.566324 0.000152
0.810463 0.564452 0.000000
0.849548 0.560965 0.000000
0.879919 0.555646 0.000000
0.900847 0.544791 0.000032
0.907382 0.522975 0.008017
0.902925 0.493954 0.079636
0.900050 0.474046 0.223979
0.906238 0.504530 0.426787
0.920372 0.567846 0.597397
0.938671 0.642790 0.720582
0.955283 0.711985 0.806281
0.967474 0.769450 0.866188
0.975368 0.815584 0.903356
0.000000 0.531353 0.479126
0.000000 0.532542 0.442506
0.000000 0.532230 0.423096
0.000000 0.531492 0.406192
0.000000 0.530564 0.390393
0.000000 0.529353 0.374963
0.000000 0.527862 0.359646
0.000000 0.526149 0.343781
0.000000 0.523469 0.322968
0.000011 0.520462 0.295140
0.000275 0.519359 0.260340
0.014913 0.522877 0.221460
0.096421 0.529188 0.171993
0.252264 0.535787 0.101525
0.379589 0.552131 0.061040
0.478332 0.573145 0.074118
0.563479 0.590160 0.095710
0.639249 0.605560 0.129852
0.702915 0.616476 0.154402
0.763284 0.616030 0.063750
0.819672 0.617246 0.014440
0.864785 0.617560 0.002338
0.897121 0.614503 0.000406
0.918078 0.606505 0.000896
0.927946 0.593211 0.021144
0.930304 0.579053 0.115300
0.930193 0.565462 0.235640
0.925041 0.548735 0.344673
0.927543 0.579431 0.520277
0.940742 0.644622 0.678850
0.956486 0.713992 0.786110
0.968248 0.771563 0.856237
0.975879 0.817273 0.898250
0.000000 0.586421 0.545668
0.000000 0.590526 0.518797
0.000000 0.591709 0.505130
0.000000 0.592311 0.493331
0.000000 0.592547 0.482401
0.000000 0.592464 0.471896
0.000000 0.592216 0.461730
0.000000 0.591745 0.450995
0.000001 0.590920 0.437372
0.000009 0.589503 0.418248
0.000025 0.586822 0.390016
0.001293 0.582804 0.349024
0.022246 0.584265 0.303637
0.135254 0.590495 0.253836
0.307094 0.598091 0.187154
0.437675 0.614896 0.157344
0.543067 0.636131 0.168577
0.631255 0.653583 0.191097
0.703179 0.668050 0.222941
0.763049 0.677231 0.244867
0.817439 0.671259 0.161867
0.864022 0.666960 0.076898
0.900072 0.664819 0.034357
0.925499 0.661310 0.035722
0.941480 0.656129 0.077969
0.951296 0.652952 0.183504
0.955141 0.648812 0.280393
0.952661 0.637650 0.361481
0.945488 0.622624 0.451373
0.946643 0.653743 0.609138
0.958217 0.715350 0.751044
0.969311 0.773716 0.839816
0.976520 0.819062 0.889915
0.000000 0.642113 0.610738
0.000000 0.646960 0.590510
0.000000 0.648537 0.580861
0.000000 0.649560 0.572558
0.000000 0.650275 0.565150
0.000000 0.650746 0.558150
0.000000 0.651049 0.551403
0.000004 0.651257 0.544764
0.000007 0.651328 0.536213
0.000017 0.651178 0.524379
0.000017 0.650506 0.507238
0.000030 0.648697 0.481372
0.000464 0.645185 0.441688
0.024033 0.642765 0.386887
0.175548 0.649884 0.332771
0.363770 0.660673 0.275248
0.498884 0.678017 0.250478
0.608465 0.698476 0.260370
0.693157 0.714512 0.280360
0.760763 0.727014 0.308297
0.817762 0.734961 0.330099
0.866622 0.730170 0.274124
0.904225 0.724992 0.216767
0.932719 0.721954 0.193819
0.953213 0.720693 0.219794
0.966261 0.720747 0.273308
0.972094 0.720269 0.336145
0.972431 0.716383 0.404079
0.968520 0.705805 0.471506
0.961274 0.692634 0.549071
0.962727 0.722209 0.691014
0.970907 0.775603 0.810142
0.977423 0.820915 0.875881
0.000000 0.693779 0.672548
0.000000 0.698083 0.656786
0.000000 0.699565 0.649455
0.000000 0.700588 0.643523
0.000000 0.701308 0.638189
0.000000 0.701875 0.633175
0.000000 0.702333 0.628614
0.000002 0.702692 0.623948
0.000003 0.703065 0.618289
0.000007 0.703440 0.610630
0.000016 0.703726 0.600102
0.000020 0.703653 0.584760
0.000308 0.702857 0.562036
0.006137 0.700482 0.526246
0.055517 0.696578 0.469981
0.240287 0.704978 0.414634
0.425546 0.717393 0.359813
0.561574 0.734904 0.337447
0.669500 0.754111 0.348427
0.748860 0.768330 0.367618
0.813152 0.779288 0.393855
0.864286 0.787311 0.416651
0.905678 0.784416 0.376558
0.937273 0.780985 0.345359
0.960209 0.779588 0.340034
0.975136 0.780271 0.360571
0.982651 0.781676 0.401268
0.984935 0.782018 0.453649
0.983974 0.778987 0.511327
0.979686 0.769782 0.569589
0.973981 0.757703 0.638510
0.974751 0.782793 0.759876
0.978820 0.822472 0.848637
0.000000 0.738362 0.727982
0.000000 0.741832 0.716479
0.000000 0.743104 0.711169
0.000000 0.744027 0.706998
0.000000 0.744727 0.703104
0.000000 0.745305 0.699714
0.000000 0.745777 0.696290
0.000000 0.746203 0.693132
0.000002 0.746676 0.689174
0.000022 0.747259 0.683890
0.000229 0.747910 0.676801
0.001569 0.748546 0.666996
0.006442 0.749084 0.653067
0.020157 0.749211 0.632866
0.057283 0.748375 0.601891
0.141357 0.746338 0.552854
0.320356 0.753202 0.496942
0.487582 0.765616 0.445013
0.622727 0.782793 0.424978
0.723802 0.800354 0.436529
0.799345 0.813096 0.454808
0.857806 0.823639 0.479744
0.900180 0.831849 0.502492
0.934336 0.829809 0.473075
0.960243 0.827743 0.452688
0.977678 0.828112 0.454168
0.987425 0.830093 0.475415
0.991715 0.832505 0.511514
0.993136 0.834368 0.556844
0.991786 0.833631 0.607513
0.988467 0.827374 0.659153
0.983825 0.815819 0.717029
0.982447 0.830123 0.801409
0.000000 0.775588 0.773561
0.000003 0.778508 0.765522
0.000003 0.779606 0.761878
0.000003 0.780407 0.759102
0.000011 0.781059 0.756509
0.000015 0.781606 0.754296
0.000045 0.782085 0.752228
0.000128 0.782528 0.750114
0.000228 0.783039 0.747697
0.000784 0.783665 0.744416
0.002991 0.784442 0.739835
0.007611 0.785356 0.733741
0.016945 0.786416 0.725418
0.040924 0.787547 0.713711
0.090039 0.788655 0.696701
0.167822 0.789322 0.670715
0.266951 0.788997 0.628853
0.403146 0.793930 0.574923
0.550588 0.805892 0.527247
0.678241 0.822526 0.510668
0.773054 0.838571 0.521792
0.843314 0.850591 0.538466
0.892788 0.860810 0.561978
0.927529 0.868539 0.584157
0.955400 0.867404 0.563112
0.975587 0.866707 0.550540
0.987687 0.867932 0.555823
0.994130 0.870495 0.576583
0.997292 0.873676 0.609008
0.998016 0.876964 0.649950
0.997031 0.878243 0.695304
0.994774 0.873778 0.737175
0.990706 0.863442 0.770414
0.004991 0.807396 0.810388
0.012491 0.809853 0.805124
0.018151 0.810879 0.802860
0.022482 0.811606 0.801148
0.026409 0.812233 0.799572
0.029818 0.812760 0.798174
0.032793 0.813221 0.796952
0.036251 0.813661 0.795787
0.043110 0.814205 0.794339
0.051895 0.814878 0.792545
0.063856 0.815714 0.790213
0.082752 0.816756 0.786944
0.107329 0.818019 0.782631
0.140955 0.819570 0.776638
0.190310 0.821398 0.768193
0.251231 0.823363 0.755666
0.316075 0.824943 0.735063
0.382157 0.825374 0.699167
0.478551 0.828674 0.647379
0.610871 0.840498 0.604809
0.729283 0.856404 0.590688
0.818515 0.871269 0.600399
0.879705 0.882734 0.616666
0.920534 0.892320 0.640129
0.949472 0.899624 0.662281
0.971522 0.899456 0.646901
0.985764 0.899531 0.639442
0.993904 0.901023 0.646717
0.998370 0.903676 0.666553
0.999649 0.907034 0.696526
0.999806 0.910521 0.732925
0.999415 0.911821 0.768904
0.998262 0.909695 0.794284
0.129536 0.835602 0.842976
0.160772 0.837784 0.840320
0.174020 0.838678 0.839158
0.183745 0.839333 0.838307
0.192225 0.839895 0.837559
0.199866 0.840399 0.836845
0.206522 0.840832 0.836223
0.212721 0.841243 0.835643
0.219923 0.841715 0.834956
0.229271 0.842333 0.833987
0.241026 0.843119 0.832740
0.255515 0.844101 0.831164
0.272849 0.845372 0.829035
0.294016 0.846923 0.826207
0.320170 0.848791 0.822002
0.350703 0.850995 0.815928
0.386318 0.853477 0.806671
0.426768 0.855725 0.790880
0.474424 0.856904 0.761683
0.550025 0.859355 0.714160
0.668043 0.870888 0.675638
0.778557 0.885889 0.662715
0.858631 0.899869 0.673492
0.909540 0.910626 0.691442
0.943576 0.919416 0.714675
0.967091 0.926295 0.735760
0.982797 0.926428 0.724518
0.992426 0.926574 0.719904
0.998189 0.928050 0.727873
0.999838 0.930333 0.746181
0.999994 0.933416 0.772257
0.999997 0.936030 0.800250
0.999943 0.936854 0.821198
0.309728 0.861195 0.873897
0.329657 0.862986 0.872924
0.337496 0.863718 0.872489
0.343270 0.864253 0.872173
0.348078 0.864705 0.871878
0.352444 0.865123 0.871579
0.356340 0.865499 0.871318
0.359919 0.865838 0.871066
0.364084 0.866234 0.870782
0.369334 0.866738 0.870414
0.376197 0.867406 0.869859
0.384863 0.868255 0.869118
0.395360 0.869293 0.868164
0.407293 0.870599 0.866746
0.421553 0.872191 0.864791
0.439503 0.874139 0.861724
0.461402 0.876474 0.857164
0.487924 0.879142 0.850079
