luts/apple-log-2/33x/Apple_LOG_2_to_Fujifilm_3513DI_D65_Rec709_G2-4.cube
TITLE "Apple LOG 2 to Fujifilm 3513DI D65 Rec709 G2-4"
#  
# Apple LOG 2 to Rec.709 Hybrid LUT
#  
# This hybrid LUT converts Apple LOG 2 to Rec.709 Gamma 2.4
#  
# Based on an original creative LUT included in DaVinci Resolve, adapted for a different color space.  
#  
# Created by Tobia Montanari | tobiamontanari.com
#  
# 
LUT_3D_SIZE 9
0.029648 0.037140 0.037064
0.076517 0.047565 0.043495
0.158007 0.057981 0.043588
0.281946 0.062184 0.019217
0.473432 0.013624 0.100815
0.672620 0.068600 0.245879
0.818250 0.274391 0.480532
0.910619 0.543206 0.746178
0.973037 0.806500 0.916899
0.018741 0.062946 0.050513
0.029422 0.049100 0.040391
0.069898 0.063164 0.045319
0.207331 0.090943 0.026135
0.422788 0.124445 0.000000
0.668714 0.125907 0.048275
0.821490 0.287458 0.422754
0.912157 0.549139 0.732585
0.973421 0.808223 0.915462
0.000000 0.131957 0.077439
0.019907 0.107825 0.052025
0.092341 0.124106 0.046874
0.224094 0.148691 0.011334
0.432789 0.164912 0.000000
0.665152 0.183041 0.000737
0.822931 0.291554 0.389776
0.912780 0.551462 0.726234
0.973587 0.808823 0.914473
0.000000 0.237895 0.159050
0.003121 0.207552 0.037073
0.093813 0.210936 0.010610
0.278805 0.261217 0.000346
0.477278 0.279715 0.000000
0.658467 0.260732 0.000000
0.826357 0.298764 0.287072
0.914118 0.556040 0.710845
0.973942 0.810222 0.912494
0.000000 0.422237 0.345873
0.000000 0.397047 0.199110
0.001182 0.397196 0.097367
0.268841 0.428781 0.000330
0.565158 0.491476 0.019133
0.772394 0.489296 0.000000
0.880151 0.442840 0.001771
0.917921 0.564728 0.645482
0.974922 0.813943 0.906370
0.000000 0.642113 0.610738
0.000000 0.650275 0.565150
0.000007 0.651328 0.536213
0.000464 0.645185 0.441688
0.498884 0.678017 0.250478
0.817762 0.734961 0.330099
0.953213 0.720693 0.219794
0.968520 0.705805 0.471506
0.977423 0.820915 0.875881
0.004991 0.807396 0.810388
0.026409 0.812233 0.799572
0.043110 0.814205 0.794339
0.107329 0.818019 0.782631
0.316075 0.824943 0.735063
0.729283 0.856404 0.590688
0.949472 0.899624 0.662281
0.998370 0.903676 0.666553
0.998262 0.909695 0.794284
0.550415 0.906156 0.923351
0.562450 0.908112 0.923301
0.567708 0.908966 0.923215
0.578292 0.910671 0.922996
0.605392 0.915000 0.921781
0.670211 0.923853 0.909359
0.896628 0.950454 0.845384
0.992196 0.974261 0.897134
1.000000 0.976003 0.903414
0.800412 0.961288 0.970733
0.803202 0.961807 0.970914
0.804410 0.962033 0.970993
0.807098 0.962528 0.971160
0.814165 0.963829 0.971576
0.832910 0.967220 0.972180
0.871886 0.973523 0.969024
0.981807 0.991022 0.966411
1.000000 0.996475 0.980529
0.028367 0.038224 0.044317
0.040238 0.040092 0.060087
0.126100 0.047849 0.116317
0.268016 0.033657 0.148944
0.468802 0.000522 0.204130
0.667731 0.036859 0.309985
0.816726 0.269465 0.493889
0.910336 0.542102 0.747033
0.972976 0.806287 0.917128
0.028952 0.041747 0.040582
0.028467 0.040913 0.039897
0.084710 0.052682 0.045141
0.236937 0.067711 0.032965
0.452333 0.044918 0.071689
0.664265 0.098677 0.208749
0.819763 0.283752 0.442336
0.911824 0.547880 0.734252
0.973370 0.807934 0.915679
0.000000 0.118982 0.118092
0.003736 0.098915 0.062207
0.067386 0.102661 0.053228
0.232375 0.123750 0.020210
0.432706 0.113701 0.000552
0.660369 0.132086 0.122257
0.821322 0.288717 0.411191
0.912470 0.550333 0.728075
0.973529 0.808607 0.914791
0.000000 0.245237 0.238738
0.000000 0.216229 0.136241
0.003374 0.202447 0.067628
0.258754 0.250368 0.024872
0.501746 0.274754 0.000226
0.674662 0.236644 0.004268
0.824683 0.295934 0.316231
0.913808 0.554993 0.713126
0.973889 0.810029 0.912812
0.000000 0.423453 0.405718
0.000000 0.411138 0.306890
0.000017 0.402458 0.235350
0.148080 0.414036 0.073457
0.551785 0.484458 0.073422
0.773401 0.484292 0.003998
0.875309 0.430717 0.004016
0.917605 0.564032 0.649756
0.974864 0.813737 0.906747
0.000000 0.637539 0.617961
0.000000 0.646965 0.575104
0.000004 0.648872 0.548580
0.000147 0.644859 0.462660
0.484345 0.674104 0.252385
0.815683 0.732236 0.326498
0.952468 0.717351 0.211937
0.967544 0.701596 0.469152
0.977367 0.820827 0.876826
0.003642 0.806287 0.810922
0.021438 0.811152 0.800122
0.034132 0.813146 0.794852
0.095774 0.817052 0.783179
0.307618 0.824244 0.736425
0.726727 0.855547 0.589050
0.949213 0.899089 0.660837
0.998356 0.903170 0.665297
0.998182 0.909054 0.793782
0.548425 0.905806 0.923217
0.560553 0.907766 0.923165
0.565798 0.908620 0.923100
0.576509 0.910352 0.922907
0.603923 0.914725 0.921715
0.668947 0.923641 0.909477
0.896164 0.950281 0.844937
0.992177 0.974209 0.896894
1.000000 0.975932 0.903211
0.800046 0.961227 0.970703
0.802865 0.961746 0.970888
0.804077 0.961973 0.970965
0.806757 0.962467 0.971134
0.813835 0.963772 0.971561
0.832611 0.967167 0.972180
0.871656 0.973495 0.969076
0.981718 0.990995 0.966383
1.000000 0.996475 0.980529
0.009256 0.038256 0.117563
0.056868 0.032671 0.110097
0.116962 0.049220 0.143594
0.266196 0.027502 0.188841
0.469501 0.000350 0.246619
0.665787 0.023457 0.339249
0.815141 0.263774 0.510111
0.910264 0.541837 0.746908
0.972958 0.806195 0.917250
0.009717 0.055603 0.063881
0.021059 0.040006 0.087335
0.079377 0.050930 0.101360
0.242258 0.064048 0.128554
0.457085 0.028346 0.169368
0.663552 0.077937 0.276512
0.814798 0.280783 0.472576
0.911700 0.547426 0.735029
0.973330 0.807812 0.915775
0.000000 0.112222 0.129541
0.002906 0.097599 0.107143
0.043986 0.098545 0.101289
0.250842 0.106997 0.086367
0.444593 0.061958 0.076452
0.662477 0.101236 0.213805
0.816489 0.287470 0.442983
0.912356 0.549895 0.728924
0.973510 0.808545 0.914940
0.000000 0.244553 0.266769
0.000000 0.224122 0.204094
0.000000 0.209828 0.138515
0.246762 0.245399 0.061873
0.515343 0.260219 0.035475
0.680623 0.201895 0.047289
0.819374 0.296933 0.364674
0.913674 0.554524 0.714073
0.973860 0.809931 0.912954
0.000000 0.423346 0.432163
0.000000 0.418214 0.367588
0.000000 0.413544 0.317871
0.038315 0.406936 0.146650
0.544267 0.481754 0.108595
0.774358 0.483317 0.060454
0.861145 0.420653 0.110703
0.917474 0.563760 0.651787
0.974839 0.813646 0.906915
0.000000 0.632409 0.631423
0.000000 0.642238 0.592098
0.000000 0.644977 0.569520
0.001838 0.644619 0.500555
0.451143 0.670214 0.284431
0.811062 0.731064 0.337971
0.951993 0.716590 0.215853
0.967097 0.699694 0.468117
0.977347 0.820785 0.877241
0.003012 0.805760 0.811125
0.019530 0.810702 0.800349
0.031249 0.812688 0.795084
0.090695 0.816622 0.783435
0.303676 0.823939 0.737056
0.725545 0.855157 0.588321
0.949089 0.898852 0.660198
0.998344 0.902928 0.664725
0.998140 0.908742 0.793528
0.547588 0.905652 0.923180
0.559754 0.907626 0.923121
0.564990 0.908478 0.923063
0.575668 0.910200 0.922859
0.603211 0.914592 0.921667
0.668393 0.923547 0.909524
0.895925 0.950190 0.844716
0.992151 0.974164 0.896744
1.000000 0.975912 0.903139
0.799893 0.961196 0.970687
0.802710 0.961715 0.970883
0.803927 0.961944 0.970959
0.806592 0.962436 0.971129
0.813679 0.963749 0.971555
0.832469 0.967144 0.972180
0.871568 0.973483 0.969097
0.981695 0.990993 0.966366
1.000000 0.996475 0.980529
0.000000 0.004434 0.225077
0.061302 0.000015 0.212389
0.122312 0.001729 0.224930
0.259449 0.022115 0.255338
0.470215 0.000095 0.312825
0.667494 0.025082 0.393085
0.813353 0.257030 0.540042
0.909488 0.538819 0.753021
0.972881 0.805886 0.917552
0.000000 0.060576 0.204231
0.001721 0.012151 0.202697
0.077168 0.014584 0.208266
0.241818 0.044798 0.237967
0.462679 0.013159 0.283338
0.665391 0.071091 0.364934
0.811674 0.269343 0.519219
0.910242 0.545632 0.739684
0.973292 0.807644 0.915994
0.000000 0.129053 0.230836
0.000013 0.087950 0.228201
0.003788 0.056810 0.222445
0.224083 0.075951 0.228092
0.454112 0.041801 0.245922
0.665066 0.091631 0.330191
0.813214 0.277243 0.498595
0.910996 0.548214 0.733351
0.973465 0.808374 0.915278
0.000000 0.237258 0.308764
0.000000 0.227981 0.294379
0.000000 0.222810 0.285492
0.207264 0.258852 0.280680
0.524413 0.239971 0.244263
0.673635 0.152002 0.240205
0.816058 0.289296 0.449921
0.912508 0.553135 0.719490
0.973803 0.809713 0.913238
0.000000 0.425644 0.478047
0.000000 0.425783 0.446013
0.000000 0.426474 0.422482
0.000045 0.423898 0.332256
0.532710 0.485193 0.203118
0.770139 0.477476 0.240966
0.851260 0.403105 0.281864
0.916690 0.563260 0.661682
0.974789 0.813456 0.907254
0.000000 0.626985 0.660380
0.000000 0.639899 0.633946
0.000000 0.644501 0.619181
0.000159 0.650703 0.576652
0.316233 0.664763 0.363128
0.802123 0.730618 0.372108
0.940257 0.724898 0.351658
0.966112 0.695750 0.466525
0.977296 0.820700 0.878134
0.026512 0.802548 0.812432
0.052568 0.807827 0.802478
0.068542 0.809984 0.797644
0.109825 0.814158 0.786416
0.278189 0.822309 0.742881
0.719034 0.854040 0.590208
0.948807 0.898374 0.658958
0.998329 0.902431 0.663497
0.998073 0.908115 0.793035
0.545712 0.905318 0.923070
0.557998 0.907307 0.923015
0.563209 0.908152 0.922973
0.574002 0.909890 0.922762
0.601778 0.914324 0.921605
0.667232 0.923356 0.909634
0.895485 0.950035 0.844327
0.992136 0.974105 0.896519
1.000000 0.975862 0.902958
0.799558 0.961135 0.970672
0.802380 0.961655 0.970856
0.803616 0.961883 0.970936
0.806256 0.962375 0.971103
0.813359 0.963691 0.971539
0.832187 0.967090 0.972169
0.871359 0.973455 0.969150
0.981630 0.990978 0.966335
1.000000 0.996475 0.980529
0.000000 0.000000 0.381263
0.000720 0.000000 0.356086
0.060635 0.000000 0.349457
0.243405 0.000000 0.373996
0.464747 0.000770 0.422355
0.669727 0.031279 0.490207
0.815311 0.263520 0.603817
0.907965 0.532913 0.776055
0.972785 0.805482 0.917982
0.000000 0.000130 0.381784
0.000511 0.000000 0.355594
0.046775 0.000000 0.347799
0.241083 0.000001 0.373643
0.465425 0.001331 0.419691
0.670226 0.041892 0.485152
0.815563 0.267818 0.599435
0.908093 0.536103 0.771333
0.973087 0.806781 0.916824
0.000000 0.021485 0.380063
0.000000 0.002879 0.376888
0.000598 0.000000 0.350137
0.201694 0.000073 0.375294
0.454765 0.009105 0.414170
0.667410 0.073839 0.475730
0.813942 0.277109 0.590836
0.908139 0.540030 0.763714
0.973266 0.807528 0.916156
0.000000 0.237857 0.461242
0.000000 0.221341 0.458643
0.000000 0.199162 0.455438
0.051699 0.194333 0.459924
0.477296 0.170209 0.446420
0.667730 0.114047 0.447310
0.816634 0.292150 0.568303
0.909375 0.545175 0.754186
0.973619 0.809025 0.914370
0.000000 0.426802 0.556842
0.000000 0.428928 0.552816
0.000000 0.430364 0.550972
0.000000 0.437197 0.546476
0.479955 0.509007 0.532023
0.762577 0.458888 0.494807
0.835735 0.368690 0.496498
0.912661 0.557321 0.719845
0.974624 0.812842 0.908442
0.000000 0.629688 0.716634
0.000000 0.643201 0.702084
0.000000 0.649120 0.696076
0.000000 0.659726 0.679595
0.053103 0.676746 0.586143
0.789135 0.741186 0.472434
0.931400 0.739706 0.544098
0.951224 0.687265 0.599095
0.977149 0.820463 0.880680
0.025484 0.793441 0.830844
0.047961 0.799892 0.824174
0.059906 0.802548 0.820959
0.089887 0.807712 0.813630
0.188676 0.819203 0.787020
0.634748 0.847397 0.639303
0.942118 0.896763 0.674817
0.994546 0.902382 0.694350
0.997873 0.906413 0.791673
0.538754 0.904143 0.922456
0.551594 0.906184 0.922434
0.557067 0.907066 0.922411
0.568313 0.908871 0.922277
0.597183 0.913467 0.921281
0.663854 0.922805 0.909961
0.893881 0.949536 0.843262
0.992076 0.973931 0.895838
1.000000 0.975710 0.902433
0.798627 0.960964 0.970611
0.801495 0.961490 0.970794
0.802736 0.961724 0.970883
0.805333 0.962203 0.971050
0.812497 0.963528 0.971485
0.831392 0.966955 0.972157
0.870771 0.973377 0.969291
0.981456 0.990935 0.966260
1.000000 0.996475 0.980529
0.000000 0.000004 0.527241
0.000000 0.000004 0.526985
0.000000 0.000004 0.526335
0.011860 0.000000 0.485371
0.415932 0.000000 0.532922
0.666323 0.052103 0.608461
0.819305 0.279048 0.693727
0.909890 0.542673 0.820071
0.971817 0.802312 0.927669
0.000000 0.000004 0.526532
0.000000 0.000004 0.526296
0.000000 0.000004 0.523564
0.023623 0.000000 0.481204
0.423135 0.000000 0.533866
0.667919 0.052602 0.608363
0.819634 0.279681 0.693556
0.909954 0.542889 0.819945
0.971817 0.802281 0.927590
0.000000 0.000004 0.526218
0.000000 0.000004 0.525978
0.000000 0.000004 0.521466
0.036287 0.000000 0.479915
0.426309 0.000000 0.534307
0.668637 0.052827 0.608345
0.819777 0.279941 0.693478
0.909986 0.543011 0.819894
0.971859 0.802466 0.927430
0.000000 0.007497 0.538092
0.000000 0.007569 0.537890
0.000000 0.003962 0.535989
0.003113 0.000000 0.495176
0.413673 0.000410 0.545915
0.666011 0.083788 0.607044
0.817860 0.288446 0.689489
0.910050 0.549254 0.812567
0.972171 0.803887 0.926355
0.000000 0.410378 0.680510
0.000000 0.410374 0.680306
0.000000 0.404658 0.678071
0.000000 0.384514 0.671431
0.323055 0.427312 0.691003
0.718196 0.367505 0.676023
0.823302 0.325259 0.674065
0.913298 0.564021 0.801961
0.973029 0.807689 0.922970
0.000000 0.640375 0.787086
0.000000 0.645699 0.782518
0.000000 0.650254 0.781653
0.000000 0.660052 0.780897
0.000904 0.682262 0.774580
0.741090 0.770366 0.776582
0.919452 0.732403 0.760942
0.936087 0.658002 0.769907
0.975455 0.817177 0.908956
0.014052 0.791971 0.863281
0.027789 0.798603 0.860325
0.036712 0.801369 0.859015
0.057494 0.806883 0.856065
0.135418 0.820334 0.847226
0.435941 0.849662 0.802587
0.934624 0.908445 0.754177
0.990187 0.919479 0.819610
0.994468 0.907661 0.853662
0.462798 0.894671 0.921547
0.480397 0.896990 0.921901
0.487794 0.897983 0.922045
0.503234 0.900051 0.922275
0.541433 0.905373 0.922533
0.623792 0.917477 0.919248
0.847896 0.944120 0.859937
0.990012 0.972798 0.895935
1.000000 0.977176 0.912384
0.796071 0.960490 0.970443
0.798963 0.961025 0.970628
0.800246 0.961264 0.970714
0.802896 0.961750 0.970887
0.810147 0.963092 0.971345
0.829164 0.966552 0.972126
0.869136 0.973153 0.969631
0.980887 0.990807 0.966042
1.000000 0.996475 0.980529
0.000000 0.041819 0.635352
0.000000 0.041637 0.635277
0.000000 0.041599 0.635260
0.000000 0.041444 0.635193
0.009794 0.001474 0.615728
0.616170 0.005172 0.684794
0.822584 0.318527 0.775570
0.912946 0.560681 0.865520
0.973006 0.812004 0.946247
0.000000 0.041408 0.635173
0.000000 0.041223 0.635101
0.000000 0.041191 0.635089
0.000000 0.041056 0.635030
0.017442 0.001003 0.615428
0.618764 0.005436 0.685325
0.822899 0.318969 0.775657
0.913017 0.560916 0.865543
0.973003 0.811985 0.946215
0.000000 0.041191 0.635089
0.000000 0.041062 0.635032
0.000000 0.040981 0.634997
0.000000 0.040858 0.634940
0.020407 0.000690 0.614954
0.619932 0.005548 0.685564
0.823056 0.319194 0.775702
0.913051 0.561025 0.865550
0.973003 0.811969 0.946199
0.000000 0.040805 0.634918
0.000000 0.040660 0.634865
0.000000 0.040626 0.634853
0.000000 0.040448 0.634774
0.025680 0.000357 0.613454
0.622191 0.005551 0.686019
0.823369 0.319649 0.775798
0.913130 0.561272 0.865573
0.973003 0.811944 0.946157
0.000000 0.079232 0.643362
0.000000 0.079397 0.643368
0.000000 0.079464 0.643362
0.000000 0.079639 0.643375
0.008039 0.001835 0.612565
0.624775 0.027673 0.689999
0.823360 0.323032 0.775869
0.913551 0.565228 0.864423
0.973232 0.813089 0.945886
0.000000 0.572052 0.820738
0.000000 0.572082 0.820735
0.000000 0.572087 0.820722
0.000000 0.572084 0.820701
0.000000 0.556829 0.812531
0.620470 0.697877 0.863424
0.886946 0.639523 0.862416
0.921060 0.602933 0.862186
0.975371 0.823764 0.943442
0.000000 0.799958 0.896634
0.000011 0.800199 0.896505
0.011615 0.800774 0.893881
0.034432 0.804943 0.892068
0.086160 0.816561 0.891392
0.275682 0.843397 0.892741
0.912737 0.930798 0.931176
0.984842 0.921749 0.932333
0.987175 0.892297 0.937696
0.425270 0.891628 0.929364
0.443159 0.893934 0.930088
0.450789 0.894939 0.930431
0.466166 0.896984 0.931127
0.506227 0.902372 0.932933
0.590868 0.915169 0.936663
0.752486 0.941080 0.933482
0.987505 0.978358 0.932349
0.999995 0.984854 0.961803
0.767238 0.955508 0.969459
0.770978 0.956193 0.969765
0.772629 0.956500 0.969901
0.776012 0.957114 0.970177
0.785069 0.958783 0.970916
0.805932 0.962671 0.972491
0.852694 0.971201 0.974664
0.972014 0.990372 0.971772
1.000000 0.996811 0.982412
0.000000 0.325650 0.754397
0.000000 0.325553 0.754343
0.000000 0.325553 0.754343
0.000000 0.325518 0.754328
0.000000 0.325344 0.754248
0.000686 0.262845 0.732783
0.789448 0.286913 0.804492
0.920448 0.603540 0.902169
0.975446 0.828134 0.962899
0.000000 0.325432 0.754294
0.000000 0.325432 0.754294
0.000000 0.325422 0.754289
0.000000 0.325324 0.754237
0.000000 0.325203 0.754188
0.003263 0.259225 0.731188
0.790084 0.287673 0.804734
0.920519 0.603769 0.902212
0.975448 0.828186 0.962897
0.000000 0.325432 0.754295
0.000000 0.325324 0.754237
0.000000 0.325324 0.754237
0.000000 0.325283 0.754220
0.000000 0.325110 0.754138
0.004441 0.257607 0.730475
0.790389 0.288012 0.804829
0.920555 0.603890 0.902245
0.975462 0.828253 0.962923
0.000000 0.325233 0.754200
0.000000 0.325203 0.754188
0.000000 0.325175 0.754173
0.000000 0.325122 0.754144
0.000000 0.324952 0.754060
0.006972 0.253870 0.728858
0.791019 0.288768 0.805069
0.920615 0.604064 0.902288
0.975473 0.828303 0.962922
0.000000 0.324838 0.754007
0.000000 0.324748 0.753966
0.000000 0.324748 0.753966
0.000000 0.324711 0.753949
0.000000 0.324519 0.753859
0.022420 0.240503 0.723864
0.792552 0.290753 0.805693
0.920810 0.604653 0.902439
0.975502 0.828424 0.962928
0.000000 0.330543 0.756347
0.000000 0.330445 0.756298
0.000000 0.330453 0.756301
0.000000 0.330375 0.756260
0.000000 0.330283 0.756220
0.013624 0.216469 0.723195
0.796474 0.300733 0.808469
0.921163 0.606659 0.902543
0.975633 0.829164 0.963002
0.000000 0.635962 0.863815
0.000000 0.635972 0.863813
0.000000 0.635972 0.863813
0.000000 0.635974 0.863813
0.000000 0.635978 0.863812
0.000000 0.631256 0.861714
0.849175 0.895372 0.958344
0.972355 0.871124 0.963622
0.979553 0.853916 0.964786
0.475016 0.896401 0.939550
0.475240 0.896444 0.939554
0.475240 0.896444 0.939554
0.475343 0.896530 0.939591
0.472137 0.899465 0.940572
0.551451 0.910480 0.945790
0.687846 0.933847 0.957199
0.981677 0.985499 0.986214
0.998935 0.986629 0.989035
0.759591 0.954865 0.971728
0.762932 0.955486 0.972038
0.764389 0.955762 0.972177
0.767548 0.956350 0.972479
0.775922 0.957905 0.973271
0.795728 0.961643 0.975171
0.840759 0.970170 0.979283
0.930037 0.986028 0.985168
1.000000 0.998574 0.992011
0.000000 0.515969 0.829709
0.000000 0.515969 0.829709
0.000000 0.515969 0.829709
0.000000 0.515969 0.829709
0.000000 0.515969 0.829709
0.000000 0.515969 0.829709
0.002645 0.485219 0.822723
0.904990 0.572056 0.904190
0.979171 0.852537 0.973816
0.000000 0.515969 0.829709
0.000000 0.515969 0.829709
0.000000 0.515969 0.829709
0.000000 0.515969 0.829709
0.000000 0.515969 0.829709
0.000000 0.515969 0.829709
0.003887 0.484569 0.822151
0.905126 0.572430 0.904297
0.979171 0.852598 0.973831
0.000000 0.515969 0.829709
0.000000 0.515969 0.829709
0.000000 0.515969 0.829709
0.000000 0.515969 0.829709
0.000000 0.515969 0.829709
0.000000 0.515969 0.829709
0.004420 0.484273 0.821891
0.905182 0.572561 0.904338
0.979187 0.852659 0.973831
0.000000 0.515969 0.829709
0.000000 0.515969 0.829709
0.000000 0.515969 0.829709
0.000000 0.515969 0.829709
0.000000 0.515969 0.829709
0.000000 0.515969 0.829709
0.005622 0.483686 0.821349
0.905304 0.572888 0.904427
0.979202 0.852720 0.973846
0.000000 0.515969 0.829709
0.000000 0.515969 0.829709
0.000000 0.515969 0.829709
0.000000 0.515969 0.829709
0.000000 0.515969 0.829709
0.000000 0.515969 0.829709
0.008849 0.481897 0.819798
0.905646 0.573777 0.904676
0.979217 0.852858 0.973865
0.000000 0.515969 0.829709
0.000000 0.515969 0.829709
0.000000 0.515969 0.829709
0.000000 0.515969 0.829709
0.000000 0.515969 0.829709
0.000000 0.515969 0.829709
0.051763 0.473149 0.817460
0.906523 0.576265 0.905368
0.979282 0.853284 0.973942
0.000000 0.518419 0.830599
0.000000 0.518422 0.830599
0.000000 0.518425 0.830599
0.000000 0.518426 0.830601
0.000000 0.518439 0.830606
0.000000 0.518476 0.830624
0.077568 0.442467 0.814159
0.909362 0.585510 0.907856
0.979493 0.854634 0.974179
0.000000 0.648002 0.871564
0.000000 0.648002 0.871577
0.000000 0.648002 0.871577
0.000000 0.648002 0.871577
0.000000 0.648002 0.871579
0.000000 0.648003 0.871580
0.000000 0.647692 0.871353
0.965825 0.978354 0.991723
0.996827 0.974005 0.994502
0.789487 0.960800 0.976410
0.789487 0.960800 0.976410
0.789487 0.960800 0.976410
0.789487 0.960800 0.976410
0.789487 0.960800 0.976410
0.800123 0.962837 0.977527
0.833252 0.969160 0.980996
0.894611 0.980830 0.987567
0.999985 1.000000 0.999969
