luts/apple-log-2/33x/Apple_LOG_2_to_Kodak_2383_D65_Rec709_G2-4.cube
TITLE "Apple LOG 2 to Kodak 2383 D65 Rec709 G2-4"
#  
# Apple LOG 2 to Rec.709 Hybrid LUT
#  
# This hybrid LUT converts Apple LOG 2 to Rec.709 Gamma 2.4
#  
# Based on an original creative LUT included in DaVinci Resolve, adapted for a different color space.  
#  
# Created by Tobia Montanari | tobiamontanari.com
#  
#  
# 
LUT_3D_SIZE 5
0.030106 0.038559 0.046921
0.165257 0.062129 0.053236
0.476841 0.016540 0.102363
0.820171 0.252262 0.463290
0.981094 0.795453 0.891340
0.000000 0.106345 0.085853
0.104402 0.108338 0.061022
0.468781 0.148923 0.000000
0.824308 0.271531 0.375196
0.981702 0.798308 0.887141
0.000000 0.383064 0.294098
0.000728 0.381108 0.113083
0.575759 0.492819 0.010509
0.898194 0.449634 0.000856
0.983330 0.804830 0.873997
0.001099 0.791668 0.751557
0.022659 0.800441 0.732291
0.264067 0.814241 0.660157
0.966159 0.910021 0.579159
1.000000 0.907581 0.699110
0.808682 0.968902 0.972534
0.812577 0.969497 0.972393
0.822080 0.970959 0.971935
0.878642 0.978184 0.955403
1.000000 0.994263 0.944976
0.011015 0.041314 0.104851
0.121117 0.057539 0.128039
0.467057 0.002273 0.235669
0.817200 0.240512 0.491844
0.981021 0.795074 0.891935
0.000003 0.090768 0.118211
0.063076 0.083074 0.095283
0.446244 0.054022 0.086157
0.821231 0.263452 0.430255
0.981610 0.797943 0.887892
0.000000 0.376537 0.371893
0.000000 0.377342 0.269763
0.550026 0.475851 0.086976
0.877984 0.417252 0.088306
0.983222 0.804439 0.874887
0.000480 0.789524 0.752169
0.015635 0.798549 0.733217
0.249794 0.812908 0.662467
0.965865 0.909355 0.577141
1.000000 0.906684 0.698524
0.808179 0.968814 0.972549
0.812106 0.969424 0.972409
0.821608 0.970889 0.971969
0.878315 0.978160 0.955643
1.000000 0.994263 0.944976
0.000000 0.000000 0.318094
0.087107 0.000000 0.312016
0.463476 0.000721 0.404701
0.819068 0.239217 0.585324
0.980838 0.794180 0.893237
0.000000 0.008133 0.309829
0.000166 0.000026 0.310275
0.451369 0.007680 0.394350
0.821150 0.252940 0.571827
0.981336 0.796684 0.889957
0.000000 0.382696 0.495676
0.000000 0.388178 0.492244
0.480252 0.487113 0.503482
0.847939 0.350187 0.478271
0.982936 0.803386 0.877326
0.000213 0.777393 0.783273
0.001683 0.788808 0.771005
0.121900 0.809803 0.727406
0.961783 0.909736 0.598177
1.000000 0.904481 0.697070
0.806939 0.968627 0.972595
0.810947 0.969251 0.972445
0.820459 0.970711 0.972037
0.877523 0.978098 0.956233
1.000000 0.994263 0.944976
0.000000 0.000721 0.590305
0.000000 0.000712 0.590198
0.012210 0.000655 0.583559
0.832275 0.294373 0.777163
0.979720 0.796082 0.935719
0.000000 0.000700 0.589993
0.000000 0.000692 0.589883
0.023154 0.000227 0.583673
0.832731 0.295040 0.777240
0.979717 0.796059 0.935640
0.000000 0.007341 0.594761
0.000000 0.007372 0.594717
0.011772 0.001418 0.583355
0.833774 0.298948 0.777424
0.979938 0.797337 0.935034
0.000000 0.785470 0.883048
0.000453 0.788150 0.881756
0.010805 0.808646 0.881581
0.926229 0.933612 0.916046
0.992714 0.884424 0.908045
0.776052 0.964054 0.975285
0.781334 0.964897 0.975400
0.793521 0.966842 0.975616
0.859197 0.976912 0.971794
1.000000 0.994781 0.950080
0.000000 0.448417 0.809598
0.000000 0.448417 0.809598
0.000000 0.448417 0.809598
0.002279 0.433409 0.808524
0.984405 0.840314 0.972930
0.000000 0.448417 0.809598
0.000000 0.448417 0.809598
0.000000 0.448417 0.809598
0.003808 0.433080 0.808107
0.984421 0.840436 0.972946
0.000000 0.448417 0.809598
0.000000 0.448417 0.809598
0.000000 0.448417 0.809598
0.007627 0.432275 0.807069
0.984440 0.840636 0.972992
0.000000 0.450530 0.810362
0.000000 0.450533 0.810362
0.000000 0.450546 0.810370
0.079048 0.418537 0.811311
0.984666 0.842418 0.973286
0.795193 0.968231 0.987655
0.795193 0.968231 0.987655
0.795193 0.968231 0.987655
0.837629 0.975259 0.990533
1.000000 1.000000 0.999969
