luts/apple-log-2/33x/Apple_LOG_2_to_Kodak_2383_D60_Rec709_G2-4.cube
TITLE "Apple LOG 2 to Kodak 2383 D60 Rec709 G2-4"
#  
# Apple LOG 2 to Rec.709 Hybrid LUT
#  
# This hybrid LUT converts Apple LOG 2 to Rec.709 Gamma 2.4
#  
# Based on an original creative LUT included in DaVinci Resolve, adapted for a different color space.  
#  
# Created by Tobia Montanari | tobiamontanari.com
#  
#  
# 
LUT_3D_SIZE 5
0.030549 0.038148 0.044801
0.163548 0.060755 0.049776
0.471695 0.012838 0.093777
0.811467 0.245463 0.438150
0.976989 0.778912 0.843565
0.000000 0.104429 0.081387
0.104283 0.106131 0.057395
0.464692 0.146724 0.000000
0.815497 0.264219 0.353738
0.977618 0.781689 0.839533
0.000000 0.374798 0.276962
0.000922 0.372815 0.099668
0.574458 0.484481 0.002395
0.891543 0.442319 0.000234
0.979179 0.788034 0.826955
0.004284 0.774722 0.709010
0.038615 0.783319 0.690823
0.301186 0.797530 0.623551
0.963739 0.890783 0.543314
0.999936 0.889408 0.659682
0.813687 0.949035 0.920241
0.817441 0.949618 0.920101
0.826647 0.951026 0.919642
0.881453 0.958039 0.903716
1.000000 0.973663 0.893431
0.014731 0.041123 0.099600
0.120256 0.056605 0.121518
0.462105 0.001891 0.223363
0.808541 0.234029 0.465460
0.976901 0.778533 0.844135
0.000012 0.089182 0.112074
0.064411 0.081509 0.090380
0.441158 0.047344 0.076997
0.812533 0.256369 0.406504
0.977536 0.781326 0.840251
0.000000 0.369837 0.352845
0.000000 0.369250 0.254013
0.547921 0.466210 0.064634
0.870360 0.408948 0.072098
0.979078 0.787652 0.827805
0.002563 0.772638 0.709612
0.027874 0.781429 0.691623
0.287766 0.796206 0.625746
0.963443 0.890129 0.541371
0.999927 0.888529 0.659135
0.813187 0.948956 0.920272
0.816986 0.949551 0.920116
0.826187 0.950962 0.919677
0.881150 0.958015 0.903942
1.000000 0.973663 0.893431
0.000000 0.000000 0.300665
0.090914 0.000000 0.296406
0.458693 0.000707 0.384265
0.810592 0.233235 0.554583
0.976714 0.777669 0.845385
0.000000 0.017600 0.293731
0.000356 0.000109 0.293122
0.446765 0.007578 0.374324
0.812701 0.246615 0.541680
0.977243 0.780098 0.842234
0.000000 0.374777 0.468716
0.000000 0.381623 0.466998
0.480474 0.477068 0.476413
0.839473 0.341813 0.451954
0.978820 0.786635 0.830133
0.002401 0.761021 0.739617
0.017018 0.772119 0.727794
0.157494 0.792898 0.687031
0.959510 0.890509 0.561633
0.999912 0.886388 0.657783
0.811994 0.948767 0.920313
0.815870 0.949371 0.920162
0.825079 0.950794 0.919745
0.880384 0.957954 0.904512
1.000000 0.973663 0.893431
0.000000 0.004384 0.558176
0.000000 0.004354 0.558079
0.017782 0.001113 0.552048
0.824483 0.288365 0.737068
0.975811 0.779593 0.885898
0.000000 0.004307 0.557886
0.000000 0.004277 0.557782
0.024961 0.000408 0.551950
0.824938 0.289016 0.737146
0.975808 0.779563 0.885820
0.000000 0.019436 0.563103
0.000000 0.019527 0.563062
0.021016 0.002919 0.551843
0.825993 0.292840 0.737299
0.976024 0.780815 0.885241
0.000012 0.769310 0.834554
0.000557 0.771872 0.833259
0.012692 0.791830 0.832865
0.926366 0.914284 0.866359
0.989993 0.866023 0.858910
0.782126 0.944314 0.922956
0.787241 0.945137 0.923060
0.799037 0.947031 0.923231
0.862757 0.956815 0.919409
1.000000 0.974194 0.898319
0.000000 0.444770 0.769863
0.000000 0.444770 0.769863
0.000000 0.444770 0.769863
0.004223 0.428572 0.767987
0.981247 0.822950 0.921126
0.000000 0.444770 0.769863
0.000000 0.444770 0.769863
0.000000 0.444770 0.769863
0.007059 0.428218 0.767542
0.981262 0.823072 0.921141
0.000000 0.444770 0.769863
0.000000 0.444770 0.769863
0.000000 0.444770 0.769863
0.014139 0.427398 0.766404
0.981292 0.823271 0.921176
0.000000 0.446833 0.770531
0.000000 0.446836 0.770535
0.000000 0.446847 0.770537
0.080163 0.414459 0.770048
0.981538 0.825014 0.921451
0.800900 0.948379 0.934691
0.800900 0.948379 0.934691
0.800900 0.948379 0.934691
0.841947 0.955239 0.937331
0.999969 0.979294 0.945876
