luts/apple-log-2/33x/Apple_LOG_2_to_Kodak_2383_D60_Rec709_G2-4.cube
TITLE "Apple LOG 2 to Kodak 2383 D60 Rec709 G2-4"
#  
# Apple LOG 2 to Rec.709 Hybrid LUT
#  
# This hybrid LUT converts Apple LOG 2 to Rec.709 Gamma 2.4
#  
# Based on an original creative LUT included in DaVinci Resolve, adapted for a different color space.  
#  
# Created by Tobia Montanari | tobiamontanari.com
#  
#  
# 
LUT_3D_SIZE 9
0.030549 0.038148 0.044801
0.090155 0.051786 0.049800
0.163548 0.060755 0.049776
0.275926 0.067187 0.045084
0.471695 0.012838 0.093777
0.666474 0.041528 0.224782
0.811467 0.245463 0.438150
0.919405 0.521194 0.673494
0.976989 0.778912 0.843565
0.025885 0.054307 0.056296
0.037800 0.047119 0.047521
0.084970 0.060375 0.041991
0.215595 0.083498 0.018444
0.456686 0.115338 0.000000
0.665886 0.089499 0.045260
0.814458 0.259685 0.384612
0.921177 0.527810 0.658246
0.977432 0.780940 0.841046
0.000000 0.104429 0.081387
0.055899 0.092004 0.054327
0.104283 0.106131 0.057395
0.231613 0.128018 0.015282
0.464692 0.146724 0.000000
0.679129 0.152072 0.000697
0.815497 0.264219 0.353738
0.921921 0.530442 0.651200
0.977618 0.781689 0.839533
0.000000 0.199769 0.140181
0.017191 0.190846 0.065780
0.110517 0.195053 0.047225
0.271757 0.236478 0.020092
0.520637 0.273238 0.000000
0.710065 0.250707 0.000000
0.817802 0.272786 0.256908
0.923528 0.535789 0.634364
0.978027 0.783397 0.836436
0.000000 0.374798 0.276962
0.000000 0.364588 0.164379
0.000922 0.372815 0.099668
0.256141 0.410856 0.000701
0.574458 0.484481 0.002395
0.823112 0.511003 0.000000
0.891543 0.442319 0.000234
0.928047 0.547345 0.566833
0.979179 0.788034 0.826955
0.000000 0.595353 0.502340
0.000000 0.603280 0.459589
0.000007 0.604645 0.432547
0.000395 0.601621 0.344967
0.490098 0.661062 0.146687
0.840023 0.735446 0.234063
0.965691 0.730106 0.073795
0.977568 0.700112 0.371983
0.982607 0.797895 0.784995
0.004284 0.774722 0.709010
0.023441 0.780847 0.696836
0.038615 0.783319 0.690823
0.098029 0.788077 0.677150
0.301186 0.797530 0.623551
0.757108 0.848832 0.470294
0.963739 0.890783 0.543314
1.000000 0.888239 0.525694
0.999936 0.889408 0.659682
0.568407 0.896144 0.861467
0.581991 0.898286 0.860437
0.587890 0.899213 0.859879
0.599706 0.901064 0.858682
0.629162 0.905648 0.854478
0.696692 0.914523 0.831177
0.912609 0.936627 0.732879
0.996771 0.954944 0.782440
1.000000 0.952809 0.777184
0.813687 0.949035 0.920241
0.816310 0.949445 0.920148
0.817441 0.949618 0.920101
0.819977 0.950011 0.919982
0.826647 0.951026 0.919642
0.844415 0.953636 0.917680
0.881453 0.958039 0.903716
0.983911 0.969904 0.874612
1.000000 0.973663 0.893431
0.029977 0.038894 0.051952
0.058082 0.045273 0.064334
0.129119 0.055683 0.101036
0.252825 0.058373 0.130679
0.461688 0.003165 0.183956
0.664158 0.021065 0.285239
0.810018 0.240135 0.450505
0.919105 0.520032 0.674539
0.976928 0.778653 0.843944
0.029837 0.040940 0.048070
0.030962 0.038809 0.045506
0.092106 0.053896 0.051094
0.229775 0.069943 0.047761
0.449687 0.034335 0.071420
0.661035 0.059682 0.193401
0.813038 0.255568 0.402829
0.920814 0.526456 0.660174
0.977368 0.780602 0.841418
0.000003 0.092656 0.103666
0.004567 0.079901 0.066275
0.081112 0.087230 0.060653
0.228844 0.106101 0.035153
0.447159 0.096520 0.000010
0.659993 0.079868 0.108949
0.814288 0.261039 0.373798
0.921585 0.529216 0.653295
0.977557 0.781416 0.840021
0.000000 0.195204 0.188645
0.000000 0.181619 0.121302
0.010295 0.176997 0.079272
0.247043 0.220605 0.053400
0.519780 0.251233 0.000002
0.698584 0.210201 0.000246
0.816326 0.269388 0.284545
0.923175 0.534618 0.636872
0.977966 0.783156 0.836935
0.000000 0.372181 0.330226
0.000000 0.369650 0.252677
0.000000 0.364771 0.195769
0.123826 0.387925 0.067004
0.557037 0.471418 0.029858
0.813132 0.496049 0.000037
0.886036 0.428550 0.001443
0.927681 0.546455 0.571173
0.979107 0.787771 0.827539
0.000000 0.590850 0.509590
0.000000 0.599863 0.469532
0.000004 0.601968 0.444735
0.000125 0.600483 0.365110
0.473758 0.656162 0.152852
0.837913 0.732609 0.230713
0.965253 0.727276 0.066916
0.976553 0.695866 0.370396
0.982529 0.797743 0.786224
0.003112 0.773317 0.709461
0.019008 0.779491 0.697368
0.030474 0.782002 0.691384
0.087384 0.786872 0.677764
0.291991 0.796612 0.625060
0.754549 0.847930 0.468642
0.963536 0.890322 0.541963
1.000000 0.887798 0.524514
0.999930 0.888820 0.659316
0.566168 0.895737 0.861367
0.579879 0.897898 0.860339
0.585769 0.898828 0.859823
0.597740 0.900715 0.858671
0.627612 0.905358 0.854487
0.695432 0.914311 0.831423
0.912228 0.936493 0.732424
0.996752 0.954882 0.782163
1.000000 0.952749 0.776909
0.813336 0.948974 0.920256
0.815990 0.949388 0.920152
0.817123 0.949571 0.920116
0.819651 0.949965 0.919999
0.826332 0.950981 0.919660
0.844122 0.953594 0.917729
0.881239 0.958018 0.903875
0.983835 0.969889 0.874570
1.000000 0.973663 0.893431
0.014731 0.041123 0.099600
0.070747 0.043048 0.095839
0.120256 0.056605 0.121518
0.249434 0.056711 0.164968
0.462105 0.001891 0.223363
0.663609 0.012681 0.312734
0.808541 0.234029 0.465460
0.919033 0.519764 0.674435
0.976901 0.778533 0.844135
0.008442 0.046934 0.061895
0.027726 0.040610 0.079197
0.086142 0.053791 0.089785
0.226335 0.069610 0.111565
0.449555 0.028369 0.147252
0.660135 0.045427 0.249114
0.811133 0.249609 0.430616
0.920677 0.525950 0.661062
0.977329 0.780453 0.841611
0.000012 0.089182 0.112074
0.002891 0.078059 0.094670
0.064411 0.081509 0.090380
0.236757 0.092954 0.081467
0.441158 0.047344 0.076997
0.659033 0.063813 0.192749
0.812533 0.256369 0.406504
0.921447 0.528733 0.654258
0.977536 0.781326 0.840251
0.000000 0.193750 0.210449
0.000000 0.182748 0.165592
0.000000 0.175548 0.123056
0.234042 0.214027 0.077194
0.514929 0.228624 0.032362
0.682543 0.161431 0.031330
0.814796 0.266845 0.338082
0.923025 0.534100 0.637934
0.977936 0.783039 0.837160
0.000000 0.369837 0.352845
0.000000 0.370945 0.295794
0.000000 0.369250 0.254013
0.025856 0.375936 0.127064
0.547921 0.466210 0.064634
0.804182 0.481199 0.006642
0.870360 0.408948 0.072098
0.927529 0.546092 0.573225
0.979078 0.787652 0.827805
0.000000 0.587778 0.526892
0.000000 0.598324 0.493438
0.000000 0.601661 0.473338
0.000028 0.603950 0.412274
0.432319 0.651403 0.204752
0.833850 0.731429 0.243674
0.964636 0.726050 0.073982
0.976094 0.693948 0.369698
0.982490 0.797675 0.786765
0.002563 0.772638 0.709612
0.017309 0.778915 0.697575
0.027874 0.781429 0.691623
0.082714 0.786336 0.678048
0.287766 0.796206 0.625746
0.753366 0.847519 0.467907
0.963443 0.890129 0.541371
1.000000 0.887593 0.523972
0.999927 0.888529 0.659135
0.565220 0.895569 0.861366
0.578984 0.897743 0.860334
0.584882 0.898670 0.859828
0.596819 0.900543 0.858645
0.626870 0.905218 0.854463
0.694886 0.914223 0.831514
0.912035 0.936425 0.732205
0.996740 0.954850 0.781972
1.000000 0.952730 0.776815
0.813187 0.948956 0.920272
0.815846 0.949369 0.920163
0.816986 0.949551 0.920116
0.819501 0.949935 0.920008
0.826187 0.950962 0.919677
0.843996 0.953567 0.917746
0.881150 0.958015 0.903942
0.983801 0.969887 0.874554
1.000000 0.973663 0.893431
0.000000 0.020946 0.179525
0.076687 0.017664 0.172972
0.123326 0.034956 0.186986
0.241768 0.051972 0.223218
0.463836 0.000209 0.284885
0.666869 0.013605 0.362806
0.807133 0.226787 0.493288
0.918116 0.516381 0.681461
0.976822 0.778152 0.844652
0.000000 0.051816 0.152272
0.009167 0.030156 0.165490
0.084525 0.039211 0.172763
0.221782 0.062355 0.202632
0.453945 0.014592 0.252590
0.664258 0.039790 0.330767
0.808863 0.238825 0.471393
0.918981 0.522787 0.669352
0.977278 0.780243 0.841971
0.000000 0.091763 0.167841
0.000000 0.067746 0.167732
0.011294 0.058657 0.182997
0.206996 0.072962 0.191761
0.445504 0.036231 0.219355
0.663374 0.058400 0.300942
0.810149 0.246121 0.453628
0.919807 0.525728 0.662462
0.977478 0.781112 0.840751
0.000000 0.192050 0.250808
0.000000 0.184554 0.238670
0.000000 0.181266 0.232090
0.195632 0.215219 0.234389
0.516691 0.202966 0.215773
0.670206 0.114530 0.215583
0.812728 0.258962 0.407712
0.921517 0.531599 0.646696
0.977874 0.782762 0.837610
0.000000 0.371298 0.394597
0.000000 0.376228 0.366231
0.000000 0.377671 0.345535
0.000010 0.378396 0.266860
0.533715 0.464549 0.160826
0.792790 0.464597 0.201163
0.855804 0.380447 0.243710
0.926406 0.544809 0.584432
0.979022 0.787423 0.828313
0.000000 0.581487 0.552770
0.000000 0.594772 0.529551
0.000000 0.599519 0.515663
0.000003 0.606696 0.475755
0.302602 0.637847 0.274075
0.829000 0.732139 0.284142
0.956260 0.727903 0.261429
0.975092 0.689948 0.368859
0.982418 0.797530 0.787936
0.012462 0.770104 0.714375
0.033679 0.776584 0.702848
0.048589 0.779242 0.697211
0.089373 0.784398 0.684182
0.260560 0.795003 0.634637
0.746341 0.846042 0.470672
0.963216 0.889714 0.540233
1.000000 0.887163 0.522819
0.999924 0.887959 0.658775
0.563108 0.895194 0.861295
0.577025 0.897386 0.860271
0.582907 0.898310 0.859794
0.594980 0.900209 0.858602
0.625363 0.904930 0.854468
0.693719 0.914032 0.831748
0.911673 0.936306 0.731810
0.996725 0.954797 0.781703
1.000000 0.952669 0.776582
0.812875 0.948902 0.920276
0.815533 0.949322 0.920176
0.816689 0.949504 0.920130
0.819179 0.949893 0.920024
0.825885 0.950916 0.919695
0.843720 0.953533 0.917782
0.880946 0.958000 0.904088
0.983737 0.969872 0.874523
1.000000 0.973663 0.893431
0.000000 0.000000 0.300665
0.014283 0.000010 0.300126
0.090914 0.000000 0.296406
0.227161 0.000001 0.325292
0.458693 0.000707 0.384265
0.671176 0.011597 0.452375
0.810592 0.233235 0.554583
0.916130 0.509117 0.707649
0.976714 0.777669 0.845385
0.000000 0.000109 0.298330
0.009417 0.000004 0.297132
0.078212 0.000000 0.294848
0.225185 0.000019 0.325731
0.459272 0.001394 0.381686
0.671314 0.018207 0.447658
0.811324 0.237648 0.550392
0.916072 0.512304 0.702875
0.977046 0.779214 0.843391
0.000000 0.017600 0.293731
0.000000 0.001974 0.293259
0.000356 0.000109 0.293122
0.186665 0.001500 0.324105
0.446765 0.007578 0.374324
0.669484 0.038771 0.436903
0.812701 0.246615 0.541680
0.916786 0.515445 0.697597
0.977243 0.780098 0.842234
0.000000 0.175898 0.358628
0.000000 0.158010 0.356419
0.000000 0.137394 0.353337
0.067643 0.160640 0.390835
0.468498 0.142423 0.401466
0.669291 0.079479 0.411119
0.815686 0.261639 0.521367
0.918207 0.521117 0.686899
0.977657 0.781910 0.839348
0.000000 0.374777 0.468716
0.000000 0.379501 0.468095
0.000000 0.381623 0.466998
0.000000 0.386976 0.462474
0.480474 0.477068 0.476413
0.784459 0.437316 0.453858
0.839473 0.341813 0.451954
0.922168 0.535492 0.648151
0.978820 0.786635 0.830133
0.000000 0.583144 0.609967
0.000000 0.597324 0.600058
0.000000 0.603252 0.594888
0.000000 0.614318 0.580028
0.028549 0.636293 0.490772
0.816814 0.739786 0.394062
0.948423 0.735768 0.466209
0.963410 0.677768 0.509411
0.982206 0.797123 0.791253
0.002401 0.761021 0.739617
0.010808 0.768880 0.731689
0.017018 0.772119 0.727794
0.040426 0.778462 0.718752
0.157494 0.792898 0.687031
0.660906 0.837396 0.526229
0.959510 0.890509 0.561633
0.999783 0.890828 0.565175
0.999912 0.886388 0.657783
0.555225 0.893829 0.860851
0.569738 0.896087 0.859852
0.575874 0.897053 0.859387
0.588437 0.899028 0.858278
0.620320 0.903983 0.854381
0.690283 0.913456 0.832427
0.910295 0.935899 0.730757
0.996681 0.954629 0.780879
1.000000 0.952519 0.775878
0.811994 0.948767 0.920313
0.814694 0.949188 0.920207
0.815870 0.949371 0.920162
0.818316 0.949755 0.920060
0.825079 0.950794 0.919745
0.842966 0.953425 0.917897
0.880384 0.957954 0.904512
0.983563 0.969838 0.874448
1.000000 0.973663 0.893431
0.000000 0.000000 0.437029
0.000000 0.000000 0.436776
0.000000 0.000000 0.436625
0.060694 0.000000 0.428591
0.408365 0.000000 0.489884
0.670878 0.020634 0.566767
0.815982 0.246513 0.646594
0.917535 0.516338 0.757904
0.975361 0.772759 0.860560
0.000000 0.000000 0.436311
0.000000 0.000000 0.436076
0.000000 0.000000 0.435672
0.080525 0.000000 0.426672
0.416385 0.000000 0.491197
0.672421 0.021491 0.566688
0.816303 0.247169 0.646369
0.917602 0.516571 0.757712
0.975361 0.772740 0.860442
0.000000 0.000000 0.436009
0.000000 0.000000 0.435765
0.000000 0.000000 0.435121
0.089375 0.000000 0.425977
0.419909 0.000000 0.491778
0.673116 0.021869 0.566674
0.816435 0.247442 0.646267
0.917638 0.516701 0.757634
0.975407 0.772963 0.860171
0.000000 0.000000 0.445090
0.000000 0.000000 0.444869
0.000000 0.000000 0.443337
0.004765 0.000000 0.430522
0.400501 0.000069 0.498957
0.670869 0.047390 0.565347
0.817892 0.256783 0.643128
0.918007 0.522015 0.753454
0.975748 0.774626 0.858320
0.000000 0.327725 0.571633
0.000000 0.327729 0.571410
0.000000 0.322819 0.570419
0.000000 0.303748 0.567123
0.325422 0.386533 0.633182
0.735455 0.338944 0.634514
0.825379 0.294106 0.627448
0.921611 0.537599 0.740401
0.976723 0.779161 0.852521
0.000000 0.593296 0.691091
0.000000 0.599695 0.691173
0.000000 0.604310 0.691671
0.000000 0.613587 0.692119
0.000060 0.637320 0.689667
0.771641 0.756457 0.711430
0.933485 0.715502 0.692358
0.945806 0.638436 0.694132
0.979594 0.791042 0.830090
0.000146 0.760251 0.785125
0.001064 0.768346 0.782175
0.002845 0.771719 0.780682
0.009426 0.778527 0.777231
0.080089 0.795123 0.766015
0.460340 0.832088 0.710327
0.951173 0.899360 0.649740
0.997206 0.904443 0.709352
0.999007 0.886526 0.737395
0.488849 0.884535 0.867110
0.507979 0.887205 0.866934
0.515440 0.888334 0.866827
0.531010 0.890690 0.866470
0.569520 0.896644 0.864905
0.653088 0.909455 0.854768
0.871547 0.933296 0.760445
0.995597 0.955089 0.789140
1.000000 0.954219 0.790744
0.809591 0.948390 0.920405
0.812314 0.948818 0.920301
0.813521 0.949004 0.920255
0.816017 0.949398 0.920153
0.822849 0.950454 0.919848
0.840856 0.953120 0.918201
0.878817 0.957824 0.905577
0.982995 0.969730 0.874223
1.000000 0.973663 0.893431
0.000000 0.004384 0.558176
0.000000 0.004366 0.558099
0.000000 0.004354 0.558079
0.000000 0.004339 0.557999
0.017782 0.001113 0.552048
0.624880 0.000654 0.648953
0.824483 0.288365 0.737068
0.920591 0.531762 0.815873
0.975811 0.779593 0.885898
0.000000 0.004332 0.557982
0.000000 0.004316 0.557900
0.000000 0.004307 0.557886
0.000000 0.004292 0.557814
0.022745 0.000592 0.552176
0.627467 0.000657 0.649462
0.824781 0.288791 0.737110
0.920661 0.531988 0.815854
0.975808 0.779577 0.885848
0.000000 0.004307 0.557886
0.000000 0.004294 0.557816
0.000000 0.004277 0.557782
0.000000 0.004268 0.557720
0.024961 0.000408 0.551950
0.628625 0.000662 0.649688
0.824938 0.289016 0.737146
0.920696 0.532104 0.815844
0.975808 0.779563 0.885820
0.000000 0.004258 0.557698
0.000000 0.004242 0.557626
0.000000 0.004237 0.557608
0.000000 0.004214 0.557528
0.032119 0.001418 0.551564
0.630884 0.000651 0.650126
0.825240 0.289456 0.737202
0.920767 0.532352 0.815840
0.975797 0.779547 0.885769
0.000000 0.019436 0.563103
0.000000 0.019507 0.563086
0.000000 0.019527 0.563062
0.000000 0.019597 0.563049
0.021016 0.002919 0.551843
0.633430 0.013366 0.653894
0.825993 0.292840 0.737299
0.920898 0.535563 0.814808
0.976024 0.780815 0.885241
0.000000 0.490997 0.733754
0.000000 0.491033 0.733720
0.000000 0.491036 0.733699
0.000000 0.491037 0.733651
0.000000 0.479491 0.730513
0.651312 0.671572 0.823912
0.899556 0.610454 0.817443
0.928568 0.573185 0.810020
0.978109 0.792571 0.880250
0.000012 0.769310 0.834554
0.000014 0.769605 0.834445
0.000557 0.771872 0.833259
0.000948 0.777699 0.833229
0.012692 0.791830 0.832865
0.265584 0.824552 0.835673
0.926366 0.914284 0.866359
0.989273 0.901841 0.857516
0.989993 0.866023 0.858910
0.444700 0.881084 0.883474
0.467800 0.883786 0.884110
0.476405 0.884940 0.884366
0.492978 0.887304 0.884872
0.534192 0.893472 0.886045
0.619022 0.907500 0.887117
0.779231 0.932128 0.868845
0.992071 0.960466 0.841143
1.000000 0.963008 0.869722
0.782126 0.944314 0.922956
0.785670 0.944882 0.923029
0.787241 0.945137 0.923060
0.790448 0.945649 0.923112
0.799037 0.947031 0.923231
0.818647 0.950135 0.923026
0.862757 0.956815 0.919409
0.973747 0.969985 0.888116
1.000000 0.974194 0.898319
0.000000 0.244032 0.681208
0.000000 0.243925 0.681152
0.000000 0.243925 0.681152
0.000000 0.243888 0.681134
0.000000 0.243704 0.681042
0.001345 0.196397 0.663641
0.800509 0.278581 0.776009
0.928015 0.575423 0.859282
0.977679 0.794078 0.907614
0.000000 0.243803 0.681091
0.000000 0.243803 0.681091
0.000000 0.243792 0.681086
0.000000 0.243681 0.681030
0.000000 0.243572 0.680969
0.004770 0.192586 0.662078
0.801087 0.279230 0.776216
0.928086 0.575627 0.859312
0.977691 0.794130 0.907612
0.000000 0.243803 0.681091
0.000000 0.243681 0.681030
0.000000 0.243681 0.681030
0.000000 0.243646 0.681010
0.000000 0.243468 0.680917
0.006335 0.190899 0.661378
0.801354 0.279502 0.776293
0.928119 0.575743 0.859343
0.977705 0.794208 0.907624
0.000000 0.243601 0.680985
0.000000 0.243572 0.680969
0.000000 0.243541 0.680954
0.000000 0.243481 0.680924
0.000000 0.243307 0.680837
0.009693 0.187081 0.659823
0.801919 0.280151 0.776494
0.928175 0.575889 0.859360
0.977717 0.794256 0.907622
0.000000 0.243180 0.680774
0.000000 0.243091 0.680727
0.000000 0.243091 0.680727
0.000000 0.243054 0.680708
0.000000 0.242857 0.680605
0.026478 0.175542 0.655962
0.803304 0.281825 0.777007
0.928351 0.576431 0.859457
0.977733 0.794377 0.907623
0.000000 0.248821 0.683029
0.000000 0.248721 0.682976
0.000000 0.248729 0.682979
0.000000 0.248641 0.682934
0.000000 0.248547 0.682882
0.013860 0.192130 0.669197
0.807484 0.290921 0.779570
0.928779 0.578281 0.859648
0.977860 0.795131 0.907633
0.000000 0.581033 0.803573
0.000000 0.581045 0.803569
0.000000 0.581045 0.803569
0.000000 0.581048 0.803565
0.000000 0.581050 0.803554
0.000000 0.577479 0.802348
0.869219 0.874934 0.913118
0.975627 0.843126 0.910738
0.981746 0.821124 0.907624
0.481819 0.886037 0.900462
0.482060 0.886083 0.900466
0.482060 0.886083 0.900466
0.482081 0.886157 0.900474
0.504414 0.890378 0.901776
0.579601 0.902495 0.906436
0.714969 0.925756 0.914976
0.983546 0.966630 0.929385
0.999995 0.964765 0.926815
0.774039 0.943650 0.928942
0.777220 0.944174 0.929098
0.778614 0.944399 0.929169
0.781606 0.944888 0.929320
0.789559 0.946188 0.929707
0.808197 0.949260 0.930566
0.850259 0.956146 0.931877
0.932082 0.968326 0.928488
1.000000 0.976969 0.923461
0.000000 0.444770 0.769863
0.000000 0.444770 0.769863
0.000000 0.444770 0.769863
0.000000 0.444770 0.769863
0.000000 0.444770 0.769863
0.000000 0.444770 0.769863
0.004223 0.428572 0.767987
0.920004 0.578054 0.872060
0.981247 0.822950 0.921126
0.000000 0.444770 0.769863
0.000000 0.444770 0.769863
0.000000 0.444770 0.769863
0.000000 0.444770 0.769863
0.000000 0.444770 0.769863
0.000000 0.444770 0.769863
0.006208 0.428329 0.767684
0.920135 0.578368 0.872137
0.981247 0.823011 0.921126
0.000000 0.444770 0.769863
0.000000 0.444770 0.769863
0.000000 0.444770 0.769863
0.000000 0.444770 0.769863
0.000000 0.444770 0.769863
0.000000 0.444770 0.769863
0.007059 0.428218 0.767542
0.920176 0.578475 0.872160
0.981262 0.823072 0.921141
0.000000 0.444770 0.769863
0.000000 0.444770 0.769863
0.000000 0.444770 0.769863
0.000000 0.444770 0.769863
0.000000 0.444770 0.769863
0.000000 0.444770 0.769863
0.008982 0.428030 0.767257
0.920291 0.578739 0.872224
0.981262 0.823133 0.921157
0.000000 0.444770 0.769863
0.000000 0.444770 0.769863
0.000000 0.444770 0.769863
0.000000 0.444770 0.769863
0.000000 0.444770 0.769863
0.000000 0.444770 0.769863
0.014139 0.427398 0.766404
0.920588 0.579464 0.872399
0.981292 0.823271 0.921176
0.000000 0.444770 0.769863
0.000000 0.444770 0.769863
0.000000 0.444770 0.769863
0.000000 0.444770 0.769863
0.000000 0.444770 0.769863
0.000000 0.444770 0.769863
0.053753 0.421834 0.765443
0.921338 0.581495 0.872870
0.981349 0.823682 0.921237
0.000000 0.446833 0.770531
0.000000 0.446837 0.770535
0.000000 0.446836 0.770535
0.000000 0.446838 0.770535
0.000000 0.446847 0.770537
0.000000 0.446876 0.770546
0.080163 0.414459 0.770048
0.923663 0.588953 0.874549
0.981538 0.825014 0.921451
0.000000 0.610478 0.824933
0.000000 0.610478 0.824933
0.000000 0.610478 0.824933
0.000000 0.610478 0.824933
0.000000 0.610479 0.824933
0.000000 0.610491 0.824943
0.000000 0.609538 0.824537
0.965535 0.955426 0.940512
0.997272 0.947924 0.939289
0.800900 0.948379 0.934691
0.800900 0.948379 0.934691
0.800900 0.948379 0.934691
0.800900 0.948379 0.934691
0.800900 0.948379 0.934691
0.810919 0.950052 0.935332
0.841947 0.955239 0.937331
0.897776 0.964485 0.940814
0.999969 0.979294 0.945876
