luts/apple-log-2/33x/Apple_LOG_2_to_Fujifilm_3513DI_D60_Rec709_G2-4.cube
TITLE "Apple LOG 2 to Fujifilm 3513DI D60 Rec709 G2-4"
#  
# Apple LOG 2 to Rec.709 Hybrid LUT
#  
# This hybrid LUT converts Apple LOG 2 to Rec.709 Gamma 2.4
#  
# Based on an original creative LUT included in DaVinci Resolve, adapted for a different color space.  
#  
# Created by Tobia Montanari | tobiamontanari.com
#  
# 
LUT_3D_SIZE 9
0.030533 0.036622 0.035416
0.075953 0.046606 0.041221
0.156395 0.056638 0.040416
0.279193 0.060706 0.014005
0.468346 0.008422 0.092423
0.665202 0.063739 0.231418
0.809715 0.267358 0.454561
0.903615 0.531675 0.706630
0.969314 0.789792 0.867933
0.022872 0.061740 0.047678
0.030533 0.048263 0.038485
0.070108 0.061940 0.042640
0.205393 0.089022 0.020531
0.419102 0.122799 0.000000
0.662209 0.122747 0.040273
0.812910 0.280185 0.399250
0.905166 0.537469 0.693622
0.969728 0.791484 0.866543
0.000000 0.129051 0.072420
0.023145 0.105540 0.048318
0.093210 0.121540 0.042616
0.222692 0.145932 0.005218
0.429103 0.162277 0.000000
0.659191 0.180640 0.000495
0.814311 0.284202 0.367639
0.905796 0.539734 0.687558
0.969897 0.792081 0.865611
0.000000 0.232757 0.149639
0.009146 0.203137 0.026491
0.100060 0.207169 0.005759
0.278637 0.256793 0.000260
0.473746 0.274719 0.000000
0.652536 0.256282 0.000000
0.817602 0.291050 0.268364
0.907130 0.544197 0.672849
0.970263 0.793449 0.863703
0.000000 0.413970 0.327023
0.000000 0.388304 0.185195
0.001787 0.388869 0.083877
0.274691 0.421274 0.000236
0.563781 0.482835 0.008984
0.766385 0.479893 0.000000
0.873478 0.435474 0.001195
0.910801 0.552588 0.610380
0.971275 0.797086 0.857835
0.000000 0.628964 0.577277
0.000004 0.636359 0.533123
0.000010 0.637234 0.505256
0.002221 0.631144 0.414834
0.503802 0.663805 0.227871
0.814745 0.719294 0.304252
0.947290 0.705357 0.191616
0.962104 0.690563 0.441855
0.973761 0.803832 0.828676
0.010780 0.790255 0.764876
0.051394 0.795023 0.754756
0.079886 0.797013 0.749950
0.163069 0.801005 0.739502
0.347941 0.808129 0.695120
0.732251 0.838530 0.555904
0.947431 0.880688 0.623584
0.995769 0.884763 0.627645
0.995869 0.890708 0.750056
0.565240 0.887768 0.874088
0.576627 0.889675 0.874011
0.581609 0.890503 0.873921
0.591619 0.892167 0.873701
0.617317 0.896399 0.872477
0.679048 0.904968 0.860466
0.897780 0.930728 0.798756
0.991421 0.953996 0.847840
1.000000 0.955954 0.854099
0.805554 0.941619 0.918624
0.808266 0.942135 0.918791
0.809432 0.942351 0.918868
0.812054 0.942828 0.919020
0.818914 0.944103 0.919387
0.837152 0.947398 0.919918
0.874981 0.953501 0.916779
0.982042 0.970504 0.913939
1.000000 0.975906 0.927413
0.028997 0.037723 0.042269
0.040947 0.039460 0.057126
0.124991 0.047019 0.110385
0.265086 0.032029 0.141026
0.463911 0.000433 0.193440
0.660453 0.033361 0.293185
0.808211 0.262517 0.467325
0.903343 0.530604 0.707444
0.969268 0.789591 0.868147
0.029865 0.041105 0.038702
0.029886 0.040287 0.038032
0.084120 0.051583 0.042629
0.234491 0.065948 0.028040
0.447608 0.040328 0.064482
0.656928 0.092536 0.194777
0.811203 0.276526 0.418004
0.904821 0.536240 0.695224
0.969665 0.791208 0.866758
0.000000 0.116891 0.112082
0.005166 0.096852 0.058456
0.069105 0.100580 0.049739
0.230662 0.121488 0.017111
0.428978 0.112301 0.000199
0.653432 0.127635 0.112047
0.812729 0.281397 0.388156
0.905488 0.538632 0.689323
0.969836 0.791856 0.865904
0.000000 0.240356 0.226062
0.000000 0.211570 0.127868
0.004598 0.198069 0.061115
0.258673 0.245764 0.019062
0.498040 0.270047 0.000079
0.668805 0.232946 0.001774
0.815974 0.288361 0.296677
0.906817 0.543179 0.675035
0.970211 0.793255 0.864012
0.000000 0.415859 0.384882
0.000000 0.402097 0.288626
0.000057 0.393575 0.219257
0.163747 0.406059 0.063768
0.550008 0.475070 0.058463
0.768133 0.475695 0.000878
0.868553 0.423510 0.002946
0.910486 0.551910 0.614473
0.971215 0.796884 0.858199
0.000000 0.624474 0.584071
0.000000 0.633217 0.542710
0.000005 0.634886 0.517217
0.000606 0.630822 0.434914
0.489719 0.660002 0.229969
0.812657 0.716617 0.300765
0.946557 0.702149 0.184161
0.961073 0.686436 0.439636
0.973708 0.803742 0.829574
0.008391 0.789163 0.765383
0.043522 0.793957 0.755242
0.068363 0.795944 0.750348
0.150257 0.800011 0.739913
0.341070 0.807443 0.696433
0.729754 0.837692 0.554345
0.947156 0.880168 0.622202
0.995737 0.884261 0.626441
0.995758 0.890077 0.749570
0.563357 0.887418 0.873966
0.574832 0.889333 0.873890
0.579793 0.890159 0.873818
0.589928 0.891854 0.873623
0.615915 0.896133 0.872423
0.677833 0.904764 0.860583
0.897319 0.930560 0.798338
0.991401 0.953935 0.847628
1.000000 0.955896 0.853906
0.805190 0.941560 0.918608
0.807945 0.942075 0.918774
0.809113 0.942290 0.918850
0.811716 0.942768 0.918993
0.818596 0.944042 0.919371
0.836855 0.947346 0.919918
0.874763 0.953476 0.916831
0.981967 0.970489 0.913911
1.000000 0.975906 0.927413
0.013867 0.038462 0.111694
0.057216 0.032609 0.104608
0.116116 0.048740 0.136341
0.263316 0.026386 0.179016
0.464577 0.000244 0.234083
0.658605 0.020729 0.321308
0.806643 0.256947 0.482835
0.903270 0.530348 0.707329
0.969241 0.789502 0.868254
0.014643 0.054705 0.060732
0.023013 0.039750 0.083025
0.079092 0.050160 0.096255
0.239663 0.062218 0.121600
0.452108 0.024580 0.159676
0.656270 0.073719 0.260916
0.806394 0.273489 0.446893
0.904699 0.535792 0.695962
0.969637 0.791076 0.866851
0.000000 0.110389 0.123017
0.003879 0.095872 0.101513
0.046954 0.096634 0.095940
0.248349 0.104469 0.080480
0.439782 0.056510 0.068405
0.655091 0.094560 0.199941
0.808045 0.280042 0.418519
0.905363 0.538207 0.690137
0.969818 0.791791 0.866053
0.000000 0.239950 0.252838
0.000000 0.219308 0.192587
0.000000 0.205325 0.130148
0.246637 0.240431 0.052389
0.511212 0.255349 0.027958
0.674132 0.197829 0.037639
0.810848 0.289369 0.342917
0.906681 0.542724 0.675943
0.970180 0.793158 0.864143
0.000000 0.416184 0.410133
0.000000 0.409151 0.346695
0.000000 0.404250 0.299033
0.046856 0.398174 0.132024
0.542397 0.472018 0.091553
0.768914 0.474120 0.045502
0.853558 0.412093 0.097130
0.910357 0.551649 0.616416
0.971188 0.796791 0.858364
0.000000 0.619460 0.596786
0.000000 0.628751 0.559046
0.000022 0.631162 0.537194
0.002960 0.630687 0.471199
0.458293 0.656366 0.262191
0.808144 0.715497 0.311521
0.946082 0.701402 0.188335
0.960605 0.684571 0.438657
0.973685 0.803710 0.829973
0.007334 0.788650 0.765584
0.040547 0.793507 0.755437
0.064234 0.795488 0.750548
0.144494 0.799567 0.740106
0.337896 0.807138 0.697031
0.728589 0.837314 0.553656
0.947022 0.879933 0.621593
0.995723 0.884020 0.625887
0.995713 0.889763 0.749331
0.562568 0.887268 0.873931
0.574070 0.889195 0.873854
0.579031 0.890020 0.873781
0.589132 0.891699 0.873574
0.615237 0.895995 0.872378
0.677299 0.904673 0.860629
0.897092 0.930475 0.798130
0.991387 0.953891 0.847479
1.000000 0.955877 0.853837
0.805051 0.941530 0.918593
0.807791 0.942043 0.918763
0.808962 0.942260 0.918837
0.811562 0.942740 0.918989
0.818448 0.944011 0.919367
0.836723 0.947324 0.919918
0.874672 0.953461 0.916852
0.981933 0.970488 0.913894
1.000000 0.975906 0.927413
0.000087 0.009374 0.212896
0.063967 0.000001 0.201748
0.122011 0.002233 0.213591
0.256915 0.022255 0.242356
0.465209 0.000082 0.296957
0.660403 0.022966 0.372768
0.804914 0.250418 0.511415
0.902488 0.527403 0.713167
0.969162 0.789193 0.868540
0.000000 0.062976 0.194067
0.003663 0.014976 0.191850
0.078204 0.015457 0.197763
0.239491 0.044337 0.225809
0.457794 0.011119 0.268723
0.658191 0.067197 0.345612
0.803358 0.262338 0.491490
0.903343 0.534059 0.700411
0.969588 0.790909 0.867058
0.000000 0.126292 0.217512
0.000072 0.089048 0.216754
0.005970 0.059361 0.211205
0.222110 0.074617 0.216419
0.449172 0.037882 0.232832
0.657790 0.087223 0.312206
0.804869 0.270070 0.471772
0.904090 0.536567 0.694351
0.969772 0.791623 0.866365
0.000000 0.232414 0.292356
0.000000 0.223818 0.278826
0.000000 0.218590 0.270120
0.209350 0.253611 0.265784
0.519297 0.234374 0.229945
0.666172 0.145235 0.225301
0.807640 0.281850 0.425203
0.905584 0.541358 0.681101
0.970123 0.792939 0.864424
0.000000 0.418625 0.454341
0.000000 0.417405 0.422074
0.000000 0.416979 0.398481
0.000106 0.414810 0.313144
0.530981 0.474922 0.185582
0.763800 0.466902 0.220677
0.842993 0.393602 0.261239
0.909615 0.551158 0.625868
0.971138 0.796609 0.858685
0.000000 0.614229 0.624572
0.000000 0.626666 0.598982
0.000000 0.631058 0.584869
0.000690 0.636653 0.543841
0.331159 0.650890 0.339676
0.799449 0.715082 0.345249
0.934709 0.709401 0.321416
0.959578 0.680700 0.437170
0.973637 0.803627 0.830830
0.034328 0.785634 0.767172
0.069569 0.790860 0.757886
0.091850 0.793011 0.753408
0.149824 0.797211 0.743084
0.316103 0.805498 0.702490
0.722272 0.836227 0.555480
0.946739 0.879464 0.620408
0.995688 0.883536 0.624712
0.995612 0.889155 0.748859
0.560800 0.886941 0.873827
0.572413 0.888885 0.873749
0.577345 0.889705 0.873697
0.587555 0.891402 0.873487
0.613873 0.895730 0.872318
0.676181 0.904487 0.860736
0.896656 0.930319 0.797757
0.991365 0.953839 0.847262
1.000000 0.955827 0.853667
0.804715 0.941470 0.918578
0.807462 0.941981 0.918745
0.808663 0.942203 0.918819
0.811230 0.942676 0.918971
0.818132 0.943957 0.919355
0.836448 0.947276 0.919908
0.874469 0.953435 0.916897
0.981879 0.970472 0.913878
1.000000 0.975906 0.927413
0.000000 0.000000 0.360476
0.003749 0.000000 0.336793
0.070903 0.000000 0.332103
0.242292 0.000000 0.355494
0.460139 0.000778 0.401263
0.662648 0.029756 0.465113
0.807052 0.257164 0.572168
0.900988 0.521674 0.735150
0.969058 0.788793 0.868961
0.000000 0.000818 0.360823
0.002154 0.000000 0.336230
0.056254 0.000000 0.330119
0.239924 0.000001 0.355086
0.460774 0.001334 0.398662
0.663117 0.039828 0.460222
0.807324 0.261351 0.567986
0.901186 0.524807 0.730628
0.969378 0.790065 0.867857
0.000000 0.037226 0.361112
0.000000 0.005428 0.356391
0.000733 0.000006 0.331003
0.201333 0.000094 0.356482
0.450149 0.008946 0.393203
0.660327 0.070945 0.451126
0.805814 0.270335 0.559755
0.901326 0.528628 0.723340
0.969561 0.790801 0.867212
0.000000 0.235606 0.436904
0.000000 0.220721 0.435227
0.000000 0.199190 0.432439
0.060897 0.192515 0.436199
0.472882 0.166762 0.423395
0.660606 0.109584 0.423867
0.808483 0.285017 0.538232
0.902565 0.533641 0.714228
0.969937 0.792271 0.865502
0.000000 0.418021 0.525818
0.000000 0.422044 0.524608
0.000000 0.423288 0.522708
0.000000 0.428306 0.516763
0.480848 0.498559 0.503509
0.756501 0.448944 0.467521
0.827686 0.360106 0.469311
0.905831 0.545445 0.681418
0.970966 0.796009 0.859818
0.000000 0.617160 0.678076
0.000000 0.630208 0.663917
0.000000 0.635756 0.657968
0.000004 0.645858 0.641812
0.071432 0.662516 0.553151
0.787170 0.725512 0.443038
0.926436 0.723917 0.511606
0.945162 0.672533 0.564928
0.973502 0.803397 0.833261
0.034329 0.776935 0.784870
0.061155 0.783178 0.778611
0.074425 0.785767 0.775620
0.107037 0.790879 0.768820
0.225199 0.802268 0.743975
0.641486 0.829840 0.602862
0.940247 0.877911 0.635590
0.992062 0.883520 0.654267
0.995337 0.887469 0.747559
0.554342 0.885797 0.873256
0.566419 0.887785 0.873209
0.571585 0.888650 0.873176
0.582198 0.890411 0.873033
0.609507 0.894898 0.872030
0.672946 0.903950 0.861055
0.895085 0.929829 0.796750
0.991298 0.953661 0.846610
1.000000 0.955679 0.853168
0.803803 0.941299 0.918517
0.806596 0.941818 0.918689
0.807816 0.942046 0.918764
0.810337 0.942518 0.918917
0.817300 0.943809 0.919310
0.835672 0.947134 0.919902
0.873897 0.953357 0.917036
0.981707 0.970429 0.913802
1.000000 0.975906 0.927413
0.000000 0.000035 0.498539
0.000000 0.000035 0.498303
0.000000 0.000035 0.497689
0.029285 0.000000 0.459610
0.413007 0.000000 0.506879
0.659556 0.051020 0.577347
0.811344 0.272907 0.657742
0.903181 0.531380 0.777047
0.968055 0.785687 0.878226
0.000000 0.000035 0.497868
0.000000 0.000035 0.497651
0.000000 0.000033 0.495078
0.047827 0.000000 0.456204
0.420042 0.000000 0.507741
0.661129 0.051463 0.577252
0.811671 0.273516 0.657577
0.903245 0.531589 0.776923
0.968051 0.785657 0.878148
0.000000 0.000035 0.497580
0.000000 0.000035 0.497346
0.000000 0.000029 0.493104
0.057992 0.000000 0.455151
0.423152 0.000000 0.508151
0.661835 0.051663 0.577234
0.811811 0.273774 0.657504
0.903280 0.531708 0.776872
0.968098 0.785848 0.877992
0.000000 0.018260 0.509162
0.000000 0.018424 0.508979
0.000000 0.012133 0.506895
0.005474 0.000000 0.468442
0.410494 0.000513 0.518673
0.659270 0.082022 0.575993
0.810019 0.282067 0.653673
0.903485 0.537780 0.769852
0.968436 0.787238 0.876958
0.000000 0.404764 0.645976
0.000000 0.404745 0.645780
0.000000 0.399751 0.643937
0.000000 0.380897 0.637763
0.330349 0.419171 0.655446
0.712417 0.359973 0.640898
0.815569 0.318054 0.638888
0.906814 0.552200 0.759675
0.969349 0.790955 0.873706
0.000000 0.628130 0.744964
0.000000 0.633487 0.740710
0.000000 0.637846 0.739760
0.000000 0.647339 0.738851
0.001251 0.668138 0.732010
0.741960 0.754485 0.734706
0.915144 0.717048 0.719623
0.930340 0.644146 0.728591
0.971858 0.800252 0.860284
0.021415 0.775615 0.815813
0.040822 0.782109 0.813137
0.051698 0.784823 0.811935
0.076034 0.790241 0.809196
0.156564 0.803414 0.801000
0.460936 0.832336 0.759278
0.933418 0.889448 0.711687
0.988032 0.900254 0.774114
0.992048 0.888712 0.806791
0.488374 0.876549 0.872483
0.504144 0.878816 0.872805
0.510683 0.879782 0.872930
0.524368 0.881805 0.873128
0.558641 0.886988 0.873315
0.635249 0.898793 0.870016
0.850500 0.924593 0.812821
0.989268 0.952566 0.846702
1.000000 0.957099 0.862657
0.801320 0.940841 0.918364
0.804137 0.941361 0.918534
0.805389 0.941598 0.918617
0.807970 0.942076 0.918776
0.815015 0.943378 0.919179
0.833514 0.946746 0.919875
0.872310 0.953136 0.917370
0.981139 0.970302 0.913588
1.000000 0.975906 0.927413
0.000000 0.061770 0.603477
0.000000 0.061496 0.603400
0.000000 0.061441 0.603377
0.000000 0.061206 0.603302
0.012358 0.002945 0.582356
0.610399 0.005748 0.650325
0.815079 0.312079 0.735546
0.906563 0.549163 0.820272
0.969521 0.795219 0.895889
0.000000 0.061153 0.603282
0.000000 0.060874 0.603199
0.000000 0.060830 0.603186
0.000000 0.060625 0.603120
0.020370 0.001665 0.582141
0.612953 0.006046 0.650825
0.815395 0.312519 0.735622
0.906635 0.549387 0.820288
0.969521 0.795188 0.895855
0.000000 0.060830 0.603186
0.000000 0.060635 0.603123
0.000000 0.060515 0.603079
0.000000 0.060327 0.603023
0.023478 0.001149 0.581664
0.614106 0.006175 0.651046
0.815554 0.312742 0.735670
0.906668 0.549495 0.820293
0.969521 0.795175 0.895838
0.000000 0.060243 0.603001
0.000000 0.060034 0.602928
0.000000 0.059984 0.602911
0.000000 0.059717 0.602831
0.028884 0.001644 0.580156
0.616328 0.006212 0.651466
0.815867 0.313183 0.735758
0.906741 0.549741 0.820319
0.969516 0.795156 0.895798
0.000000 0.104766 0.612772
0.000000 0.104944 0.612793
0.000000 0.105016 0.612787
0.000000 0.105208 0.612810
0.011458 0.005005 0.579219
0.618883 0.028362 0.655096
0.815893 0.316489 0.735811
0.907221 0.553571 0.819199
0.969761 0.796276 0.895533
0.000000 0.563882 0.778156
0.000000 0.563906 0.778147
0.000000 0.563914 0.778137
0.000000 0.563907 0.778109
0.000000 0.548618 0.770537
0.623880 0.683830 0.818120
0.882163 0.626369 0.817018
0.915087 0.590453 0.816883
0.972018 0.806719 0.893135
0.000000 0.783412 0.847090
0.000025 0.783642 0.846952
0.024020 0.784333 0.844870
0.058894 0.788399 0.843398
0.114620 0.799780 0.842945
0.303593 0.826226 0.844858
0.913266 0.911577 0.880866
0.983219 0.902635 0.881885
0.984919 0.873823 0.887209
0.455623 0.873572 0.879924
0.472328 0.875839 0.880631
0.479091 0.876817 0.880948
0.492679 0.878821 0.881600
0.527737 0.884086 0.883268
0.604526 0.896573 0.886678
0.758792 0.921814 0.883261
0.987094 0.958073 0.881491
0.999737 0.964561 0.909691
0.773424 0.935985 0.917489
0.777035 0.936651 0.917775
0.778642 0.936953 0.917908
0.781910 0.937553 0.918166
0.790692 0.939180 0.918842
0.810947 0.942972 0.920283
0.856408 0.951270 0.922216
0.972491 0.969907 0.919088
1.000000 0.976226 0.929192
0.000000 0.326460 0.718032
0.000000 0.326365 0.717991
0.000000 0.326365 0.717991
0.000000 0.326334 0.717977
0.000000 0.326172 0.717909
0.001139 0.267333 0.697481
0.782353 0.281562 0.763183
0.914625 0.591141 0.854977
0.972262 0.811000 0.911645
0.000000 0.326258 0.717944
0.000000 0.326258 0.717944
0.000000 0.326249 0.717939
0.000000 0.326151 0.717900
0.000000 0.326044 0.717853
0.004329 0.263751 0.695933
0.782991 0.282304 0.763408
0.914698 0.591371 0.855031
0.972275 0.811052 0.911656
0.000000 0.326258 0.717944
0.000000 0.326151 0.717900
0.000000 0.326151 0.717900
0.000000 0.326114 0.717883
0.000000 0.325953 0.717812
0.005784 0.262152 0.695237
0.783284 0.282630 0.763502
0.914733 0.591490 0.855064
0.972288 0.811117 0.911669
0.000000 0.326071 0.717864
0.000000 0.326044 0.717853
0.000000 0.326017 0.717840
0.000000 0.325965 0.717817
0.000000 0.325809 0.717751
0.008912 0.258515 0.693680
0.783913 0.283372 0.763725
0.914800 0.591663 0.855095
0.972300 0.811166 0.911668
0.000000 0.325697 0.717701
0.000000 0.325613 0.717659
0.000000 0.325613 0.717659
0.000000 0.325580 0.717642
0.000000 0.325391 0.717565
0.025697 0.246051 0.689018
0.785434 0.285306 0.764310
0.915000 0.592237 0.855230
0.972329 0.811287 0.911673
0.000000 0.331021 0.719521
0.000000 0.330926 0.719483
0.000000 0.330933 0.719486
0.000000 0.330860 0.719451
0.000000 0.330776 0.719418
0.015621 0.224224 0.688184
0.789394 0.295041 0.766925
0.915389 0.594199 0.855324
0.972468 0.812008 0.911742
0.000000 0.625074 0.819786
0.000000 0.625074 0.819786
0.000000 0.625074 0.819786
0.000000 0.625075 0.819786
0.000000 0.625076 0.819773
0.000000 0.620214 0.817773
0.850816 0.877013 0.907146
0.970140 0.853148 0.912115
0.976793 0.836287 0.913316
0.494509 0.878286 0.889655
0.494718 0.878316 0.889659
0.494718 0.878316 0.889659
0.494941 0.878408 0.889692
0.500848 0.881263 0.890585
0.568171 0.892019 0.895446
0.697010 0.914807 0.906033
0.981788 0.965145 0.932917
0.998660 0.966185 0.935525
0.766185 0.935364 0.919664
0.769424 0.935969 0.919958
0.770839 0.936240 0.920083
0.773891 0.936805 0.920368
0.782008 0.938325 0.921099
0.801198 0.941970 0.922860
0.844830 0.950285 0.926655
0.931699 0.965718 0.932004
1.000000 0.977932 0.938329
0.000000 0.510185 0.787442
0.000000 0.510185 0.787442
0.000000 0.510185 0.787442
0.000000 0.510185 0.787442
0.000000 0.510185 0.787442
0.000000 0.510185 0.787442
0.005089 0.480128 0.781304
0.898960 0.560366 0.857078
0.976425 0.834943 0.921920
0.000000 0.510185 0.787442
0.000000 0.510185 0.787442
0.000000 0.510185 0.787442
0.000000 0.510185 0.787442
0.000000 0.510185 0.787442
0.000000 0.510185 0.787442
0.007479 0.479459 0.780807
0.899110 0.560727 0.857169
0.976425 0.835004 0.921935
0.000000 0.510185 0.787442
0.000000 0.510185 0.787442
0.000000 0.510185 0.787442
0.000000 0.510185 0.787442
0.000000 0.510185 0.787442
0.000000 0.510185 0.787442
0.008508 0.479158 0.780589
0.899157 0.560866 0.857209
0.976440 0.835065 0.921950
0.000000 0.510185 0.787442
0.000000 0.510185 0.787442
0.000000 0.510185 0.787442
0.000000 0.510185 0.787442
0.000000 0.510185 0.787442
0.000000 0.510185 0.787442
0.010827 0.478555 0.780113
0.899284 0.561184 0.857290
0.976455 0.835126 0.921950
0.000000 0.510185 0.787442
0.000000 0.510185 0.787442
0.000000 0.510185 0.787442
0.000000 0.510185 0.787442
0.000000 0.510185 0.787442
0.000000 0.510185 0.787442
0.017040 0.476716 0.778757
0.899630 0.562052 0.857524
0.976475 0.835263 0.921981
0.000000 0.510185 0.787442
0.000000 0.510185 0.787442
0.000000 0.510185 0.787442
0.000000 0.510185 0.787442
0.000000 0.510185 0.787442
0.000000 0.510185 0.787442
0.054921 0.468096 0.776797
0.900524 0.564481 0.858167
0.976547 0.835676 0.922046
0.000000 0.512542 0.788209
0.000000 0.512545 0.788209
0.000000 0.512548 0.788209
0.000000 0.512549 0.788212
0.000000 0.512562 0.788217
0.000000 0.512599 0.788232
0.078557 0.437520 0.772971
0.903455 0.573539 0.860495
0.976782 0.836995 0.922262
0.000000 0.634806 0.826776
0.000000 0.634818 0.826776
0.000000 0.634818 0.826776
0.000000 0.634818 0.826776
0.000000 0.634818 0.826776
0.000000 0.634818 0.826776
0.000000 0.634717 0.826848
0.966254 0.958178 0.938252
0.996309 0.953872 0.940859
0.795224 0.941146 0.924041
0.795224 0.941146 0.924041
0.795224 0.941146 0.924041
0.795224 0.941146 0.924041
0.795224 0.941146 0.924041
0.805536 0.943129 0.925086
0.837601 0.949318 0.928316
0.897222 0.960642 0.934373
0.999969 0.979324 0.945891
