luts/apple-log-2/33x/Apple_LOG_2_to_Kodak_2383_D55_Rec709_G2-4.cube
TITLE "Apple LOG 2 to Kodak 2383 D55 Rec709 G2-4"
#  
# Apple LOG 2 to Rec.709 Hybrid LUT
#  
# This hybrid LUT converts Apple LOG 2 to Rec.709 Gamma 2.4
#  
# Based on an original creative LUT included in DaVinci Resolve, adapted for a different color space.  
#  
# Created by Tobia Montanari | tobiamontanari.com
#  
#  
# 
LUT_3D_SIZE 5
0.031342 0.037629 0.042359
0.161616 0.059077 0.045431
0.465774 0.008564 0.083889
0.801347 0.237234 0.409765
0.972152 0.759136 0.789715
0.000000 0.101721 0.075702
0.104213 0.103516 0.053260
0.459925 0.144052 0.000000
0.805307 0.255604 0.329420
0.972805 0.761840 0.785870
0.000000 0.365270 0.258341
0.001738 0.363001 0.082062
0.573228 0.474690 0.000392
0.883749 0.433354 0.000003
0.974480 0.768018 0.773902
0.005851 0.754591 0.661117
0.052496 0.762990 0.644113
0.339372 0.777678 0.582324
0.961043 0.867842 0.502545
0.999582 0.867621 0.614966
0.819440 0.925322 0.861295
0.823087 0.925890 0.861155
0.831957 0.927268 0.860682
0.884792 0.933991 0.845420
1.000000 0.949126 0.835294
0.019710 0.040801 0.093728
0.119054 0.055498 0.114198
0.456471 0.001307 0.209604
0.798468 0.226100 0.435681
0.972064 0.758767 0.790239
0.000015 0.087166 0.104445
0.065877 0.079601 0.084823
0.435398 0.040770 0.065207
0.802426 0.247850 0.379656
0.972714 0.761489 0.786554
0.000000 0.360076 0.329198
0.000000 0.359603 0.236158
0.545987 0.455221 0.038963
0.861832 0.399317 0.052644
0.974372 0.767644 0.774714
0.003549 0.752578 0.661735
0.038437 0.761102 0.644760
0.328474 0.776388 0.584409
0.960734 0.867206 0.500683
0.999541 0.866766 0.614453
0.818967 0.925258 0.861326
0.822635 0.925826 0.861170
0.831523 0.927202 0.860715
0.884498 0.933966 0.845636
1.000000 0.949126 0.835294
0.000000 0.000000 0.281011
0.094094 0.000000 0.278864
0.453215 0.000687 0.361337
0.800708 0.225729 0.519933
0.971858 0.757920 0.791432
0.000000 0.029206 0.275815
0.002079 0.000833 0.273881
0.441385 0.007254 0.351795
0.802852 0.238740 0.507683
0.972418 0.760293 0.788434
0.000000 0.366681 0.439761
0.000000 0.372447 0.436751
0.480885 0.465101 0.445879
0.829671 0.331792 0.422214
0.974090 0.766649 0.776937
0.004458 0.741487 0.690427
0.026077 0.752223 0.679206
0.200353 0.772843 0.641691
0.957003 0.867618 0.520153
0.999448 0.864677 0.613197
0.817808 0.925075 0.861368
0.821565 0.925656 0.861216
0.830446 0.927039 0.860784
0.883757 0.933916 0.846175
1.000000 0.949126 0.835294
0.000000 0.008553 0.522437
0.000000 0.008498 0.522340
0.020908 0.001616 0.516592
0.815362 0.280866 0.691919
0.971202 0.759885 0.829748
0.000000 0.008402 0.522150
0.000000 0.008342 0.522053
0.031624 0.004418 0.516673
0.815811 0.281498 0.691989
0.971199 0.759864 0.829685
0.000000 0.028793 0.527934
0.000000 0.028900 0.527902
0.030058 0.007035 0.516793
0.816893 0.285228 0.692126
0.971433 0.761084 0.829118
0.000000 0.749842 0.779779
0.008688 0.752318 0.778541
0.062415 0.771782 0.778323
0.926534 0.891223 0.810318
0.986900 0.844066 0.803503
0.789130 0.920791 0.863974
0.794036 0.921578 0.864048
0.805350 0.923400 0.864174
0.866775 0.932847 0.860316
1.000000 0.949645 0.839925
0.000000 0.437644 0.722377
0.000000 0.437644 0.722377
0.000000 0.437644 0.722377
0.006188 0.423637 0.721443
0.977646 0.802213 0.862745
0.000000 0.437644 0.722377
0.000000 0.437644 0.722377
0.000000 0.437644 0.722377
0.010344 0.423131 0.721050
0.977661 0.802335 0.862760
0.000000 0.437644 0.722377
0.000000 0.437644 0.722377
0.000000 0.437644 0.722377
0.020717 0.421795 0.720013
0.977695 0.802517 0.862791
0.000000 0.439577 0.722967
0.000000 0.439580 0.722970
0.000000 0.439592 0.722973
0.081259 0.408517 0.723779
0.977989 0.804225 0.863034
0.807218 0.924743 0.875013
0.807218 0.924743 0.875013
0.807218 0.924743 0.875013
0.846848 0.931389 0.877368
1.000000 0.954589 0.884855
