luts/apple-log-2/33x/Apple_LOG_2_to_Fujifilm_3513DI_D60_Rec709_G2-4.cube
TITLE "Apple LOG 2 to Fujifilm 3513DI D60 Rec709 G2-4"
#  
# Apple LOG 2 to Rec.709 Hybrid LUT
#  
# This hybrid LUT converts Apple LOG 2 to Rec.709 Gamma 2.4
#  
# Based on an original creative LUT included in DaVinci Resolve, adapted for a different color space.  
#  
# Created by Tobia Montanari | tobiamontanari.com
#  
# 
LUT_3D_SIZE 5
0.030533 0.036622 0.035416
0.156395 0.056638 0.040416
0.468346 0.008422 0.092423
0.809715 0.267358 0.454561
0.969314 0.789792 0.867933
0.000000 0.129051 0.072420
0.093210 0.121540 0.042616
0.429103 0.162277 0.000000
0.814311 0.284202 0.367639
0.969897 0.792081 0.865611
0.000000 0.413970 0.327023
0.001787 0.388869 0.083877
0.563781 0.482835 0.008984
0.873478 0.435474 0.001195
0.971275 0.797086 0.857835
0.010780 0.790255 0.764876
0.079886 0.797013 0.749950
0.347941 0.808129 0.695120
0.947431 0.880688 0.623584
0.995869 0.890708 0.750056
0.805554 0.941619 0.918624
0.809432 0.942351 0.918868
0.818914 0.944103 0.919387
0.874981 0.953501 0.916779
1.000000 0.975906 0.927413
0.013867 0.038462 0.111694
0.116116 0.048740 0.136341
0.464577 0.000244 0.234083
0.806643 0.256947 0.482835
0.969241 0.789502 0.868254
0.000000 0.110389 0.123017
0.046954 0.096634 0.095940
0.439782 0.056510 0.068405
0.808045 0.280042 0.418519
0.969818 0.791791 0.866053
0.000000 0.416184 0.410133
0.000000 0.404250 0.299033
0.542397 0.472018 0.091553
0.853558 0.412093 0.097130
0.971188 0.796791 0.858364
0.007334 0.788650 0.765584
0.064234 0.795488 0.750548
0.337896 0.807138 0.697031
0.947022 0.879933 0.621593
0.995713 0.889763 0.749331
0.805051 0.941530 0.918593
0.808962 0.942260 0.918837
0.818448 0.944011 0.919367
0.874672 0.953461 0.916852
1.000000 0.975906 0.927413
0.000000 0.000000 0.360476
0.070903 0.000000 0.332103
0.460139 0.000778 0.401263
0.807052 0.257164 0.572168
0.969058 0.788793 0.868961
0.000000 0.037226 0.361112
0.000733 0.000006 0.331003
0.450149 0.008946 0.393203
0.805814 0.270335 0.559755
0.969561 0.790801 0.867212
0.000000 0.418021 0.525818
0.000000 0.423288 0.522708
0.480848 0.498559 0.503509
0.827686 0.360106 0.469311
0.970966 0.796009 0.859818
0.034329 0.776935 0.784870
0.074425 0.785767 0.775620
0.225199 0.802268 0.743975
0.940247 0.877911 0.635590
0.995337 0.887469 0.747559
0.803803 0.941299 0.918517
0.807816 0.942046 0.918764
0.817300 0.943809 0.919310
0.873897 0.953357 0.917036
1.000000 0.975906 0.927413
0.000000 0.061770 0.603477
0.000000 0.061441 0.603377
0.012358 0.002945 0.582356
0.815079 0.312079 0.735546
0.969521 0.795219 0.895889
0.000000 0.060830 0.603186
0.000000 0.060515 0.603079
0.023478 0.001149 0.581664
0.815554 0.312742 0.735670
0.969521 0.795175 0.895838
0.000000 0.104766 0.612772
0.000000 0.105016 0.612787
0.011458 0.005005 0.579219
0.815893 0.316489 0.735811
0.969761 0.796276 0.895533
0.000000 0.783412 0.847090
0.024020 0.784333 0.844870
0.114620 0.799780 0.842945
0.913266 0.911577 0.880866
0.984919 0.873823 0.887209
0.773424 0.935985 0.917489
0.778642 0.936953 0.917908
0.790692 0.939180 0.918842
0.856408 0.951270 0.922216
1.000000 0.976226 0.929192
0.000000 0.510185 0.787442
0.000000 0.510185 0.787442
0.000000 0.510185 0.787442
0.005089 0.480128 0.781304
0.976425 0.834943 0.921920
0.000000 0.510185 0.787442
0.000000 0.510185 0.787442
0.000000 0.510185 0.787442
0.008508 0.479158 0.780589
0.976440 0.835065 0.921950
0.000000 0.510185 0.787442
0.000000 0.510185 0.787442
0.000000 0.510185 0.787442
0.017040 0.476716 0.778757
0.976475 0.835263 0.921981
0.000000 0.512542 0.788209
0.000000 0.512548 0.788209
0.000000 0.512562 0.788217
0.078557 0.437520 0.772971
0.976782 0.836995 0.922262
0.795224 0.941146 0.924041
0.795224 0.941146 0.924041
0.795224 0.941146 0.924041
0.837601 0.949318 0.928316
0.999969 0.979324 0.945891
