luts/apple-log-2/33x/Apple_LOG_2_to_Kodak_2383_D65_Rec709_G2-4.cube
TITLE "Apple LOG 2 to Kodak 2383 D65 Rec709 G2-4"
#  
# Apple LOG 2 to Rec.709 Hybrid LUT
#  
# This hybrid LUT converts Apple LOG 2 to Rec.709 Gamma 2.4
#  
# Based on an original creative LUT included in DaVinci Resolve, adapted for a different color space.  
#  
# Created by Tobia Montanari | tobiamontanari.com
#  
#  
# 
LUT_3D_SIZE 33
0.030106 0.038559 0.046921
0.030136 0.038567 0.046927
0.038276 0.040865 0.048562
0.069009 0.047252 0.051359
0.090852 0.052747 0.052545
0.107786 0.056348 0.053343
0.125354 0.058497 0.053970
0.144448 0.060243 0.053760
0.165257 0.062129 0.053236
0.188083 0.064278 0.052478
0.213745 0.066836 0.051315
0.243371 0.069232 0.050770
0.279058 0.069648 0.051012
0.321788 0.066157 0.054242
0.370799 0.055402 0.065644
0.423624 0.035868 0.082049
0.476841 0.016540 0.102363
0.528508 0.010207 0.125360
0.579717 0.013279 0.154880
0.628735 0.024357 0.193049
0.673885 0.046380 0.238842
0.714611 0.083973 0.289900
0.752273 0.133027 0.344869
0.787152 0.189127 0.402476
0.820171 0.252262 0.463290
0.851042 0.316838 0.527052
0.879149 0.383965 0.590694
0.904458 0.455627 0.651712
0.926892 0.532584 0.711454
0.946244 0.612030 0.768279
0.962638 0.686607 0.818755
0.974147 0.747767 0.860451
0.981094 0.795453 0.891340
0.030106 0.038559 0.046921
0.030106 0.038559 0.046921
0.030132 0.038569 0.046915
0.036444 0.041331 0.045057
0.051030 0.046590 0.042926
0.073253 0.051717 0.041737
0.087813 0.056216 0.041379
0.099946 0.059855 0.041129
0.117903 0.063067 0.039729
0.144108 0.066168 0.037268
0.176203 0.069627 0.033328
0.210352 0.073604 0.023308
0.249046 0.077632 0.006502
0.296238 0.081470 0.000917
0.352740 0.083171 0.000262
0.414564 0.080650 0.000164
0.473111 0.072562 0.000551
0.525660 0.056634 0.008077
0.574661 0.036443 0.050526
0.624963 0.042571 0.111681
0.672402 0.067791 0.167215
0.715144 0.101585 0.232614
0.753572 0.146162 0.301124
0.788802 0.199765 0.368784
0.821834 0.260505 0.436691
0.852765 0.323142 0.506482
0.880685 0.388927 0.575589
0.905658 0.459858 0.640731
0.927817 0.536169 0.703282
0.946954 0.614818 0.762782
0.963097 0.688457 0.815613
0.974466 0.749094 0.858524
0.981293 0.796478 0.890019
0.030106 0.038559 0.046921
0.030106 0.038559 0.046921
0.030106 0.038559 0.046921
0.031621 0.039380 0.046017
0.038807 0.044081 0.042363
0.053833 0.049161 0.042471
0.073578 0.053602 0.042576
0.087096 0.057629 0.042430
0.101135 0.061966 0.042250
0.124108 0.066147 0.040332
0.157806 0.070529 0.037051
0.196077 0.075689 0.030839
0.236925 0.080931 0.012635
0.284957 0.086189 0.001354
0.341780 0.090912 0.000027
0.403965 0.095818 0.000000
0.467658 0.099101 0.000000
0.527251 0.095872 0.000000
0.578627 0.081980 0.007395
0.624536 0.058856 0.057649
0.671256 0.073320 0.130399
0.715079 0.107101 0.202929
0.753924 0.150465 0.279437
0.789346 0.203445 0.353405
0.822422 0.263210 0.425262
0.853373 0.325291 0.497952
0.881258 0.390720 0.569501
0.906091 0.461367 0.636473
0.928145 0.537437 0.700076
0.947250 0.615970 0.760644
0.963292 0.689260 0.814157
0.974590 0.749563 0.857565
0.981397 0.796956 0.889511
0.029202 0.043059 0.050034
0.030281 0.039647 0.047272
0.030260 0.038943 0.047026
0.030271 0.038799 0.046932
0.035626 0.042339 0.042643
0.042111 0.047158 0.042497
0.058725 0.051442 0.043299
0.075921 0.055449 0.043285
0.090984 0.060220 0.043284
0.110189 0.065874 0.042588
0.142034 0.071481 0.039619
0.183459 0.077143 0.034596
0.226847 0.083010 0.019528
0.276189 0.089648 0.002541
0.334877 0.096993 0.000096
0.399401 0.103805 0.000000
0.462798 0.110281 0.000000
0.523322 0.113976 0.000000
0.581303 0.109393 0.000420
0.628556 0.090071 0.019885
0.670700 0.079189 0.093721
0.714702 0.110488 0.176857
0.754036 0.153355 0.260454
0.789669 0.205929 0.340184
0.822880 0.265309 0.415886
0.853818 0.326878 0.490908
0.881652 0.391951 0.564616
0.906432 0.462476 0.633046
0.928426 0.538499 0.697642
0.947424 0.616627 0.758848
0.963455 0.689895 0.813056
0.974684 0.749978 0.856810
0.981446 0.797234 0.889085
0.023110 0.055154 0.059132
0.034402 0.049653 0.051277
0.036209 0.048219 0.050042
0.036236 0.047180 0.049210
0.037261 0.047958 0.050001
0.042311 0.050044 0.044750
0.053866 0.053544 0.044834
0.069775 0.057181 0.044797
0.085529 0.061613 0.044571
0.101999 0.066864 0.044196
0.129956 0.072499 0.041784
0.171889 0.078453 0.036956
0.217708 0.085275 0.025102
0.268388 0.093574 0.004890
0.328340 0.102178 0.000159
0.394958 0.109772 0.000000
0.460804 0.116794 0.000000
0.520509 0.122793 0.000000
0.579882 0.124121 0.000000
0.632810 0.115259 0.005140
0.672738 0.093515 0.058785
0.714291 0.113041 0.152026
0.754087 0.155651 0.242385
0.789940 0.207993 0.328020
0.823241 0.266871 0.407380
0.854199 0.328164 0.484739
0.882034 0.393097 0.560334
0.906733 0.463514 0.630148
0.928666 0.539379 0.695506
0.947597 0.617277 0.757286
0.963581 0.690384 0.812036
0.974770 0.750344 0.856209
0.981508 0.797541 0.888716
0.004984 0.071298 0.065584
0.031428 0.063035 0.055020
0.037051 0.060136 0.053340
0.040221 0.057912 0.052089
0.043181 0.057474 0.052008
0.049360 0.060988 0.054910
0.060979 0.064124 0.049056
0.074632 0.068172 0.047534
0.088985 0.073363 0.047251
0.105706 0.079345 0.046351
0.133080 0.085100 0.043880
0.172881 0.090273 0.038242
0.216661 0.094935 0.027629
0.264158 0.099643 0.006728
0.322623 0.106403 0.000349
0.390686 0.114486 0.000000
0.459000 0.121891 0.000000
0.520104 0.128379 0.000000
0.577165 0.132958 0.000000
0.634651 0.130076 0.000686
0.676200 0.110509 0.031517
0.714251 0.116954 0.127236
0.754021 0.157477 0.224801
0.790108 0.209629 0.316440
0.823547 0.268197 0.399592
0.854543 0.329336 0.479136
0.882340 0.394001 0.556333
0.906984 0.464321 0.627470
0.928858 0.540095 0.693572
0.947766 0.617925 0.755955
0.963688 0.690733 0.811153
0.974837 0.750613 0.855668
0.981565 0.797756 0.888332
0.000449 0.084243 0.072105
0.015982 0.076439 0.058338
0.028793 0.073981 0.055929
0.039119 0.071863 0.054366
0.044999 0.070197 0.053522
0.057273 0.073708 0.055611
0.069567 0.078005 0.058181
0.079807 0.080707 0.051815
0.092224 0.085130 0.049465
0.109316 0.091269 0.048386
0.137458 0.097407 0.045638
0.177836 0.103211 0.039445
0.222850 0.108734 0.027507
0.271043 0.114146 0.006625
0.326303 0.118036 0.000389
0.388841 0.120226 0.000000
0.457178 0.126139 0.000000
0.519925 0.133013 0.000000
0.576113 0.138572 0.000000
0.634148 0.140020 0.000041
0.680166 0.127243 0.013093
0.715086 0.123274 0.102235
0.753919 0.159102 0.207585
0.790279 0.211064 0.305175
0.823809 0.269331 0.392025
0.854833 0.330265 0.473805
0.882643 0.394902 0.552681
0.907214 0.465065 0.625004
0.929039 0.540760 0.691856
0.947934 0.618568 0.754844
0.963779 0.691149 0.810338
0.974923 0.751015 0.855227
0.981600 0.797936 0.887924
0.000005 0.094141 0.078899
0.003664 0.086762 0.061562
0.017549 0.084997 0.058449
0.036476 0.083390 0.056637
0.049540 0.082085 0.055249
0.064082 0.084346 0.055922
0.076960 0.088937 0.058393
0.086958 0.092861 0.059147
0.096984 0.095618 0.053265
0.113082 0.100777 0.050351
0.141769 0.107158 0.047293
0.182339 0.113374 0.040567
0.228078 0.119549 0.027683
0.277390 0.126077 0.006522
0.334055 0.131457 0.000385
0.396265 0.133639 0.000000
0.458828 0.133570 0.000000
0.519799 0.137342 0.000000
0.576374 0.142956 0.000000
0.632503 0.146759 0.000000
0.683211 0.140413 0.004841
0.716701 0.131071 0.078346
0.753895 0.160949 0.190285
0.790381 0.212274 0.293505
0.824052 0.270389 0.384548
0.855114 0.331161 0.468625
0.882904 0.395627 0.549105
0.907427 0.465715 0.622590
0.929212 0.541382 0.690205
0.948061 0.619060 0.753625
0.963861 0.691399 0.809527
0.974984 0.751220 0.854723
0.981644 0.798075 0.887556
0.000000 0.106345 0.085853
0.000431 0.097394 0.065233
0.009791 0.095916 0.061510
0.031041 0.094683 0.059339
0.053951 0.093815 0.057415
0.069881 0.094642 0.056669
0.083298 0.099399 0.058271
0.094020 0.103780 0.060265
0.104402 0.108338 0.061022
0.118174 0.111020 0.052985
0.146777 0.117194 0.048925
0.187496 0.123948 0.041404
0.233663 0.130848 0.027188
0.283794 0.138113 0.006270
0.341837 0.144817 0.000379
0.405866 0.148667 0.000000
0.468781 0.148923 0.000000
0.523645 0.146121 0.000000
0.577134 0.147795 0.000000
0.631228 0.152688 0.000000
0.685143 0.153565 0.000981
0.719955 0.143371 0.049219
0.754206 0.164321 0.168657
0.790446 0.213665 0.278428
0.824308 0.271531 0.375196
0.855393 0.332074 0.462209
0.883183 0.396507 0.544635
0.907687 0.466550 0.619697
0.929401 0.542076 0.688147
0.948198 0.619561 0.752183
0.963965 0.691802 0.808624
0.975064 0.751509 0.854115
0.981702 0.798308 0.887141
0.000000 0.124245 0.096376
0.000020 0.113757 0.069736
0.005037 0.111794 0.065359
0.027811 0.110096 0.062540
0.056426 0.108806 0.060256
0.073398 0.108333 0.057921
0.087523 0.112235 0.058690
0.099052 0.117159 0.059780
0.110901 0.122782 0.061615
0.128320 0.128817 0.061876
0.153417 0.132395 0.051132
0.193090 0.139275 0.040091
0.239775 0.147466 0.021752
0.291231 0.156373 0.004375
0.350533 0.164277 0.000222
0.416274 0.169173 0.000000
0.481512 0.170424 0.000000
0.537153 0.167025 0.000000
0.582841 0.159324 0.000000
0.631568 0.159329 0.000000
0.684311 0.165818 0.000012
0.725069 0.161114 0.022288
0.755281 0.170960 0.139245
0.790480 0.215331 0.257318
0.824613 0.272847 0.362228
0.855790 0.333339 0.453462
0.883556 0.397610 0.538575
0.908016 0.467606 0.615835
0.929665 0.543027 0.685422
0.948391 0.620258 0.750331
0.964126 0.692403 0.807457
0.975166 0.751887 0.853369
0.981781 0.798675 0.886637
0.000000 0.147437 0.109915
0.000004 0.136629 0.076536
0.002065 0.134746 0.070720
0.022669 0.132893 0.066020
0.049948 0.131349 0.063058
0.070749 0.130289 0.060092
0.086909 0.131244 0.058498
0.100107 0.136634 0.059337
0.115012 0.142935 0.059837
0.136547 0.150268 0.061339
0.165351 0.157870 0.059896
0.201261 0.162154 0.039661
0.246585 0.170392 0.015445
0.299291 0.181451 0.002325
0.359990 0.191173 0.000044
0.427565 0.197643 0.000000
0.495168 0.200502 0.000000
0.553511 0.198747 0.000000
0.599998 0.190358 0.000000
0.639797 0.177619 0.000000
0.683570 0.177505 0.000000
0.730149 0.182387 0.005143
0.758177 0.183247 0.093690
0.790987 0.219116 0.227500
0.824937 0.274237 0.343523
0.856281 0.334833 0.441698
0.884059 0.399070 0.530480
0.908433 0.468859 0.610672
0.930016 0.544288 0.681841
0.948659 0.621284 0.747997
0.964325 0.693161 0.805928
0.975278 0.752314 0.852363
0.981860 0.798984 0.885948
0.000000 0.174131 0.127048
0.000000 0.163226 0.084926
0.000209 0.163144 0.077962
0.009229 0.162278 0.071208
0.032690 0.161468 0.065850
0.060420 0.160747 0.062300
0.079930 0.159911 0.059196
0.094798 0.162668 0.057780
0.114029 0.169478 0.057470
0.140901 0.177693 0.056723
0.174899 0.186931 0.056866
0.215040 0.196275 0.051668
0.257086 0.201801 0.013631
0.308344 0.212176 0.001128
0.370021 0.224022 0.000006
0.439561 0.232715 0.000000
0.509719 0.238231 0.000000
0.570875 0.239068 0.000000
0.619995 0.233316 0.000000
0.660102 0.219570 0.000000
0.692394 0.201905 0.000000
0.731343 0.202349 0.000220
0.765104 0.204966 0.040466
0.792724 0.227468 0.185293
0.825379 0.275935 0.315626
0.856875 0.336448 0.424698
0.884674 0.400760 0.519216
0.908994 0.470523 0.603459
0.930441 0.545733 0.677029
0.949010 0.622555 0.744678
0.964554 0.693992 0.803868
0.975437 0.752882 0.851065
0.981975 0.799463 0.885060
0.000000 0.203873 0.148550
0.000000 0.193342 0.095851
0.000030 0.193663 0.087020
0.000879 0.194593 0.079558
0.012982 0.195038 0.072088
0.036683 0.195196 0.065730
0.061722 0.195128 0.061032
0.082160 0.195189 0.057485
0.106649 0.199171 0.054324
0.139874 0.208101 0.050780
0.180303 0.218275 0.046455
0.225685 0.229552 0.044755
0.272566 0.241146 0.033261
0.323054 0.250123 0.001144
0.380876 0.259199 0.000000
0.451894 0.270122 0.000000
0.524668 0.278021 0.000000
0.588886 0.281828 0.000000
0.640910 0.279911 0.000000
0.683746 0.271084 0.000000
0.716559 0.254938 0.000000
0.739220 0.234021 0.000000
0.772257 0.232833 0.005893
0.796611 0.240996 0.118060
0.826694 0.280188 0.274990
0.857565 0.338038 0.399786
0.885454 0.402808 0.503351
0.909670 0.472520 0.593266
0.930997 0.547576 0.670535
0.949437 0.624067 0.740303
0.964865 0.695135 0.801154
0.975650 0.753749 0.849447
0.982120 0.800063 0.883907
0.000000 0.238649 0.174107
0.000000 0.229190 0.116973
0.000003 0.226765 0.096892
0.000015 0.229608 0.089588
0.001609 0.231626 0.082385
0.006527 0.233127 0.074860
0.026251 0.234125 0.067475
0.053326 0.234771 0.060418
0.085607 0.235599 0.051942
0.128036 0.241101 0.041734
0.178031 0.252388 0.032516
0.231039 0.265114 0.026233
0.283709 0.279065 0.018852
0.338398 0.293592 0.006859
0.399431 0.305226 0.000004
0.464952 0.311330 0.000000
0.539323 0.320536 0.000000
0.606608 0.326813 0.000000
0.661832 0.327895 0.000000
0.707633 0.322783 0.000000
0.743643 0.311657 0.000000
0.767172 0.293976 0.000000
0.783147 0.271927 0.000042
0.806882 0.266347 0.036432
0.829940 0.290063 0.213103
0.858636 0.340138 0.362166
0.886400 0.405030 0.480273
0.910565 0.475012 0.578880
0.931737 0.549875 0.661518
0.950012 0.626068 0.734318
0.965272 0.696576 0.797466
0.975932 0.754779 0.847219
0.982315 0.800843 0.882384
0.000000 0.280178 0.204097
0.000000 0.272533 0.151848
0.000000 0.268155 0.121472
0.000000 0.268375 0.103446
0.000012 0.271794 0.093798
0.000264 0.274927 0.085828
0.003801 0.277348 0.078448
0.010323 0.279207 0.070306
0.031221 0.280685 0.058735
0.089126 0.282904 0.039163
0.159746 0.290925 0.021566
0.226158 0.305330 0.013180
0.288239 0.321740 0.005596
0.348960 0.338800 0.002635
0.412161 0.354463 0.001503
0.484801 0.367546 0.000001
0.557845 0.374000 0.000000
0.624002 0.378086 0.000000
0.681566 0.380938 0.000000
0.730451 0.378753 0.000000
0.769758 0.370816 0.000000
0.797852 0.358233 0.000000
0.817515 0.341255 0.000000
0.828799 0.315911 0.001795
0.837088 0.306633 0.097357
0.861945 0.347613 0.304684
0.887559 0.407164 0.445045
0.911716 0.477910 0.557717
0.932708 0.552744 0.648825
0.950755 0.628464 0.725922
0.965798 0.698363 0.792338
0.976286 0.756140 0.844253
0.982563 0.801877 0.880354
0.000000 0.329258 0.243838
0.000000 0.323824 0.194684
0.000000 0.319980 0.166974
0.000000 0.316752 0.140586
0.000000 0.316678 0.119988
0.000007 0.320024 0.106965
0.000008 0.323907 0.096627
0.000103 0.327270 0.086506
0.006681 0.330579 0.073235
0.040667 0.333849 0.050919
0.105741 0.338251 0.023485
0.198902 0.350369 0.006869
0.280035 0.369514 0.001533
0.350646 0.389334 0.000351
0.419838 0.406933 0.003049
0.492095 0.421888 0.004435
0.575175 0.438096 0.000090
0.648432 0.446026 0.000000
0.705774 0.447338 0.000000
0.755253 0.445188 0.000000
0.797606 0.440204 0.000000
0.830579 0.432453 0.000000
0.854200 0.420205 0.000000
0.865974 0.396956 0.000000
0.863746 0.360450 0.014297
0.867873 0.360919 0.193403
0.890513 0.413243 0.390429
0.913158 0.480762 0.524369
0.933974 0.556063 0.630249
0.951723 0.631361 0.714172
0.966511 0.700705 0.785231
0.976754 0.757807 0.840193
0.982899 0.803197 0.877603
0.000000 0.383064 0.294098
0.000000 0.380361 0.246397
0.000000 0.377908 0.221280
0.000000 0.375352 0.198972
0.000000 0.372745 0.177014
0.000000 0.371598 0.156822
0.000000 0.373106 0.140804
0.000000 0.376338 0.127911
0.000728 0.381108 0.113083
0.008682 0.386676 0.089476
0.039346 0.392416 0.052723
0.136324 0.400295 0.014919
0.248520 0.417855 0.001288
0.338308 0.441130 0.001230
0.417891 0.461600 0.002759
0.496118 0.477943 0.008279
0.575759 0.492819 0.010509
0.660913 0.511692 0.000419
0.729497 0.521814 0.000001
0.784203 0.523497 0.000000
0.829224 0.520625 0.000000
0.863600 0.514871 0.000000
0.887105 0.504186 0.000000
0.899427 0.484264 0.000002
0.898194 0.449634 0.000856
0.887019 0.407667 0.056901
0.896556 0.426848 0.293030
0.916004 0.486730 0.471915
0.935675 0.559521 0.599959
0.952949 0.634606 0.696897
0.967380 0.703269 0.774563
0.977359 0.759899 0.834514
0.983330 0.804830 0.873997
0.000000 0.438086 0.350581
0.000000 0.438028 0.308367
0.000000 0.437096 0.285945
0.000000 0.435980 0.266340
0.000000 0.434659 0.248305
0.000000 0.433070 0.230663
0.000000 0.431461 0.213372
0.000000 0.430987 0.197318
0.000000 0.431874 0.178908
0.000613 0.436217 0.158495
0.006896 0.443650 0.131489
0.057668 0.452160 0.087702
0.171807 0.463233 0.033728
0.299886 0.485394 0.009693
0.400118 0.510514 0.007983
0.489952 0.530676 0.013053
0.576596 0.547459 0.020957
0.656063 0.562515 0.029378
0.733668 0.579710 0.002785
0.799224 0.590690 0.000022
0.851305 0.593884 0.000000
0.889347 0.591545 0.000000
0.913655 0.583229 0.000000
0.926519 0.567254 0.000007
0.927890 0.541102 0.000333
0.919699 0.505000 0.032317
0.913193 0.474635 0.177283
0.922484 0.501807 0.385062
0.938601 0.564904 0.550036
0.954680 0.638178 0.669954
0.968502 0.706200 0.758907
0.978133 0.762332 0.825749
0.983886 0.806962 0.869137
0.000000 0.493431 0.409869
0.000000 0.495930 0.376315
0.000000 0.496322 0.358759
0.000000 0.496237 0.343434
0.000000 0.495990 0.329083
0.000000 0.495490 0.315182
0.000000 0.494791 0.301511
0.000000 0.493940 0.287438
0.000000 0.492593 0.269376
0.000000 0.491501 0.245599
0.000058 0.492903 0.216554
0.010312 0.499541 0.184508
0.074822 0.510515 0.141761
0.222248 0.524385 0.077678
0.356494 0.548192 0.040220
0.466225 0.574164 0.036272
0.566488 0.595528 0.042123
0.654892 0.613740 0.064429
0.726047 0.627482 0.073712
0.794731 0.638614 0.013562
0.855247 0.647595 0.000798
0.900180 0.650834 0.000000
0.928652 0.647188 0.000000
0.944211 0.636541 0.000000
0.950012 0.619745 0.004407
0.947940 0.597707 0.049526
0.943892 0.574149 0.174509
0.939748 0.551976 0.294472
0.945466 0.580240 0.469354
0.957445 0.642430 0.624315
0.970078 0.709347 0.734036
0.979156 0.765196 0.812365
0.984577 0.809308 0.861486
0.000000 0.550720 0.470453
0.000000 0.555080 0.445130
0.000000 0.556364 0.432473
0.000000 0.557082 0.421515
0.000000 0.557494 0.411334
0.000000 0.557636 0.401510
0.000000 0.557642 0.391988
0.000000 0.557451 0.381929
0.000000 0.557035 0.369170
0.000000 0.556213 0.351214
0.000008 0.554625 0.324874
0.000687 0.552710 0.287060
0.013062 0.557609 0.245673
0.105024 0.569736 0.199372
0.271324 0.586293 0.136644
0.416427 0.611145 0.098522
0.538717 0.638216 0.095860
0.642739 0.660603 0.105416
0.724058 0.678600 0.139742
0.788057 0.690681 0.169780
0.847589 0.694635 0.074612
0.897397 0.699168 0.021073
0.931909 0.700064 0.007169
0.952373 0.694726 0.005548
0.962879 0.684492 0.019037
0.966763 0.672203 0.086856
0.968507 0.661727 0.204792
0.967035 0.646998 0.299773
0.961935 0.628695 0.391976
0.964048 0.655800 0.549238
0.972551 0.712758 0.692489
0.980572 0.768400 0.790741
0.985454 0.811954 0.849602
0.000000 0.608007 0.531907
0.000000 0.613045 0.512411
0.000000 0.614743 0.503130
0.000000 0.615864 0.495147
0.000000 0.616669 0.488021
0.000000 0.617251 0.481274
0.000000 0.617679 0.474737
0.000000 0.618025 0.468277
0.000000 0.618277 0.459922
0.000000 0.618390 0.448390
0.000002 0.618152 0.431782
0.000005 0.617118 0.406760
0.000061 0.615094 0.368491
0.015327 0.615776 0.315791
0.139947 0.629195 0.263669
0.330574 0.649153 0.205416
0.484620 0.675125 0.174347
0.614632 0.703053 0.177872
0.711801 0.724751 0.199209
0.784673 0.740940 0.234339
0.843409 0.751600 0.262801
0.892323 0.751094 0.176672
0.928916 0.750096 0.099098
0.954187 0.748186 0.074895
0.969949 0.743687 0.088248
0.979845 0.739111 0.158360
0.985176 0.735058 0.254945
0.986442 0.728489 0.330488
0.984133 0.715591 0.399871
0.978405 0.699640 0.479447
0.978286 0.723532 0.623979
0.982815 0.771950 0.752814
0.986753 0.814973 0.830140
0.000000 0.661602 0.593579
0.000000 0.666268 0.577993
0.000000 0.667950 0.570697
0.000000 0.669181 0.564765
0.000000 0.670101 0.559421
0.000000 0.670857 0.554394
0.000001 0.671503 0.549819
0.000003 0.672051 0.545132
0.000003 0.672654 0.539453
0.000003 0.673342 0.531751
0.000003 0.674066 0.521172
0.000013 0.674615 0.505815
0.000016 0.674744 0.483186
0.001080 0.673773 0.447659
0.024736 0.672241 0.391710
0.194011 0.686772 0.337416
0.398040 0.708227 0.282109
0.559125 0.735285 0.257609
0.685397 0.762728 0.268056
0.771941 0.782157 0.290669
0.838216 0.796123 0.322367
0.889180 0.805727 0.348143
0.928219 0.804582 0.299942
0.956014 0.801617 0.256876
0.975424 0.799354 0.246835
0.988464 0.798159 0.269865
0.994890 0.796908 0.314801
0.996925 0.794781 0.368469
0.996850 0.789662 0.427182
0.994612 0.778534 0.487211
0.989826 0.763379 0.559753
0.987778 0.782281 0.690534
0.988904 0.818183 0.793765
0.000000 0.708867 0.651449
0.000000 0.713171 0.639638
0.000003 0.714796 0.634207
0.000004 0.715989 0.629928
0.000016 0.716985 0.625948
0.000024 0.717818 0.622494
0.000034 0.718541 0.619032
0.000041 0.719199 0.615843
0.000052 0.719961 0.611834
0.000057 0.720910 0.606470
0.000073 0.722069 0.599278
0.000098 0.723351 0.589307
0.000526 0.724733 0.575067
0.003884 0.725917 0.554268
0.022946 0.726389 0.522077
0.089025 0.726260 0.471204
0.276220 0.738686 0.414880
0.472998 0.760146 0.362600
0.632880 0.787503 0.341967
0.746201 0.812420 0.355449
0.824481 0.828838 0.376947
0.882731 0.840913 0.404884
0.923500 0.849355 0.428952
0.954248 0.847822 0.394887
0.976779 0.845479 0.369242
0.991858 0.844719 0.366345
0.998442 0.844174 0.383849
0.999678 0.843615 0.417295
0.999867 0.843052 0.461483
0.999758 0.840371 0.512669
0.999026 0.832392 0.567028
0.996137 0.818372 0.633116
0.993501 0.828549 0.731612
0.000000 0.751681 0.703382
0.000000 0.755562 0.694802
0.000003 0.757076 0.690964
0.000003 0.758179 0.688020
0.000006 0.759108 0.685283
0.000006 0.759883 0.682941
0.000009 0.760569 0.680761
0.000009 0.761234 0.678516
0.000012 0.761993 0.675954
0.000046 0.762940 0.672485
0.000515 0.764116 0.667626
0.001294 0.765536 0.661145
0.002863 0.767218 0.652223
0.009473 0.769084 0.639516
0.028788 0.771014 0.620822
0.083928 0.772644 0.592131
0.198944 0.773982 0.546709
0.372735 0.783939 0.490176
0.550616 0.805076 0.440927
0.698366 0.831061 0.424164
0.798831 0.852137 0.437919
0.868879 0.865901 0.457536
0.916593 0.876232 0.482972
0.948213 0.883021 0.505436
0.972811 0.881728 0.479343
0.990799 0.880530 0.461390
0.998858 0.879566 0.460890
0.999963 0.878831 0.476439
0.999999 0.879238 0.505943
1.000000 0.880418 0.546088
0.999993 0.879952 0.592718
0.999850 0.874404 0.640760
0.998880 0.863433 0.684500
0.001099 0.791668 0.751557
0.004667 0.794891 0.745382
0.007701 0.796199 0.742662
0.010027 0.797137 0.740596
0.012250 0.797935 0.738706
0.014250 0.798621 0.737018
0.015993 0.799215 0.735548
0.018100 0.799768 0.734128
0.022659 0.800441 0.732291
0.028541 0.801261 0.730007
0.036675 0.802275 0.727035
0.050454 0.803536 0.722878
0.068938 0.805080 0.717426
0.095821 0.806958 0.709908
0.136947 0.809205 0.699372
0.193209 0.811756 0.684148
0.264067 0.814241 0.660157
0.347955 0.816206 0.619738
0.467224 0.823856 0.562713
0.624230 0.844198 0.516463
0.754857 0.867029 0.502237
0.845017 0.884398 0.515313
0.904135 0.896085 0.533829
0.941373 0.904528 0.557844
0.966159 0.910021 0.579159
0.986105 0.909388 0.558038
0.997688 0.908152 0.544092
0.999942 0.906568 0.544714
1.000000 0.906408 0.560066
1.000000 0.907925 0.588289
1.000000 0.909917 0.625140
1.000000 0.910110 0.665627
1.000000 0.907581 0.699110
0.021946 0.828011 0.796375
0.039198 0.830495 0.792292
0.050335 0.831501 0.790502
0.058566 0.832238 0.789189
0.066350 0.832881 0.788035
0.073875 0.833443 0.786948
0.080451 0.833941 0.785995
0.086572 0.834402 0.785114
0.093989 0.834931 0.784075
0.105735 0.835634 0.782611
0.121087 0.836521 0.780728
0.140861 0.837635 0.778367
0.169877 0.839090 0.775222
0.206074 0.840893 0.771103
0.248652 0.843091 0.765192
0.298124 0.845712 0.756829
0.352142 0.848733 0.744364
0.407009 0.851749 0.724158
0.465897 0.854187 0.688716
0.555776 0.860048 0.633441
0.689819 0.878070 0.590052
0.805223 0.897046 0.577150
0.883498 0.911553 0.590101
0.930560 0.921230 0.608213
0.959738 0.927971 0.630705
0.979631 0.932894 0.650626
0.994324 0.932328 0.633302
0.999713 0.930340 0.621541
0.999998 0.929001 0.623477
1.000000 0.929625 0.638774
1.000000 0.931513 0.664316
1.000000 0.933236 0.695407
1.000000 0.933680 0.722898
0.212749 0.860515 0.839409
0.247408 0.862572 0.837490
0.261278 0.863416 0.836652
0.271504 0.864037 0.836038
0.280129 0.864553 0.835497
0.288116 0.865035 0.834953
0.295233 0.865470 0.834464
0.301783 0.865869 0.834019
0.309375 0.866328 0.833505
0.318939 0.866909 0.832838
0.331359 0.867683 0.831875
0.346983 0.868666 0.830589
0.365476 0.869874 0.828956
0.383164 0.871394 0.826568
0.402756 0.873249 0.823346
0.426034 0.875519 0.818474
0.452943 0.878241 0.811389
0.484573 0.881381 0.800705
