luts/apple-log-2/33x/Apple_LOG_2_to_Kodak_2383_D65_Rec709_G2-4.cube
TITLE "Apple LOG 2 to Kodak 2383 D65 Rec709 G2-4"
#  
# Apple LOG 2 to Rec.709 Hybrid LUT
#  
# This hybrid LUT converts Apple LOG 2 to Rec.709 Gamma 2.4
#  
# Based on an original creative LUT included in DaVinci Resolve, adapted for a different color space.  
#  
# Created by Tobia Montanari | tobiamontanari.com
#  
#  
# 
LUT_3D_SIZE 9
0.030106 0.038559 0.046921
0.090852 0.052747 0.052545
0.165257 0.062129 0.053236
0.279058 0.069648 0.051012
0.476841 0.016540 0.102363
0.673885 0.046380 0.238842
0.820171 0.252262 0.463290
0.926892 0.532584 0.711454
0.981094 0.795453 0.891340
0.023110 0.055154 0.059132
0.037261 0.047958 0.050001
0.085529 0.061613 0.044571
0.217708 0.085275 0.025102
0.460804 0.116794 0.000000
0.672738 0.093515 0.058785
0.823241 0.266871 0.407380
0.928666 0.539379 0.695506
0.981508 0.797541 0.888716
0.000000 0.106345 0.085853
0.053951 0.093815 0.057415
0.104402 0.108338 0.061022
0.233663 0.130848 0.027188
0.468781 0.148923 0.000000
0.685143 0.153565 0.000981
0.824308 0.271531 0.375196
0.929401 0.542076 0.688147
0.981702 0.798308 0.887141
0.000000 0.203873 0.148550
0.012982 0.195038 0.072088
0.106649 0.199171 0.054324
0.272566 0.241146 0.033261
0.524668 0.278021 0.000000
0.716559 0.254938 0.000000
0.826694 0.280188 0.274990
0.930997 0.547576 0.670535
0.982120 0.800063 0.883907
0.000000 0.383064 0.294098
0.000000 0.372745 0.177014
0.000728 0.381108 0.113083
0.248520 0.417855 0.001288
0.575759 0.492819 0.010509
0.829224 0.520625 0.000000
0.898194 0.449634 0.000856
0.935675 0.559521 0.599959
0.983330 0.804830 0.873997
0.000000 0.608007 0.531907
0.000000 0.616669 0.488021
0.000000 0.618277 0.459922
0.000061 0.615094 0.368491
0.484620 0.675125 0.174347
0.843409 0.751600 0.262801
0.969949 0.743687 0.088248
0.984133 0.715591 0.399871
0.986753 0.814973 0.830140
0.001099 0.791668 0.751557
0.012250 0.797935 0.738706
0.022659 0.800441 0.732291
0.068938 0.805080 0.717426
0.264067 0.814241 0.660157
0.754857 0.867029 0.502237
0.966159 0.910021 0.579159
1.000000 0.906408 0.560066
1.000000 0.907581 0.699110
0.553629 0.914770 0.910209
0.568037 0.916972 0.909174
0.574275 0.917925 0.908600
0.586766 0.919827 0.907362
0.617765 0.924528 0.903026
0.688466 0.933676 0.878792
0.912006 0.956605 0.776684
0.997582 0.975243 0.828706
1.000000 0.972834 0.823016
0.808682 0.968902 0.972534
0.811410 0.969316 0.972429
0.812577 0.969497 0.972393
0.815201 0.969909 0.972275
0.822080 0.970959 0.971935
0.840425 0.973632 0.969942
0.878642 0.978184 0.955403
0.983924 0.990460 0.925245
1.000000 0.994263 0.944976
0.029752 0.039014 0.054454
0.058238 0.045985 0.067657
0.130239 0.056581 0.106491
0.255575 0.060285 0.138177
0.466621 0.004339 0.194499
0.671357 0.023294 0.301460
0.818704 0.246806 0.476198
0.926592 0.531404 0.712544
0.981048 0.795193 0.891735
0.029464 0.041338 0.050378
0.030523 0.039241 0.047681
0.092812 0.054876 0.053863
0.232320 0.072111 0.052549
0.454735 0.039935 0.081344
0.668492 0.066211 0.206693
0.821781 0.262643 0.426399
0.928292 0.537985 0.697522
0.981445 0.797203 0.889116
0.000003 0.094270 0.109349
0.003413 0.081503 0.070105
0.080981 0.088983 0.064189
0.231102 0.108607 0.041240
0.451014 0.097273 0.000041
0.667336 0.085650 0.122228
0.823063 0.268257 0.396119
0.929065 0.540826 0.690324
0.981631 0.798032 0.887659
0.000000 0.200366 0.200873
0.000000 0.185518 0.128735
0.007451 0.180850 0.085127
0.247821 0.225337 0.063321
0.523703 0.255374 0.000018
0.704651 0.213108 0.000515
0.825192 0.276756 0.303482
0.930651 0.546373 0.673163
0.982056 0.799809 0.884426
0.000000 0.379310 0.348306
0.000000 0.377967 0.268656
0.000000 0.372821 0.209244
0.109811 0.396019 0.081766
0.558768 0.480447 0.048982
0.818600 0.504776 0.000171
0.892758 0.435647 0.002675
0.935301 0.558598 0.604493
0.983253 0.804558 0.874611
0.000000 0.603252 0.539409
0.000000 0.613117 0.498251
0.000000 0.615484 0.472640
0.000042 0.613935 0.389391
0.467738 0.670100 0.179139
0.841317 0.748718 0.259461
0.969440 0.740647 0.080057
0.983193 0.711273 0.398170
0.986677 0.814815 0.831430
0.000678 0.790214 0.752014
0.009728 0.796563 0.739290
0.017240 0.799123 0.732948
0.060951 0.803890 0.718159
0.254240 0.813312 0.661740
0.752255 0.866102 0.500513
0.965968 0.909560 0.577760
1.000000 0.905962 0.558838
1.000000 0.906978 0.698720
0.551260 0.914351 0.910104
0.565808 0.916573 0.909060
0.572039 0.917528 0.908533
0.584695 0.919464 0.907346
0.616154 0.924231 0.903028
0.687155 0.933467 0.879044
0.911609 0.956468 0.776210
0.997564 0.975180 0.828416
1.000000 0.972776 0.822727
0.808331 0.968841 0.972549
0.811074 0.969268 0.972442
0.812256 0.969451 0.972399
0.814867 0.969853 0.972288
0.821755 0.970913 0.971953
0.840131 0.973592 0.969985
0.878416 0.978171 0.955572
0.983838 0.990444 0.925202
1.000000 0.994263 0.944976
0.011015 0.041314 0.104851
0.071002 0.043754 0.100887
0.121117 0.057539 0.128039
0.252051 0.058432 0.174095
0.467057 0.002273 0.235669
0.670756 0.014399 0.330114
0.817200 0.240512 0.491844
0.926522 0.531135 0.712442
0.981021 0.795074 0.891935
0.004120 0.047727 0.065119
0.025856 0.041075 0.083292
0.086577 0.054678 0.094553
0.228756 0.071647 0.118013
0.454572 0.033606 0.156656
0.667479 0.050020 0.264108
0.819802 0.256537 0.455433
0.928165 0.537475 0.698444
0.981416 0.797043 0.889311
0.000003 0.090768 0.118211
0.001974 0.079418 0.099920
0.063076 0.083074 0.095283
0.239203 0.095289 0.086960
0.446244 0.054022 0.086157
0.666485 0.070437 0.205965
0.821231 0.263452 0.430255
0.928928 0.540332 0.691331
0.981610 0.797943 0.887892
0.000000 0.198022 0.222467
0.000000 0.187008 0.175703
0.000000 0.179460 0.130891
0.234659 0.218665 0.085185
0.519458 0.233253 0.043615
0.689187 0.165021 0.043059
0.823580 0.274201 0.358994
0.930494 0.545839 0.674270
0.982026 0.799689 0.884658
0.000000 0.376537 0.371893
0.000000 0.379282 0.314059
0.000000 0.377342 0.269763
0.019785 0.384244 0.139503
0.550026 0.475851 0.086976
0.809118 0.489304 0.014426
0.877984 0.417252 0.088306
0.935143 0.558225 0.606634
0.983222 0.804439 0.874887
0.000000 0.600096 0.557648
0.000000 0.611419 0.523010
0.000000 0.615017 0.502390
0.000003 0.617490 0.438640
0.423926 0.665294 0.227219
0.837124 0.747438 0.272972
0.968938 0.739545 0.088131
0.982768 0.709321 0.397429
0.986642 0.814745 0.831998
0.000480 0.789524 0.752169
0.008809 0.795976 0.739516
0.015635 0.798549 0.733217
0.057512 0.803366 0.718500
0.249794 0.812908 0.662467
0.751051 0.865684 0.499738
0.965865 0.909355 0.577141
1.000000 0.905744 0.558269
1.000000 0.906684 0.698524
0.550252 0.914181 0.910095
0.564862 0.916413 0.909053
0.571094 0.917368 0.908534
0.583728 0.919288 0.907316
0.615381 0.924083 0.903003
0.686584 0.933372 0.879139
0.911416 0.956399 0.775978
0.997551 0.975148 0.828223
1.000000 0.972756 0.822632
0.808179 0.968814 0.972549
0.810922 0.969250 0.972445
0.812106 0.969424 0.972409
0.814708 0.969833 0.972301
0.821608 0.970889 0.971969
0.839998 0.973572 0.970005
0.878315 0.978160 0.955643
0.983801 0.990442 0.925186
1.000000 0.994263 0.944976
0.000000 0.013144 0.189369
0.076463 0.016335 0.182163
0.124031 0.033225 0.196908
0.244137 0.052678 0.235253
0.468750 0.000243 0.300181
0.674064 0.016051 0.382674
0.815747 0.233032 0.520996
0.925616 0.527640 0.719774
0.980941 0.794687 0.892466
0.000000 0.049058 0.159709
0.005720 0.026134 0.174397
0.084306 0.038606 0.181892
0.223901 0.063489 0.213585
0.458857 0.015802 0.266541
0.671566 0.044289 0.349389
0.817472 0.245404 0.498084
0.926429 0.534243 0.707124
0.981368 0.796827 0.889675
0.000000 0.092103 0.176233
0.000000 0.065722 0.176198
0.007972 0.057889 0.192821
0.208845 0.074401 0.202146
0.450410 0.039534 0.231811
0.670750 0.062912 0.318326
0.818776 0.252892 0.479503
0.927255 0.537261 0.699920
0.981552 0.797714 0.888420
0.000000 0.194737 0.263961
0.000000 0.187833 0.251918
0.000000 0.184194 0.244842
0.194510 0.219651 0.247483
0.522034 0.207993 0.229244
0.677835 0.120826 0.229916
0.821420 0.266093 0.431520
0.928966 0.543299 0.683428
0.981964 0.799409 0.885135
0.000000 0.378347 0.416910
0.000000 0.384522 0.387636
0.000000 0.386172 0.366429
0.000008 0.386572 0.283274
0.535859 0.474701 0.178280
0.799705 0.475252 0.221270
0.864465 0.389803 0.263097
0.933964 0.556896 0.618346
0.983161 0.804201 0.875420
0.000000 0.593908 0.585227
0.000000 0.607268 0.560439
0.000000 0.612547 0.546276
0.000000 0.620194 0.505085
0.285333 0.651481 0.295374
0.832123 0.748144 0.310866
0.962124 0.743967 0.293320
0.981827 0.705251 0.396507
0.986563 0.814598 0.833218
0.001351 0.786815 0.756937
0.010533 0.793436 0.744727
0.020377 0.796113 0.738705
0.054783 0.801289 0.724750
0.222443 0.811777 0.671996
0.743821 0.864170 0.502576
0.965649 0.908939 0.575955
1.000000 0.905301 0.557070
1.000000 0.906095 0.698133
0.548005 0.913798 0.910019
0.562787 0.916044 0.908980
0.569016 0.916998 0.908493
0.581792 0.918943 0.907272
0.613805 0.923794 0.903005
0.685372 0.933176 0.879378
0.911040 0.956273 0.775567
0.997539 0.975088 0.827938
1.000000 0.972701 0.822384
0.807855 0.968769 0.972564
0.810605 0.969194 0.972459
0.811798 0.969379 0.972416
0.814377 0.969776 0.972317
0.821294 0.970846 0.971988
0.839718 0.973539 0.970044
0.878117 0.978145 0.955791
0.983749 0.990427 0.925158
1.000000 0.994263 0.944976
0.000000 0.000000 0.318094
0.009534 0.000000 0.317290
0.087107 0.000000 0.312016
0.228601 0.000002 0.342534
0.463476 0.000721 0.404701
0.678306 0.014229 0.476771
0.819068 0.239217 0.585324
0.923609 0.520168 0.747194
0.980838 0.794180 0.893237
0.000000 0.000065 0.315719
0.006524 0.000000 0.314220
0.073171 0.000000 0.310552
0.226642 0.000038 0.343041
0.464040 0.001420 0.402015
0.678493 0.021279 0.471905
0.819783 0.243776 0.580939
0.923491 0.523467 0.742211
0.981154 0.795768 0.891164
0.000000 0.008133 0.309829
0.000000 0.001264 0.310282
0.000166 0.000026 0.310275
0.187403 0.001446 0.341398
0.451369 0.007680 0.394350
0.676702 0.042178 0.460764
0.821150 0.252940 0.571827
0.924192 0.526685 0.736690
0.981336 0.796684 0.889957
0.000000 0.177923 0.378179
0.000000 0.158185 0.375149
0.000000 0.135902 0.371735
0.056565 0.162538 0.411922
0.473084 0.145497 0.423315
0.676626 0.084047 0.433921
0.824147 0.268300 0.550575
0.925602 0.532498 0.725504
0.981744 0.798536 0.886950
0.000000 0.382696 0.495676
0.000000 0.385501 0.493063
0.000000 0.388178 0.492244
0.000000 0.395116 0.489278
0.480252 0.487113 0.503482
0.791235 0.447186 0.480565
0.847939 0.350187 0.478271
0.929575 0.547259 0.684980
0.982936 0.803386 0.877326
0.000000 0.594958 0.644696
0.000000 0.609892 0.634954
0.000000 0.615854 0.629417
0.000000 0.627215 0.613757
0.016353 0.650154 0.520804
0.819315 0.755848 0.422222
0.953788 0.751885 0.497205
0.969916 0.692709 0.541393
0.986341 0.814174 0.836692
0.000213 0.777393 0.783273
0.001008 0.785483 0.775081
0.001683 0.788808 0.771005
0.009525 0.795268 0.761356
0.121900 0.809803 0.727406
0.655114 0.855222 0.559686
0.961783 0.909736 0.598177
0.999965 0.909098 0.601022
1.000000 0.904481 0.697070
0.539390 0.912397 0.909523
0.554950 0.914716 0.908519
0.561478 0.915706 0.908046
0.574812 0.917734 0.906914
0.608492 0.922820 0.902904
0.681784 0.932586 0.880079
0.909643 0.955859 0.774467
0.997504 0.974918 0.827073
1.000000 0.972541 0.821652
0.806939 0.968627 0.972595
0.809735 0.969055 0.972492
0.810947 0.969251 0.972445
0.813481 0.969638 0.972352
0.820459 0.970711 0.972037
0.838937 0.973426 0.970159
0.877523 0.978098 0.956233
0.983565 0.990392 0.925079
1.000000 0.994263 0.944976
0.000000 0.000000 0.462110
0.000000 0.000000 0.461846
0.000000 0.000000 0.461686
0.044509 0.000000 0.451764
0.411791 0.000000 0.515580
0.677845 0.021230 0.597258
0.824197 0.252179 0.681980
0.924771 0.527418 0.799957
0.979545 0.789105 0.909091
0.000000 0.000000 0.461356
0.000000 0.000000 0.461106
0.000000 0.000000 0.460677
0.066462 0.000000 0.449282
0.419960 0.000000 0.516962
0.679406 0.022113 0.597179
0.824523 0.252846 0.681742
0.924835 0.527661 0.799763
0.979549 0.789090 0.908967
0.000000 0.000000 0.461031
0.000000 0.000000 0.460769
0.000000 0.000000 0.460101
0.075944 0.000000 0.448434
0.423539 0.000000 0.517558
0.680116 0.022497 0.597165
0.824660 0.253134 0.681644
0.924872 0.527793 0.799680
0.979590 0.789316 0.908691
0.000000 0.000009 0.470879
0.000000 0.000009 0.470646
0.000000 0.000002 0.469000
0.002346 0.000000 0.455226
0.403692 0.000047 0.525204
0.677846 0.048537 0.595855
0.826069 0.262700 0.678371
0.925168 0.533232 0.795323
0.979912 0.791023 0.906755
0.000000 0.330369 0.601800
0.000000 0.330384 0.601574
0.000000 0.325188 0.600302
0.000000 0.305065 0.596733
0.320128 0.393979 0.667430
0.741877 0.346189 0.669315
0.833511 0.300815 0.662015
0.928715 0.549195 0.781704
0.980824 0.795677 0.900716
0.000000 0.604101 0.729518
0.000000 0.611117 0.729821
0.000000 0.616195 0.730599
0.000000 0.626340 0.731694
0.000003 0.650285 0.729371
0.771683 0.772457 0.752306
0.938372 0.730910 0.732468
0.952133 0.652270 0.733829
0.983662 0.807892 0.877302
0.000064 0.776352 0.830972
0.000269 0.784619 0.827989
0.000546 0.788118 0.826494
0.001464 0.795195 0.823024
0.033109 0.812151 0.810998
0.439608 0.849478 0.751299
0.952810 0.918687 0.689767
0.998586 0.923489 0.751662
0.999768 0.904828 0.780363
0.465590 0.902845 0.915953
0.486449 0.905579 0.915784
0.494704 0.906735 0.915684
0.511931 0.909153 0.915350
0.554027 0.915260 0.913802
0.642586 0.928425 0.903396
0.869655 0.953107 0.805323
0.996426 0.975415 0.835763
1.000000 0.974301 0.837205
0.804449 0.968242 0.972675
0.807268 0.968674 0.972581
0.808524 0.968872 0.972535
0.811106 0.969272 0.972442
0.818163 0.970360 0.972141
0.836763 0.973121 0.970467
0.875902 0.977966 0.957341
0.982994 0.990284 0.924836
1.000000 0.994263 0.944976
0.000000 0.000721 0.590305
0.000000 0.000715 0.590218
0.000000 0.000712 0.590198
0.000000 0.000706 0.590118
0.012210 0.000655 0.583559
0.630933 0.000263 0.683398
0.832275 0.294373 0.777163
0.927519 0.543030 0.860886
0.979720 0.796082 0.935719
0.000000 0.000706 0.590098
0.000000 0.000703 0.590005
0.000000 0.000700 0.589993
0.000000 0.000694 0.589917
0.020061 0.000373 0.583822
0.633549 0.000266 0.683934
0.832578 0.294814 0.777208
0.927586 0.543259 0.860865
0.979717 0.796067 0.935669
0.000000 0.000700 0.589993
0.000000 0.000695 0.589919
0.000000 0.000692 0.589883
0.000000 0.000686 0.589823
0.023154 0.000227 0.583673
0.634722 0.000262 0.684175
0.832731 0.295040 0.777240
0.927621 0.543377 0.860857
0.979717 0.796059 0.935640
0.000000 0.000684 0.589795
0.000000 0.000680 0.589722
0.000000 0.000677 0.589707
0.000000 0.000672 0.589618
0.028767 0.000398 0.583250
0.637019 0.000266 0.684646
0.833035 0.295492 0.777306
0.927693 0.543633 0.860853
0.979717 0.796038 0.935589
0.000000 0.007341 0.594761
0.000000 0.007370 0.594740
0.000000 0.007372 0.594717
0.000000 0.007403 0.594698
0.011772 0.001418 0.583355
0.639612 0.012716 0.688767
0.833774 0.298948 0.777424
0.927751 0.546900 0.859791
0.979938 0.797337 0.935034
0.000000 0.497068 0.772439
0.000000 0.497106 0.772397
0.000000 0.497110 0.772377
0.000000 0.497108 0.772334
0.000000 0.485292 0.769157
0.649238 0.685384 0.869481
0.904988 0.623324 0.862836
0.935125 0.585337 0.854924
0.981935 0.809368 0.929876
0.000000 0.785470 0.883048
0.000001 0.785793 0.882961
0.000453 0.788150 0.881756
0.000785 0.794113 0.881816
0.010805 0.808646 0.881581
0.213500 0.841770 0.883268
0.926229 0.933612 0.916046
0.991158 0.920986 0.906837
0.992714 0.884424 0.908045
0.418457 0.899313 0.933157
0.442221 0.902049 0.933790
0.451407 0.903239 0.934052
0.469366 0.905651 0.934594
0.514574 0.911960 0.935890
0.606380 0.926355 0.937233
0.773571 0.951677 0.918507
0.992703 0.980881 0.890193
1.000000 0.983300 0.919960
0.776052 0.964054 0.975285
0.779716 0.964641 0.975364
0.781334 0.964897 0.975400
0.784644 0.965425 0.975468
0.793521 0.966842 0.975616
0.813782 0.970031 0.975459
0.859197 0.976912 0.971794
0.973457 0.990518 0.939349
1.000000 0.994781 0.950080
0.000000 0.235152 0.713552
0.000000 0.235051 0.713496
0.000000 0.235051 0.713496
0.000000 0.235017 0.713478
0.000000 0.234843 0.713391
0.001023 0.180573 0.695677
0.807849 0.283848 0.818023
0.934348 0.587494 0.906661
0.981310 0.810800 0.958561
0.000000 0.234937 0.713433
0.000000 0.234937 0.713433
0.000000 0.234926 0.713429
0.000000 0.234823 0.713382
0.000000 0.234697 0.713320
0.004000 0.176068 0.694168
0.808431 0.284514 0.818234
0.934418 0.587697 0.906689
0.981323 0.810852 0.958549
0.000000 0.234937 0.713433
0.000000 0.234823 0.713382
0.000000 0.234823 0.713382
0.000000 0.234779 0.713361
0.000000 0.234598 0.713276
0.005361 0.174098 0.693500
0.808703 0.284788 0.818323
0.934452 0.587816 0.906722
0.981336 0.810932 0.958572
0.000000 0.234728 0.713335
0.000000 0.234697 0.713320
0.000000 0.234666 0.713307
0.000000 0.234610 0.713282
0.000000 0.234446 0.713194
0.008282 0.169698 0.691999
0.809274 0.285452 0.818534
0.934505 0.587976 0.906743
0.981338 0.810980 0.958572
0.000000 0.234326 0.713132
0.000000 0.234239 0.713090
0.000000 0.234239 0.713090
0.000000 0.234206 0.713074
0.000000 0.234013 0.712976
0.024182 0.155750 0.688100
0.810668 0.287171 0.819083
0.934674 0.588521 0.906850
0.981362 0.811101 0.958562
0.000000 0.239337 0.715239
0.000000 0.239243 0.715196
0.000000 0.239249 0.715199
0.000000 0.239167 0.715151
0.000000 0.239080 0.715107
0.012472 0.182583 0.703434
0.814830 0.296512 0.821802
0.935073 0.590410 0.907056
0.981472 0.811864 0.958586
0.000000 0.591327 0.848611
0.000000 0.591348 0.848606
0.000000 0.591348 0.848606
0.000000 0.591347 0.848603
0.000000 0.591343 0.848592
0.000000 0.586875 0.846559
0.868179 0.893262 0.964622
0.978226 0.860929 0.962152
0.984952 0.838449 0.958756
0.458942 0.904328 0.950915
0.459226 0.904359 0.950927
0.459226 0.904359 0.950927
0.459120 0.904446 0.950930
0.481537 0.908769 0.952351
0.564108 0.921185 0.957407
0.706614 0.945056 0.966701
0.983423 0.987043 0.982557
1.000000 0.985071 0.979777
0.767617 0.963351 0.981528
0.770904 0.963889 0.981709
0.772346 0.964122 0.981785
0.775435 0.964623 0.981951
0.783645 0.965970 0.982377
0.802860 0.969113 0.983341
0.846247 0.976197 0.984842
0.930417 0.988722 0.981527
1.000000 0.997599 0.976425
0.000000 0.448417 0.809598
0.000000 0.448417 0.809598
0.000000 0.448417 0.809598
0.000000 0.448417 0.809598
0.000000 0.448417 0.809598
0.000000 0.448417 0.809598
0.002279 0.433409 0.808524
0.926053 0.590117 0.920080
0.984405 0.840314 0.972930
0.000000 0.448417 0.809598
0.000000 0.448417 0.809598
0.000000 0.448417 0.809598
0.000000 0.448417 0.809598
0.000000 0.448417 0.809598
0.000000 0.448417 0.809598
0.003348 0.433192 0.808237
0.926174 0.590433 0.920156
0.984405 0.840375 0.972946
0.000000 0.448417 0.809598
0.000000 0.448417 0.809598
0.000000 0.448417 0.809598
0.000000 0.448417 0.809598
0.000000 0.448417 0.809598
0.000000 0.448417 0.809598
0.003808 0.433080 0.808107
0.926228 0.590538 0.920179
0.984421 0.840436 0.972946
0.000000 0.448417 0.809598
0.000000 0.448417 0.809598
0.000000 0.448417 0.809598
0.000000 0.448417 0.809598
0.000000 0.448417 0.809598
0.000000 0.448417 0.809598
0.004847 0.432908 0.807848
0.926332 0.590815 0.920247
0.984421 0.840497 0.972961
0.000000 0.448417 0.809598
0.000000 0.448417 0.809598
0.000000 0.448417 0.809598
0.000000 0.448417 0.809598
0.000000 0.448417 0.809598
0.000000 0.448417 0.809598
0.007627 0.432275 0.807069
0.926628 0.591548 0.920433
0.984440 0.840636 0.972992
0.000000 0.448417 0.809598
0.000000 0.448417 0.809598
0.000000 0.448417 0.809598
0.000000 0.448417 0.809598
0.000000 0.448417 0.809598
0.000000 0.448417 0.809598
0.050648 0.426383 0.806138
0.927359 0.593624 0.920939
0.984493 0.841062 0.973057
0.000000 0.450530 0.810362
0.000000 0.450530 0.810363
0.000000 0.450533 0.810362
0.000000 0.450534 0.810365
0.000000 0.450546 0.810370
0.000000 0.450581 0.810382
0.079048 0.418537 0.811311
0.929617 0.601252 0.922739
0.984666 0.842418 0.973286
0.000000 0.622185 0.871362
0.000000 0.622196 0.871362
0.000000 0.622196 0.871362
0.000000 0.622196 0.871362
0.000000 0.622198 0.871362
0.000000 0.622210 0.871371
0.000000 0.621099 0.870799
0.965154 0.975558 0.994078
0.997986 0.967922 0.992817
0.795193 0.968231 0.987655
0.795193 0.968231 0.987655
0.795193 0.968231 0.987655
0.795193 0.968231 0.987655
0.795193 0.968231 0.987655
0.805555 0.969932 0.988349
0.837629 0.975259 0.990533
0.895028 0.984751 0.994356
1.000000 1.000000 0.999969
