luts/apple-log/33x/Apple_LOG_to_Fujifilm_3513DI_D55_Rec709_G2-4.cube
TITLE "Apple LOG to Fujifilm 3513DI D55 Rec709 G2-4"
#  
# Apple LOG to Rec.709 Hybrid LUT
#  
# This hybrid LUT converts Apple LOG to Rec.709 Gamma 2.4
#  
# Based on an original creative LUT included in DaVinci Resolve, adapted for a different color space.  
#  
# Created by Tobia Montanari | tobiamontanari.com
#  
# 
LUT_3D_SIZE 33
0.031678 0.035981 0.033539
0.031678 0.035981 0.033539
0.032532 0.036286 0.034470
0.048417 0.038407 0.036194
0.072053 0.044236 0.038376
0.087617 0.049180 0.039719
0.106203 0.051820 0.040543
0.124910 0.053254 0.039948
0.147234 0.054475 0.037858
0.172610 0.055741 0.034394
0.200961 0.057237 0.027741
0.232273 0.058228 0.012451
0.269017 0.059266 0.010407
0.310246 0.057160 0.013550
0.355276 0.043091 0.030716
0.404685 0.019440 0.048386
0.456123 0.003159 0.080964
0.506172 0.008530 0.103731
0.556924 0.011139 0.133013
0.606043 0.026627 0.167803
0.652491 0.050690 0.209873
0.693156 0.093736 0.256153
0.730968 0.144717 0.306416
0.765866 0.195666 0.360235
0.797086 0.252415 0.418662
0.823606 0.310094 0.481193
0.846922 0.370962 0.543664
0.869688 0.436973 0.602121
0.892882 0.508934 0.657542
0.915328 0.584146 0.708904
0.936156 0.655772 0.753124
0.952544 0.716365 0.787243
0.964843 0.769085 0.813382
0.031678 0.035981 0.033539
0.031678 0.035981 0.033539
0.031678 0.035981 0.033539
0.032853 0.036805 0.033417
0.030320 0.040665 0.034958
0.051560 0.043366 0.036561
0.066819 0.048142 0.037430
0.076707 0.052506 0.037247
0.093172 0.056489 0.036835
0.117968 0.060121 0.035294
0.150866 0.063279 0.030686
0.185718 0.066941 0.019471
0.223026 0.071702 0.002655
0.271443 0.077928 0.000061
0.327230 0.082414 0.000000
0.385138 0.081346 0.000000
0.445411 0.082353 0.000000
0.498604 0.065782 0.004669
0.547677 0.034195 0.038758
0.599756 0.042237 0.097307
0.650019 0.071794 0.151324
0.694362 0.109056 0.211780
0.732830 0.153979 0.272969
0.767452 0.202869 0.334966
0.798276 0.257939 0.398886
0.824659 0.314321 0.466224
0.847730 0.374075 0.533211
0.870314 0.439551 0.595254
0.893507 0.511299 0.652796
0.915846 0.586038 0.706065
0.936553 0.657084 0.751522
0.952834 0.717342 0.786374
0.964996 0.769665 0.812772
0.031678 0.035981 0.033539
0.031678 0.035981 0.033539
0.031678 0.035981 0.033539
0.031678 0.035981 0.033539
0.031464 0.039460 0.033936
0.030961 0.042832 0.037446
0.051530 0.046220 0.037644
0.066041 0.050828 0.038056
0.078279 0.055757 0.037781
0.099428 0.060868 0.037217
0.132479 0.065400 0.034348
0.171649 0.069810 0.024826
0.212650 0.075731 0.008667
0.257099 0.082383 0.000397
0.305562 0.087678 0.000000
0.360220 0.091737 0.000000
0.430213 0.097261 0.000000
0.493767 0.100694 0.000000
0.548913 0.082689 0.001282
0.596048 0.050645 0.047120
0.647837 0.078630 0.119371
0.694286 0.114458 0.188052
0.733562 0.157565 0.256565
0.768078 0.205676 0.322988
0.798764 0.259937 0.389792
0.825040 0.315770 0.459174
0.848020 0.375113 0.528374
0.870588 0.440543 0.592157
0.893690 0.511971 0.650538
0.916091 0.586847 0.704570
0.936736 0.657649 0.750805
0.952926 0.717632 0.785916
0.965072 0.769985 0.812573
0.031678 0.035981 0.033539
0.031678 0.035981 0.033539
0.031678 0.035981 0.033539
0.031678 0.035981 0.033539
0.032502 0.037614 0.032914
0.028229 0.042069 0.037156
0.034836 0.045518 0.038041
0.054139 0.048844 0.038422
0.070405 0.054124 0.038498
0.085527 0.060212 0.037964
0.116197 0.066407 0.036728
0.159014 0.072160 0.029954
0.203281 0.078462 0.012787
0.249851 0.085725 0.000488
0.300359 0.092180 0.000000
0.353521 0.097963 0.000000
0.406149 0.104295 0.000000
0.482399 0.113130 0.000000
0.548440 0.116762 0.000015
0.597940 0.082643 0.007599
0.645624 0.083314 0.088472
0.693950 0.118334 0.166873
0.733989 0.160128 0.241794
0.768521 0.207645 0.313054
0.799100 0.261387 0.382589
0.825345 0.316899 0.453742
0.848280 0.376043 0.524544
0.870741 0.441123 0.589532
0.893904 0.512749 0.648981
0.916259 0.587427 0.703380
0.936843 0.658000 0.750103
0.953033 0.717968 0.785641
0.965148 0.770306 0.812406
0.031251 0.041245 0.035203
0.031678 0.035981 0.033539
0.031678 0.035981 0.033539
0.031678 0.035981 0.033539
0.031678 0.035981 0.033539
0.031372 0.040986 0.036027
0.029679 0.044892 0.037903
0.040757 0.047913 0.038697
0.060944 0.052552 0.039033
0.078370 0.059007 0.038590
0.104479 0.066835 0.037598
0.147066 0.073732 0.033204
0.194232 0.080354 0.016175
0.243000 0.088106 0.000504
0.295598 0.097063 0.000000
0.350561 0.104097 0.000000
0.404944 0.110887 0.000000
0.463233 0.118914 0.000000
0.540673 0.125780 0.000000
0.601923 0.116732 0.000000
0.643885 0.087923 0.050874
0.693370 0.121065 0.146777
0.734188 0.162005 0.228061
0.768902 0.209094 0.303761
0.799374 0.262669 0.376074
0.825559 0.317845 0.448966
0.848493 0.376791 0.521157
0.870909 0.441779 0.587488
0.894057 0.513283 0.647501
0.916381 0.587808 0.702388
0.936950 0.658381 0.749493
0.953079 0.718105 0.785336
0.965194 0.770443 0.812253
0.030259 0.054581 0.042283
0.032502 0.048112 0.036240
0.032746 0.045640 0.035325
0.032761 0.043473 0.034745
0.032715 0.041321 0.034379
0.033249 0.042756 0.033616
0.028992 0.045274 0.037934
0.031708 0.047440 0.038804
0.051133 0.051041 0.039506
0.072221 0.057847 0.039155
0.094225 0.066667 0.038285
0.135576 0.074739 0.034668
0.185580 0.081941 0.019959
0.236606 0.091035 0.001831
0.290791 0.101396 0.000000
0.347509 0.109056 0.000000
0.403601 0.116274 0.000000
0.455467 0.123400 0.000000
0.531212 0.134554 0.000000
0.603113 0.138277 0.000000
0.645350 0.102251 0.023926
0.692363 0.123033 0.126238
0.734325 0.163653 0.214862
0.769223 0.210300 0.295003
0.799619 0.263752 0.370245
0.825803 0.318776 0.444587
0.848646 0.377371 0.518242
0.871077 0.442451 0.585611
0.894209 0.513848 0.646174
0.916564 0.588449 0.701564
0.937072 0.658747 0.748989
0.953170 0.718456 0.785183
0.965225 0.770596 0.812100
0.017502 0.068803 0.047242
0.032166 0.058778 0.038636
0.033707 0.055528 0.037934
0.032441 0.053086 0.037507
0.031830 0.050996 0.037140
0.030671 0.050462 0.037339
0.030655 0.053117 0.037369
0.034806 0.055253 0.040681
0.053452 0.059098 0.041276
0.073182 0.064836 0.040085
0.092088 0.072038 0.039277
0.128954 0.078477 0.035569
0.177142 0.083528 0.023667
0.230488 0.093645 0.003799
0.286305 0.104814 0.000015
0.344549 0.113207 0.000000
0.402182 0.120867 0.000000
0.455497 0.128359 0.000000
0.514031 0.137240 0.000000
0.599069 0.147433 0.000000
0.649485 0.123949 0.008835
0.691371 0.124605 0.105364
0.734478 0.165042 0.202228
0.769558 0.211536 0.286625
0.799893 0.264546 0.364416
0.826001 0.319509 0.440513
0.848814 0.377951 0.515511
0.871214 0.442924 0.583841
0.894301 0.514153 0.644907
0.916625 0.588586 0.700755
0.937194 0.659144 0.748486
0.953216 0.718578 0.784833
0.965270 0.770748 0.812009
0.002884 0.083726 0.051057
0.018219 0.072786 0.039979
0.023560 0.067826 0.039338
0.024994 0.063951 0.038895
0.028351 0.060746 0.038529
0.030152 0.058900 0.038254
0.030396 0.061280 0.040421
0.038651 0.065217 0.039551
0.056123 0.069337 0.042130
0.075456 0.076402 0.041215
0.094789 0.084596 0.038895
0.132097 0.091737 0.034287
0.181109 0.097093 0.020417
0.230365 0.102159 0.003525
0.281941 0.107515 0.000031
0.341253 0.116701 0.000000
0.400793 0.125078 0.000000
0.455406 0.132845 0.000000
0.505272 0.139971 0.000000
0.591394 0.151232 0.000000
0.653101 0.142229 0.000000
0.690486 0.126711 0.079973
0.734371 0.166217 0.188693
0.769818 0.212543 0.278401
0.800046 0.265126 0.358907
0.826139 0.320043 0.436591
0.848981 0.378561 0.512932
0.871336 0.443397 0.582193
0.894453 0.514748 0.643824
0.916732 0.588983 0.700008
0.937240 0.659312 0.748028
0.953262 0.718730 0.784573
0.965301 0.770901 0.811902
0.000000 0.099626 0.055711
0.004288 0.088136 0.041825
0.008042 0.083482 0.040787
0.009598 0.079988 0.040101
0.014679 0.077012 0.040147
0.019181 0.074525 0.040620
0.030167 0.075593 0.040238
0.045823 0.079652 0.041962
0.061494 0.084169 0.040223
0.077928 0.089464 0.041611
0.097993 0.097932 0.038621
0.135531 0.105745 0.032013
0.185611 0.112352 0.015427
0.237064 0.119341 0.001328
0.288701 0.124636 0.000000
0.340810 0.124758 0.000000
0.398978 0.129732 0.000000
0.455146 0.137865 0.000000
0.506020 0.145357 0.000000
0.579705 0.157778 0.000000
0.656809 0.161944 0.000000
0.691493 0.136187 0.043778
0.734035 0.167315 0.170977
0.770123 0.213596 0.268025
0.800381 0.266026 0.352148
0.826337 0.320897 0.431785
0.849134 0.379080 0.509667
0.871443 0.443824 0.580102
0.894545 0.515053 0.642435
0.916854 0.589364 0.699016
0.937346 0.659663 0.747417
0.953323 0.718853 0.784222
0.965347 0.771038 0.811749
0.000000 0.116548 0.063935
0.000046 0.104295 0.044877
0.000214 0.100374 0.043091
0.002014 0.097917 0.041978
0.005768 0.095644 0.042634
0.020432 0.093736 0.042954
0.034577 0.091859 0.043229
0.054322 0.096086 0.041276
0.070054 0.101900 0.040726
0.085832 0.107195 0.037736
0.102327 0.112459 0.038010
0.139559 0.120790 0.029663
0.190158 0.128588 0.011322
0.243610 0.137453 0.000076
0.297215 0.144610 0.000000
0.351370 0.147265 0.000000
0.404364 0.145754 0.000000
0.454459 0.144045 0.000000
0.506676 0.151614 0.000000
0.556558 0.158328 0.000000
0.652354 0.173693 0.000000
0.693935 0.148714 0.003433
0.733501 0.168551 0.145708
0.770413 0.214694 0.253086
0.800778 0.267109 0.342779
0.826642 0.321782 0.425330
0.849378 0.379950 0.505470
0.871656 0.444633 0.577523
0.894759 0.515801 0.640742
0.917037 0.589960 0.697826
0.937469 0.660029 0.746715
0.953414 0.719173 0.783841
0.965377 0.771176 0.811551
0.000000 0.138628 0.076204
0.000000 0.123751 0.049744
0.000000 0.119173 0.045335
0.000000 0.116991 0.043793
0.003357 0.115053 0.044480
0.018433 0.113268 0.044617
0.032059 0.111650 0.044465
0.048905 0.112261 0.043290
0.075517 0.118242 0.039429
0.095201 0.125826 0.036286
0.115557 0.132357 0.029648
0.144320 0.137026 0.025666
0.194858 0.146426 0.006912
0.249836 0.157153 0.000015
0.305287 0.165972 0.000000
0.361868 0.170764 0.000000
0.417884 0.171511 0.000000
0.466911 0.167742 0.000000
0.507225 0.158999 0.000000
0.558282 0.165896 0.000000
0.635065 0.180911 0.000000
0.702632 0.178180 0.000015
0.733623 0.173465 0.109010
0.770596 0.216022 0.230793
0.801221 0.268284 0.329839
0.826932 0.322637 0.416617
0.849668 0.380911 0.499718
0.871855 0.445319 0.573892
0.894942 0.516457 0.638346
0.917281 0.590768 0.696330
0.937636 0.660563 0.745754
0.953521 0.719463 0.783307
0.965469 0.771481 0.811322
0.000000 0.166690 0.097932
0.000000 0.149279 0.057435
0.000000 0.142611 0.046082
0.000000 0.140871 0.043824
0.004898 0.139147 0.040772
0.019440 0.137499 0.040848
0.035081 0.135882 0.041459
0.051637 0.134661 0.041474
0.075090 0.136950 0.039551
0.097230 0.145602 0.030839
0.126741 0.155489 0.019089
0.161944 0.164340 0.004456
0.200061 0.167895 0.000015
0.255818 0.180575 0.000031
0.312917 0.191180 0.000000
0.371496 0.197925 0.000000
0.430014 0.200534 0.000000
0.482841 0.199405 0.000000
0.526101 0.192996 0.000000
0.562417 0.178408 0.000000
0.608209 0.183795 0.000000
0.702998 0.204242 0.000000
0.736049 0.185962 0.047150
0.770565 0.217060 0.197177
0.801770 0.269429 0.310842
0.827390 0.324010 0.404669
0.850050 0.382040 0.491249
0.872175 0.446540 0.569207
0.895247 0.517510 0.635248
0.917510 0.591485 0.694209
0.937804 0.661067 0.744488
0.953658 0.719921 0.782589
0.965545 0.771740 0.810864
0.000000 0.198352 0.125307
0.000000 0.180011 0.065934
0.000000 0.170382 0.051377
0.000000 0.169131 0.045182
0.001068 0.168139 0.039261
0.006531 0.167010 0.033341
0.022156 0.166125 0.028916
0.043839 0.165179 0.028763
0.065354 0.163485 0.029954
0.091554 0.168872 0.020264
0.129534 0.181445 0.002090
0.174823 0.195209 0.000412
0.224506 0.207385 0.000229
0.260777 0.207401 0.000000
0.319142 0.219821 0.000000
0.379583 0.228687 0.000000
0.440604 0.233845 0.000000
0.496742 0.235370 0.000000
0.543542 0.231647 0.000000
0.584375 0.221317 0.000000
0.616876 0.203586 0.000000
0.665080 0.209277 0.000000
0.745998 0.216495 0.000000
0.771893 0.225071 0.150256
0.802563 0.270375 0.282185
0.827924 0.325505 0.387701
0.850553 0.383505 0.479667
0.872541 0.447761 0.562631
0.895644 0.518883 0.631006
0.917861 0.592630 0.691585
0.938079 0.661967 0.742809
0.953872 0.720531 0.781674
0.965652 0.772168 0.810315
0.000000 0.233570 0.158434
0.000000 0.215045 0.094606
0.000000 0.205600 0.063188
0.000000 0.199680 0.052811
0.000031 0.199588 0.047059
0.000015 0.199207 0.033646
0.006165 0.198703 0.018646
0.027298 0.199069 0.009018
0.052186 0.198993 0.000381
0.080796 0.198474 0.002853
0.123690 0.208637 0.000320
0.177096 0.224933 0.000061
0.235859 0.240833 0.000046
0.293202 0.255161 0.000000
0.324468 0.249058 0.000000
0.385992 0.259861 0.000000
0.448890 0.267308 0.000000
0.507652 0.271214 0.000000
0.557656 0.270802 0.000000
0.602304 0.264775 0.000000
0.639841 0.253162 0.000000
0.665751 0.234272 0.000000
0.738064 0.244999 0.000000
0.774090 0.237018 0.059480
0.803525 0.272328 0.236316
0.828870 0.326513 0.362020
0.851179 0.385122 0.463462
0.873091 0.449348 0.552331
0.896071 0.520302 0.625315
0.918318 0.594141 0.687953
0.938430 0.663020 0.740688
0.954055 0.721065 0.780362
0.965774 0.772564 0.809598
0.000000 0.273091 0.195438
0.000000 0.256168 0.141909
0.000000 0.248264 0.107683
0.000000 0.240345 0.073136
0.000000 0.234379 0.053681
0.000000 0.234989 0.047471
0.000000 0.235172 0.036957
0.000000 0.235645 0.022660
0.005737 0.236957 0.005600
0.059342 0.239719 0.000061
0.108644 0.240848 0.000000
0.168063 0.255268 0.000000
0.236484 0.273472 0.000000
0.303899 0.292576 0.000000
0.366781 0.309071 0.000000
0.409613 0.305303 0.000000
0.455207 0.301244 0.000000
0.516533 0.307393 0.000000
0.569451 0.309468 0.000000
0.617060 0.306722 0.000000
0.657908 0.299062 0.000000
0.688624 0.286519 0.000000
0.708568 0.266819 0.000000
0.789822 0.278111 0.000000
0.806241 0.282506 0.166903
0.830198 0.327001 0.321096
0.851972 0.386648 0.439582
0.873793 0.451148 0.537774
0.896620 0.521996 0.616938
0.918914 0.595987 0.683085
0.938872 0.664408 0.737743
0.954360 0.721935 0.778759
0.965972 0.773266 0.808713
0.000000 0.318288 0.240604
0.000000 0.305837 0.194919
0.000000 0.298665 0.169802
0.000000 0.292500 0.144137
0.000000 0.286412 0.115938
0.000000 0.280110 0.083894
0.000000 0.276829 0.061662
0.000000 0.278065 0.047547
0.000000 0.280003 0.023362
0.011948 0.283177 0.003052
0.071961 0.287144 0.000015
0.142550 0.290578 0.000000
0.223301 0.308888 0.000000
0.302281 0.330755 0.000000
0.376089 0.352392 0.000000
0.442664 0.367514 0.000015
0.496880 0.365911 0.000000
0.528511 0.349371 0.000000
0.580240 0.350484 0.000000
0.630488 0.350240 0.000000
0.674022 0.345251 0.000000
0.707927 0.336568 0.000000
0.746395 0.330083 0.000000
0.788739 0.320012 0.000000
0.813489 0.298192 0.001053
0.834424 0.335744 0.259571
0.853132 0.387808 0.402502
0.874693 0.453208 0.516167
0.897444 0.524193 0.605020
0.919585 0.597986 0.675959
0.939376 0.665873 0.733745
0.954757 0.723064 0.776547
0.966201 0.774090 0.807507
0.000000 0.367529 0.292576
0.000000 0.360037 0.253880
0.000000 0.355962 0.233738
0.000000 0.351888 0.215122
0.000000 0.347509 0.196933
0.000000 0.343130 0.178149
0.000000 0.338430 0.156939
0.000000 0.333486 0.132235
0.000000 0.326604 0.093660
0.000092 0.330358 0.058915
0.000885 0.336431 0.015991
0.069169 0.345006 0.001770
0.185992 0.349294 0.000000
0.285008 0.373129 0.000000
0.372656 0.397360 0.000000
0.448966 0.416205 0.000076
0.518715 0.427955 0.000000
0.583642 0.432212 0.000000
0.629038 0.424765 0.000000
0.663096 0.411536 0.000000
0.701671 0.402625 0.000000
0.748363 0.403265 0.000000
0.793439 0.403998 0.000000
0.825742 0.393744 0.000000
0.842435 0.368627 0.000000
0.837034 0.341543 0.117769
0.857420 0.394446 0.345418
0.875822 0.454612 0.480644
0.898451 0.526543 0.587518
0.920455 0.600198 0.665400
0.940108 0.668040 0.728420
0.955261 0.724468 0.773632
0.966506 0.775174 0.805844
0.000000 0.420371 0.352636
0.000000 0.416495 0.320012
0.000000 0.414313 0.303334
0.000000 0.412131 0.288441
0.000000 0.410071 0.273915
0.000000 0.407965 0.259693
0.000000 0.405493 0.246250
0.000000 0.402762 0.232212
0.000000 0.398932 0.213367
0.000000 0.392966 0.183871
0.000000 0.384115 0.132616
0.000000 0.392874 0.083284
0.086168 0.404700 0.016953
0.237598 0.415137 0.000000
0.350759 0.442527 0.000000
0.442588 0.464179 0.000000
0.521477 0.478950 0.003922
0.594186 0.489815 0.000015
0.667231 0.501747 0.000000
0.717403 0.497261 0.000000
0.761212 0.489189 0.000000
0.800412 0.483970 0.000000
0.835157 0.480812 0.000000
0.862425 0.472679 0.000000
0.873106 0.448981 0.000000
0.864683 0.406989 0.005768
0.864393 0.403723 0.234150
0.879042 0.459541 0.425345
0.899718 0.528206 0.555962
0.921447 0.602396 0.649882
0.940948 0.670130 0.719203
0.955917 0.726253 0.769604
0.966903 0.776516 0.803677
0.000000 0.471244 0.414740
0.000000 0.470558 0.389517
0.000000 0.470176 0.376089
0.000000 0.469444 0.364416
0.000000 0.468605 0.353704
0.000000 0.467628 0.343389
0.000000 0.467262 0.333349
0.000000 0.466545 0.323232
0.000000 0.465370 0.310155
0.000000 0.463340 0.291508
0.000000 0.459480 0.263310
0.000000 0.451789 0.218479
0.001007 0.451957 0.162463
0.103716 0.463264 0.085435
0.290211 0.476295 0.004334
0.414389 0.504387 0.000000
0.510369 0.524376 0.010880
0.594064 0.538735 0.013397
0.664820 0.550317 0.045090
0.735332 0.558541 0.000000
0.792447 0.560555 0.000000
0.837430 0.558389 0.000000
0.869245 0.553445 0.000000
0.891646 0.543954 0.000000
0.901503 0.526635 0.000000
0.896971 0.498817 0.000336
0.888457 0.468544 0.138857
0.888365 0.472145 0.328206
0.902113 0.530388 0.501381
0.922728 0.603983 0.624247
0.941894 0.672206 0.705760
0.956634 0.728115 0.762631
0.967407 0.778241 0.800717
0.000000 0.518730 0.474235
0.000000 0.521385 0.455756
0.000000 0.522316 0.446616
0.000000 0.523278 0.438697
0.000000 0.523949 0.431174
0.000000 0.524193 0.423926
0.000000 0.524407 0.417136
0.000000 0.524559 0.410346
0.000000 0.524483 0.401862
0.000000 0.524620 0.389929
0.000000 0.524178 0.372320
0.000000 0.522606 0.345296
0.000000 0.518364 0.302541
0.000610 0.508125 0.227680
0.134798 0.522560 0.166827
0.344289 0.532235 0.049989
0.475578 0.559152 0.036271
0.579370 0.581979 0.064942
0.662058 0.596628 0.103685
0.726284 0.606363 0.111986
0.789670 0.605188 0.000046
0.844587 0.607874 0.000000
0.882612 0.606958 0.000000
0.907652 0.601526 0.000000
0.920836 0.591196 0.000000
0.923400 0.576623 0.037751
0.921950 0.563302 0.175097
0.916365 0.543297 0.270283
0.911254 0.544137 0.413352
0.924315 0.603632 0.575784
0.942992 0.673701 0.683650
0.957443 0.730144 0.751736
0.968002 0.779980 0.795743
0.000000 0.566522 0.532662
0.000000 0.571878 0.518364
0.000000 0.573831 0.511742
0.000000 0.575174 0.506310
0.000000 0.576455 0.501305
0.000000 0.577661 0.496834
0.000000 0.578622 0.492393
0.000000 0.579446 0.488014
0.000000 0.580331 0.482506
0.000000 0.581430 0.475074
0.000000 0.582483 0.464714
0.000000 0.583474 0.449760
0.000000 0.583230 0.425422
0.000000 0.580972 0.385794
0.005890 0.572519 0.312352
0.198062 0.582681 0.238926
0.402029 0.592569 0.139422
0.540749 0.620966 0.145235
0.645884 0.641382 0.160891
0.723354 0.656626 0.202152
0.784665 0.664149 0.218570
0.838743 0.656672 0.107912
0.882109 0.655024 0.033005
0.912596 0.652949 0.019425
0.931258 0.648081 0.053117
0.939986 0.641123 0.130297
0.945830 0.638758 0.221820
0.945357 0.631785 0.302876
0.938659 0.614710 0.373953
0.932097 0.615610 0.494163
0.944305 0.672892 0.643305
0.958465 0.731945 0.733410
0.968719 0.781842 0.787472
0.000000 0.614130 0.589059
0.000000 0.620905 0.578363
0.000000 0.623453 0.573495
0.000000 0.625391 0.569619
0.000000 0.626902 0.566064
0.000000 0.628183 0.562997
0.000000 0.629297 0.559899
0.000000 0.630365 0.557061
0.000000 0.631495 0.553277
0.000000 0.632670 0.548089
0.000000 0.634195 0.541222
0.000000 0.635843 0.531640
0.000000 0.637598 0.517800
0.000000 0.638498 0.496376
0.000000 0.637583 0.461540
0.000000 0.631617 0.395789
0.262348 0.639139 0.310109
0.462409 0.653193 0.227008
0.607553 0.680583 0.233829
0.706630 0.698909 0.252583
0.779812 0.711833 0.281590
0.836942 0.719005 0.301091
0.883101 0.712642 0.234516
0.916152 0.708049 0.186938
0.939483 0.706065 0.183703
0.954986 0.705837 0.224475
0.962570 0.705867 0.282246
0.964309 0.703700 0.345083
0.962036 0.696788 0.407324
0.954971 0.680476 0.466133
0.950042 0.681422 0.571649
0.959838 0.732418 0.698955
0.969650 0.783688 0.773342
0.000000 0.660121 0.641489
0.000000 0.666316 0.633646
0.000000 0.668696 0.630152
0.000000 0.670451 0.627268
0.000000 0.671855 0.624842
0.000000 0.673106 0.622614
0.000000 0.674144 0.620508
0.000000 0.675135 0.618555
0.000000 0.676249 0.616159
0.000000 0.677653 0.612909
0.000015 0.679118 0.608225
0.000046 0.680644 0.601480
0.000061 0.682475 0.592004
0.000061 0.684428 0.578408
0.000336 0.686381 0.558846
0.028260 0.686549 0.526833
0.097139 0.683650 0.470466
0.338704 0.689952 0.383841
0.523995 0.705959 0.308858
0.669825 0.731975 0.316930
0.761196 0.748012 0.335348
0.830564 0.759548 0.362402
0.879118 0.767437 0.383307
0.917845 0.763073 0.338064
0.945357 0.760433 0.315007
0.963317 0.760632 0.320623
0.972976 0.761852 0.350515
0.976516 0.762600 0.393606
0.977050 0.761852 0.444282
0.974334 0.757336 0.497581
0.968307 0.742504 0.548913
0.964752 0.741207 0.639567
0.970825 0.784360 0.744640
0.000000 0.700648 0.685420
0.000000 0.705684 0.679850
0.000000 0.707408 0.677211
0.000000 0.708644 0.675181
0.000000 0.709743 0.673365
0.000000 0.710689 0.671809
0.000000 0.711528 0.670314
0.000000 0.712215 0.668940
0.000000 0.713115 0.667308
0.000000 0.714229 0.665049
0.000000 0.715618 0.662211
0.000000 0.717418 0.658366
0.000000 0.719387 0.652934
0.000031 0.721508 0.644404
0.000046 0.723949 0.632044
0.000031 0.726360 0.613977
0.075135 0.728511 0.586160
0.216709 0.729015 0.538155
0.398871 0.732921 0.455970
0.586648 0.749874 0.389487
0.722713 0.773831 0.398917
0.810422 0.788251 0.416434
0.871717 0.799573 0.441550
0.910964 0.807416 0.462165
0.942519 0.803922 0.429053
0.964508 0.802915 0.416831
0.976928 0.804425 0.426307
0.983108 0.806806 0.451865
0.985870 0.808942 0.489204
0.986007 0.810590 0.532998
0.984039 0.809567 0.579614
0.979706 0.797467 0.622873
0.975082 0.793042 0.693339
0.000000 0.733867 0.720195
0.000000 0.737758 0.716182
0.000000 0.739147 0.714260
0.000000 0.740200 0.712825
0.000000 0.741039 0.711513
0.000000 0.741863 0.710369
0.000000 0.742535 0.709331
0.000000 0.743160 0.708354
0.000000 0.743877 0.707195
0.000000 0.744854 0.705653
0.000000 0.746014 0.703563
0.000000 0.747570 0.700908
0.000000 0.749432 0.697459
0.001328 0.751781 0.692866
0.038834 0.754650 0.686549
0.087617 0.757778 0.677134
0.154711 0.761517 0.663630
0.239033 0.765316 0.642313
0.334722 0.767468 0.601923
0.462638 0.768933 0.522850
0.644846 0.786618 0.466499
0.771725 0.808515 0.475868
0.852796 0.822171 0.491554
0.903044 0.833082 0.515541
0.935729 0.840360 0.536049
0.961181 0.838361 0.511894
0.976928 0.838483 0.506264
0.985245 0.840375 0.516777
0.990295 0.843442 0.540383
0.992187 0.846662 0.574197
0.992126 0.849485 0.613382
0.991379 0.849699 0.651774
0.987060 0.840024 0.682322
0.000000 0.762646 0.747570
0.000000 0.765621 0.744595
0.004578 0.766766 0.743282
0.011536 0.767651 0.742290
0.017182 0.768368 0.741543
0.022446 0.769009 0.740810
0.027298 0.769604 0.740093
0.031235 0.770077 0.739513
0.036683 0.770748 0.738796
0.043778 0.771557 0.737743
0.052506 0.772580 0.736568
0.064195 0.773846 0.734844
0.079484 0.775509 0.732754
0.100099 0.777630 0.729931
0.126970 0.780179 0.726177
0.170886 0.783627 0.722118
0.228412 0.787762 0.716228
0.296391 0.792508 0.707057
0.366705 0.797406 0.691569
0.432547 0.800443 0.660029
0.527779 0.800381 0.585245
0.697658 0.818387 0.537209
0.818219 0.838529 0.545281
0.887175 0.851545 0.561578
0.928786 0.861585 0.585657
0.956024 0.868711 0.606561
0.975250 0.867658 0.587747
0.985489 0.868101 0.585351
0.991760 0.870176 0.596811
0.995193 0.873396 0.619272
0.996048 0.876692 0.649363
0.996597 0.879332 0.681315
0.994919 0.878660 0.707362
0.058244 0.787945 0.767788
0.072175 0.790249 0.765835
0.078019 0.791165 0.765026
0.086809 0.791928 0.764630
0.095705 0.792538 0.764431
0.104555 0.793149 0.764233
0.112337 0.793698 0.764096
0.119142 0.794156 0.763912
0.127001 0.794690 0.763684
0.137621 0.795438 0.763455
0.151064 0.796368 0.763104
0.168338 0.797589 0.762631
0.190112 0.799130 0.762005
0.216327 0.800992 0.761166
0.250370 0.803449 0.759976
0.290852 0.806409 0.758236
0.331350 0.810025 0.755947
0.367102 0.814237 0.751965
