luts/apple-log/33x/Apple_LOG_to_Fujifilm_3513DI_D55_Rec709_G2-4.cube
TITLE "Apple LOG to Fujifilm 3513DI D55 Rec709 G2-4"
#  
# Apple LOG to Rec.709 Hybrid LUT
#  
# This hybrid LUT converts Apple LOG to Rec.709 Gamma 2.4
#  
# Based on an original creative LUT included in DaVinci Resolve, adapted for a different color space.  
#  
# Created by Tobia Montanari | tobiamontanari.com
#  
# 
LUT_3D_SIZE 5
0.031678 0.035981 0.033539
0.147234 0.054475 0.037858
0.456123 0.003159 0.080964
0.797086 0.252415 0.418662
0.964843 0.769085 0.813382
0.000000 0.099626 0.055711
0.061494 0.084169 0.040223
0.398978 0.129732 0.000000
0.800381 0.266026 0.352148
0.965347 0.771038 0.811749
0.000000 0.367529 0.292576
0.000000 0.326604 0.093660
0.518715 0.427955 0.000000
0.842435 0.368627 0.000000
0.966506 0.775174 0.805844
0.000000 0.733867 0.720195
0.000000 0.743877 0.707195
0.154711 0.761517 0.663630
0.935729 0.840360 0.536049
0.987060 0.840024 0.682322
0.734478 0.903807 0.854597
0.740414 0.904936 0.855039
0.753429 0.907362 0.856031
0.832380 0.921981 0.860822
1.000000 0.951324 0.867460
0.025421 0.038361 0.089555
0.142611 0.045762 0.132448
0.461143 0.000061 0.219028
0.792966 0.236927 0.462684
0.964446 0.767651 0.814939
0.000000 0.107454 0.113390
0.049736 0.094045 0.089550
0.430142 0.047968 0.078653
0.793172 0.258094 0.420244
0.964920 0.769436 0.813367
0.000000 0.380957 0.375113
0.000000 0.371444 0.302968
0.509760 0.428833 0.076851
0.819106 0.341468 0.209322
0.966125 0.773907 0.808392
0.000000 0.730312 0.729000
0.020049 0.738271 0.712827
0.147290 0.758284 0.679283
0.930860 0.838810 0.547989
0.986435 0.842145 0.702022
0.732296 0.903410 0.854475
0.738460 0.904585 0.854948
0.751614 0.907042 0.855955
0.831220 0.921813 0.860945
1.000000 0.951354 0.867689
0.000000 0.000000 0.323110
0.187411 0.000000 0.316304
0.478889 0.000427 0.374289
0.797162 0.248249 0.539666
0.963546 0.764202 0.818586
0.000000 0.163424 0.370748
0.000005 0.058461 0.337370
0.449526 0.022675 0.357205
0.796726 0.267540 0.520534
0.964004 0.766018 0.817182
0.000000 0.409155 0.491264
0.000000 0.413816 0.487266
0.482143 0.486059 0.471419
0.816624 0.348545 0.460532
0.965209 0.770703 0.813489
0.000000 0.726314 0.746990
0.003298 0.735319 0.733365
0.108424 0.758436 0.712393
0.929054 0.844594 0.581198
0.984878 0.844327 0.737743
0.727413 0.902525 0.854246
0.733349 0.903655 0.854704
0.747326 0.906294 0.855772
0.828305 0.921340 0.861067
1.000000 0.951446 0.868101
0.000000 0.078004 0.560128
0.061723 0.006989 0.538140
0.484520 0.000015 0.580072
0.816449 0.317571 0.692592
0.965560 0.775998 0.840452
0.000000 0.234882 0.612085
0.000000 0.107569 0.568143
0.426254 0.073565 0.595973
0.814130 0.326989 0.692037
0.966003 0.777844 0.840208
0.000000 0.480751 0.702983
0.000000 0.458786 0.694092
0.253883 0.500398 0.707037
0.822927 0.375280 0.701306
0.967025 0.782162 0.839475
0.000000 0.765667 0.791150
0.076312 0.769986 0.788357
0.158009 0.783898 0.788156
0.914168 0.888948 0.824386
0.982025 0.851667 0.836271
0.707057 0.899001 0.853742
0.713451 0.900236 0.854276
0.728145 0.903044 0.855482
0.814969 0.919341 0.862165
1.000000 0.952041 0.871275
0.000000 0.501259 0.739345
0.000000 0.485359 0.734386
0.000000 0.433112 0.717723
0.835584 0.453361 0.777768
0.975738 0.826581 0.865354
0.000000 0.514565 0.743832
0.000000 0.501411 0.739391
0.000000 0.458045 0.725765
0.836851 0.473777 0.782650
0.975906 0.827375 0.865476
0.000000 0.556542 0.757519
0.000000 0.551537 0.756680
0.000000 0.531426 0.750469
0.836942 0.521859 0.792996
0.976287 0.829297 0.865766
0.000000 0.620844 0.776608
0.000000 0.620691 0.776562
0.000000 0.620325 0.776455
0.845258 0.891661 0.863615
0.983352 0.865507 0.871138
0.802487 0.917845 0.865080
0.805035 0.918349 0.865309
0.810834 0.919463 0.865873
0.849653 0.927016 0.869596
1.000000 0.954604 0.884871
