luts/apple-log/33x/Apple_LOG_to_Fujifilm_3513DI_D60_Rec709_G2-4.cube
TITLE "Apple LOG to Fujifilm 3513DI D60 Rec709 G2-4"
#  
# Apple LOG to Rec.709 Hybrid LUT
#  
# This hybrid LUT converts Apple LOG to Rec.709 Gamma 2.4
#  
# Based on an original creative LUT included in DaVinci Resolve, adapted for a different color space.  
#  
# Created by Tobia Montanari | tobiamontanari.com
#  
#  
# 
LUT_3D_SIZE 5
0.030533 0.036622 0.035416
0.149020 0.056214 0.041321
0.461784 0.004837 0.090333
0.807050 0.260685 0.447562
0.969131 0.789075 0.868650
0.000000 0.102281 0.059815
0.060075 0.086275 0.043641
0.403052 0.132143 0.000000
0.810407 0.274708 0.377600
0.969635 0.791089 0.866941
0.000000 0.378088 0.315190
0.000000 0.335470 0.107759
0.520241 0.437064 0.000046
0.850889 0.376562 0.000000
0.970794 0.795346 0.860746
0.000000 0.753079 0.770901
0.000076 0.763577 0.757733
0.088060 0.781079 0.709789
0.938323 0.862516 0.577569
0.990707 0.862074 0.731167
0.725689 0.926863 0.912795
0.731884 0.928023 0.913298
0.745403 0.930541 0.914397
0.827298 0.945632 0.919753
1.000000 0.975906 0.927413
0.023179 0.038483 0.095155
0.144030 0.046983 0.141009
0.467201 0.000122 0.233494
0.802808 0.244709 0.493996
0.968750 0.787594 0.870283
0.000000 0.110491 0.121981
0.046444 0.096318 0.095527
0.435698 0.053149 0.088253
0.802930 0.266667 0.449314
0.969207 0.789441 0.868635
0.000000 0.391531 0.401160
0.000000 0.381118 0.324425
0.511788 0.439640 0.095691
0.828835 0.351929 0.231942
0.970397 0.794034 0.863416
0.000000 0.749310 0.780240
0.003511 0.757541 0.763143
0.108534 0.778008 0.726902
0.933316 0.860900 0.590161
0.989944 0.864210 0.751904
0.723400 0.926452 0.912673
0.729839 0.927657 0.913191
0.743526 0.930205 0.914305
0.826078 0.945449 0.919890
1.000000 0.975952 0.927642
0.000000 0.000000 0.345632
0.187396 0.000000 0.335882
0.484627 0.000443 0.397711
0.806790 0.255970 0.575525
0.967849 0.784039 0.874113
0.000000 0.167178 0.396811
0.000008 0.046986 0.358974
0.455007 0.023816 0.380194
0.806217 0.275942 0.555362
0.968307 0.785916 0.872648
0.000000 0.418051 0.523537
0.000000 0.424146 0.520492
0.480970 0.498539 0.503585
0.825901 0.358716 0.492407
0.969482 0.790738 0.868772
0.000000 0.744656 0.798840
0.000000 0.754543 0.785178
0.069596 0.778146 0.762361
0.931211 0.866792 0.624935
0.988220 0.866423 0.789548
0.718303 0.925536 0.912398
0.724498 0.926696 0.912902
0.739071 0.929427 0.914092
0.823072 0.944961 0.919997
1.000000 0.976028 0.928084
0.000000 0.031968 0.594797
0.012085 0.005829 0.572839
0.488899 0.000031 0.616098
0.825330 0.326070 0.737896
0.969665 0.796124 0.897337
0.000000 0.226108 0.649912
0.000000 0.084542 0.603177
0.429675 0.072619 0.634051
0.822775 0.335670 0.737335
0.970062 0.798016 0.897093
0.000000 0.491279 0.750393
0.000000 0.466723 0.739549
0.235593 0.512281 0.753453
0.831220 0.385206 0.747350
0.971023 0.802457 0.896345
0.000000 0.785306 0.846494
0.060784 0.789702 0.843080
0.136953 0.804045 0.842644
0.913585 0.911901 0.881159
0.984619 0.873747 0.893568
0.697047 0.921889 0.911803
0.703716 0.923156 0.912383
0.719051 0.926070 0.913710
0.809216 0.942901 0.921126
1.000000 0.976638 0.931441
0.000000 0.510185 0.787442
0.000000 0.494194 0.782742
0.000000 0.442359 0.766445
0.842939 0.465034 0.828733
0.978683 0.847944 0.924086
0.000000 0.523522 0.791867
0.000000 0.510353 0.787472
0.000000 0.466926 0.774441
0.843931 0.485969 0.833997
0.978821 0.848768 0.924224
0.000000 0.569482 0.808942
0.000000 0.562799 0.806973
0.000000 0.540261 0.798810
0.843168 0.535241 0.845182
0.979156 0.850736 0.924544
0.000000 0.633158 0.827863
0.000000 0.633051 0.827878
0.000000 0.632822 0.827939
0.841794 0.914519 0.922454
0.985504 0.887877 0.930510
0.796246 0.941344 0.924147
0.798886 0.941848 0.924407
0.804898 0.943008 0.925017
0.845121 0.950790 0.929091
0.999969 0.979324 0.945891
