luts/apple-log/33x/Apple_LOG_to_Kodak_2383_D65_Rec709_G2-4.cube
TITLE "Apple LOG to Kodak 2383 D65 Rec709 G2-4"
#  
# Apple LOG to Rec.709 Hybrid LUT
#  
# This hybrid LUT converts Apple LOG to Rec.709 Gamma 2.4
#  
# Based on an original creative LUT included in DaVinci Resolve, adapted for a different color space.  
#  
# Created by Tobia Montanari | tobiamontanari.com
#  
#  
# 
LUT_3D_SIZE 5
0.030106 0.038559 0.046921
0.158602 0.061524 0.053452
0.470253 0.014389 0.099611
0.816739 0.244923 0.456626
0.980911 0.794537 0.892668
0.000000 0.085939 0.073609
0.076448 0.080766 0.054887
0.440665 0.124285 0.000000
0.819776 0.260975 0.385916
0.981414 0.797040 0.889464
0.000000 0.342153 0.283360
0.000000 0.324987 0.124422
0.526772 0.439582 0.004669
0.871992 0.379629 0.000000
0.982727 0.802548 0.878904
0.000000 0.743343 0.751766
0.000000 0.756436 0.736919
0.000000 0.780621 0.681514
0.959457 0.893980 0.533364
1.000000 0.880186 0.684733
0.727626 0.956024 0.971984
0.734188 0.957137 0.972244
0.747921 0.959350 0.972641
0.830503 0.972229 0.971283
1.000000 0.994263 0.944976
0.019120 0.041184 0.092851
0.146044 0.058122 0.132342
0.470054 0.000992 0.235080
0.813016 0.226917 0.503365
0.980514 0.792645 0.895659
0.000000 0.090806 0.117403
0.062800 0.082780 0.094917
0.441294 0.054643 0.100343
0.816251 0.249287 0.456510
0.980972 0.794934 0.892576
0.000000 0.346639 0.361395
0.000000 0.349450 0.292790
0.514788 0.437476 0.099861
0.847312 0.344375 0.236216
0.982254 0.800748 0.883360
0.000000 0.739376 0.764431
0.000000 0.753118 0.751388
0.021485 0.779513 0.706417
0.957076 0.894783 0.550561
1.000000 0.881788 0.711559
0.725216 0.955612 0.972000
0.732021 0.956771 0.972290
0.746014 0.959060 0.972732
0.829252 0.972091 0.971801
1.000000 0.994324 0.945571
0.000000 0.000000 0.303410
0.180804 0.000000 0.317891
0.491600 0.000397 0.403342
0.818677 0.237888 0.588968
0.979583 0.788067 0.902617
0.000000 0.108400 0.333501
0.000009 0.030936 0.332506
0.458622 0.019303 0.381823
0.821604 0.258210 0.568710
0.980026 0.790372 0.899870
0.000000 0.382361 0.492851
0.000000 0.389361 0.490138
0.480174 0.486952 0.503527
0.846580 0.348785 0.503502
0.981186 0.796323 0.892576
0.000000 0.735225 0.791638
0.000000 0.749740 0.782281
0.002402 0.779736 0.754253
0.954232 0.899559 0.591141
0.999390 0.882963 0.762875
0.719799 0.954726 0.972107
0.726345 0.955840 0.972381
0.741466 0.958358 0.972946
0.826154 0.971679 0.972625
1.000000 0.994446 0.946868
0.000000 0.000000 0.581323
0.015518 0.003265 0.575906
0.500816 0.000015 0.643290
0.842176 0.308583 0.778637
0.979751 0.796780 0.937835
0.000000 0.097856 0.616053
0.000000 0.005069 0.583862
0.429673 0.049934 0.656590
0.842624 0.318215 0.779178
0.980102 0.798932 0.937240
0.000000 0.414603 0.738323
0.000000 0.390067 0.728487
0.213577 0.487312 0.785550
0.853147 0.369067 0.790457
0.980926 0.803998 0.935500
0.000000 0.787869 0.882506
0.000720 0.795731 0.881340
0.018183 0.814002 0.880839
0.926479 0.933876 0.916322
0.991928 0.883391 0.919493
0.697063 0.951141 0.973648
0.704128 0.952346 0.974029
0.720348 0.955123 0.974899
0.811765 0.969955 0.977752
1.000000 0.995422 0.956603
0.000000 0.448417 0.809598
0.000000 0.433982 0.804532
0.000000 0.387579 0.787457
0.877394 0.509972 0.897978
0.986068 0.853605 0.975143
0.000000 0.460349 0.813947
0.000000 0.448493 0.809598
0.000000 0.409354 0.795651
0.877989 0.527611 0.902602
0.986175 0.854444 0.975280
0.000000 0.512184 0.833646
0.000000 0.502327 0.830243
0.000000 0.476280 0.820539
0.876020 0.569619 0.912337
0.986435 0.856458 0.975616
0.000000 0.605997 0.862593
0.000000 0.605631 0.862455
0.000000 0.604700 0.862119
0.852445 0.930709 0.981994
0.991150 0.895018 0.981903
0.796231 0.968399 0.987732
0.798871 0.968826 0.987900
0.804913 0.969833 0.988312
0.845029 0.976516 0.991058
1.000000 1.000000 0.999969
