luts/apple-log/33x/Apple_LOG_to_Kodak_2383_D55_Rec709_G2-4.cube
TITLE "Apple LOG to Kodak 2383 D55 Rec709 G2-4"
#  
# Apple LOG to Rec.709 Hybrid LUT
#  
# This hybrid LUT converts Apple LOG to Rec.709 Gamma 2.4
#  
# Based on an original creative LUT included in DaVinci Resolve, adapted for a different color space.  
#  
# Created by Tobia Montanari | tobiamontanari.com
#  
#  
# 
LUT_3D_SIZE 9
0.031342 0.037629 0.042359
0.086320 0.049653 0.046479
0.155154 0.058549 0.045838
0.265339 0.064469 0.038468
0.459373 0.006287 0.082231
0.654124 0.032517 0.203861
0.797894 0.230106 0.403845
0.908110 0.498283 0.626413
0.971939 0.758267 0.790921
0.030716 0.040970 0.044205
0.031342 0.037629 0.042359
0.075990 0.053315 0.038376
0.204501 0.076005 0.011612
0.441291 0.104860 0.000000
0.647837 0.057313 0.059190
0.800015 0.241566 0.362692
0.909529 0.503273 0.614725
0.972320 0.759899 0.788891
0.000000 0.082032 0.064912
0.041581 0.070085 0.048570
0.076783 0.077348 0.048325
0.195392 0.101381 0.022675
0.432227 0.120363 0.000000
0.663737 0.130663 0.000015
0.800809 0.245441 0.339391
0.910140 0.505379 0.608896
0.972503 0.760632 0.787991
0.000000 0.166430 0.118593
0.003479 0.152972 0.062959
0.087465 0.150134 0.049500
0.221622 0.186053 0.025605
0.477546 0.224475 0.000000
0.668498 0.187671 0.000000
0.801816 0.250874 0.271077
0.911528 0.509957 0.595758
0.972854 0.762036 0.785611
0.000000 0.326421 0.249622
0.000000 0.318669 0.170565
0.000000 0.309636 0.102632
0.168383 0.338216 0.000046
0.523812 0.423362 0.000046
0.779156 0.436469 0.000000
0.856580 0.365866 0.000000
0.915038 0.519982 0.547799
0.973877 0.765850 0.778378
0.000000 0.531807 0.461921
0.000000 0.542855 0.432715
0.000000 0.546700 0.414771
0.000000 0.550195 0.360281
0.376287 0.586114 0.071183
0.810620 0.679561 0.115602
0.955306 0.679484 0.006439
0.953902 0.622232 0.314015
0.976699 0.774929 0.750790
0.000000 0.709102 0.662821
0.000015 0.717678 0.653681
0.000015 0.721355 0.649134
0.000015 0.728496 0.638483
0.061128 0.743908 0.598489
0.659861 0.791608 0.383444
0.953796 0.852461 0.460365
0.999847 0.850690 0.445121
0.997009 0.841047 0.602075
0.357382 0.836561 0.794522
0.391608 0.840284 0.794537
0.403433 0.841810 0.794354
0.423865 0.844816 0.793927
0.478691 0.852903 0.792203
0.594430 0.870314 0.780484
0.861997 0.897322 0.645304
0.994537 0.924834 0.702083
1.000000 0.923598 0.702907
0.744213 0.913207 0.861265
0.748302 0.913924 0.861387
0.750225 0.914260 0.861463
0.753811 0.914855 0.861555
0.762982 0.916350 0.861738
0.787091 0.920226 0.861921
0.839826 0.928450 0.860044
0.955169 0.940322 0.811170
1.000000 0.949126 0.835294
0.031128 0.037781 0.044144
0.077394 0.046906 0.068727
0.142489 0.054887 0.095567
0.255222 0.056199 0.121401
0.455833 0.000610 0.173480
0.653300 0.009720 0.274784
0.795499 0.218631 0.434730
0.906920 0.493904 0.636271
0.971633 0.757000 0.792844
0.030594 0.040223 0.045197
0.031681 0.038126 0.042872
0.089387 0.052216 0.048500
0.221912 0.067283 0.044657
0.437690 0.026874 0.077516
0.647917 0.041425 0.202011
0.797501 0.232950 0.403949
0.907710 0.500020 0.625617
0.972015 0.758633 0.790890
0.000015 0.083467 0.088487
0.009174 0.071370 0.060740
0.072694 0.075947 0.055171
0.215247 0.092372 0.034671
0.432865 0.074076 0.000028
0.646055 0.055906 0.149462
0.798526 0.238566 0.386084
0.908367 0.502373 0.620456
0.972183 0.759365 0.789990
0.000000 0.172320 0.165347
0.000000 0.159729 0.118358
0.000757 0.151177 0.076356
0.218344 0.188803 0.053834
0.493257 0.212970 0.000079
0.662067 0.141988 0.004956
0.800275 0.247867 0.339919
0.909664 0.506908 0.608792
0.972534 0.760815 0.788083
0.000000 0.330571 0.301747
0.000000 0.331139 0.255445
0.000000 0.328539 0.219290
0.002026 0.326464 0.096358
0.513970 0.418674 0.027045
0.779629 0.431501 0.000229
0.830906 0.330858 0.123281
0.913225 0.518007 0.566943
0.973526 0.764660 0.781262
0.000000 0.530343 0.487358
0.000000 0.542583 0.465843
0.000000 0.547527 0.452592
0.000000 0.554907 0.414978
0.264961 0.575720 0.181659
0.806107 0.681154 0.186706
0.940777 0.674735 0.167260
0.949349 0.621640 0.381491
0.976379 0.774258 0.755520
0.000000 0.706691 0.671046
0.000000 0.715575 0.662571
0.000003 0.719338 0.658247
0.000006 0.726653 0.648783
0.057993 0.743306 0.614484
0.622141 0.787530 0.409827
0.951943 0.852653 0.471202
0.998575 0.853504 0.481416
0.996231 0.841794 0.619013
0.345846 0.835416 0.795285
0.366061 0.838630 0.794131
0.380508 0.840262 0.793963
0.404550 0.843387 0.793689
0.465061 0.851417 0.792270
0.585040 0.868897 0.781536
0.853144 0.896480 0.650507
0.994043 0.924621 0.703075
1.000000 0.924651 0.711040
0.742718 0.912963 0.861295
0.746822 0.913680 0.861433
0.748745 0.914015 0.861494
0.752483 0.914656 0.861601
0.761852 0.916182 0.861814
0.785977 0.920058 0.862043
0.839048 0.928359 0.860380
0.954116 0.940307 0.812222
1.000000 0.949172 0.835676
0.024414 0.040513 0.083116
0.079271 0.049241 0.087343
0.143206 0.056001 0.117922
0.257496 0.054185 0.152941
0.459449 0.000443 0.209155
0.654627 0.006683 0.299077
0.794324 0.213062 0.446204
0.906432 0.492073 0.640421
0.971496 0.756451 0.793637
0.016938 0.046021 0.055314
0.029096 0.040143 0.069453
0.087089 0.053397 0.080153
0.222077 0.067924 0.098637
0.439960 0.024875 0.134157
0.648923 0.036328 0.242276
0.796399 0.228061 0.419205
0.907149 0.498051 0.630374
0.971878 0.758099 0.791760
0.000015 0.087068 0.103502
0.003879 0.075984 0.087334
0.065644 0.079319 0.084483
0.230540 0.089799 0.078279
0.430463 0.040384 0.081566
0.647126 0.050089 0.202435
0.797528 0.234278 0.403650
0.907808 0.500505 0.625531
0.972015 0.758633 0.790829
0.000000 0.176410 0.186603
0.000000 0.165902 0.153329
0.000000 0.159652 0.123125
0.217203 0.191778 0.076317
0.493547 0.199005 0.057389
0.649232 0.094304 0.071788
0.799554 0.244846 0.363827
0.909105 0.505122 0.614585
0.972396 0.760281 0.788952
0.000000 0.332387 0.320974
0.000000 0.334032 0.285310
0.000000 0.333205 0.257673
0.000000 0.322222 0.147912
0.510241 0.417911 0.059711
0.770080 0.419092 0.050181
0.828336 0.325475 0.196567
0.912703 0.516686 0.575503
0.973388 0.764157 0.782422
0.000000 0.529381 0.497475
0.000000 0.541897 0.478560
0.000000 0.547387 0.467396
0.000000 0.556237 0.435575
0.169415 0.568691 0.216214
0.805313 0.682777 0.209982
0.939272 0.677708 0.243302
0.948052 0.621253 0.406674
0.976242 0.773892 0.757458
0.000000 0.705531 0.674357
0.000000 0.714595 0.666636
0.000003 0.718502 0.662592
0.000006 0.725957 0.653556
0.048191 0.743157 0.621460
0.603067 0.785733 0.421424
0.951629 0.853272 0.476365
0.998267 0.855280 0.496581
0.995911 0.842191 0.626154
0.340475 0.834882 0.795590
0.360687 0.838084 0.794574
0.375439 0.839759 0.794464
0.400357 0.842939 0.794272
0.461604 0.851032 0.792941
0.582831 0.868718 0.782879
0.849644 0.896345 0.653508
0.993982 0.924773 0.704311
1.000000 0.925078 0.714336
0.741985 0.912840 0.861295
0.746319 0.913588 0.861448
0.748241 0.913924 0.861509
0.752041 0.914580 0.861631
0.761196 0.916075 0.861830
0.785534 0.919997 0.862089
0.838666 0.928328 0.860517
0.953597 0.940307 0.812757
1.000000 0.949187 0.835828
0.000107 0.033784 0.155627
0.097856 0.034775 0.157458
0.154742 0.047532 0.173236
0.262715 0.047288 0.209812
0.467170 0.000015 0.265431
0.659068 0.011246 0.342519
0.796017 0.215732 0.471504
0.905303 0.487861 0.648722
0.971206 0.755184 0.795422
0.000000 0.059052 0.125292
0.002634 0.038224 0.142422
0.086912 0.048728 0.155587
0.223935 0.064689 0.179513
0.447190 0.018585 0.223221
0.653984 0.037138 0.304793
0.797787 0.229657 0.450044
0.906020 0.494011 0.639408
0.971572 0.756832 0.793545
0.000000 0.103426 0.161425
0.000000 0.084147 0.162945
0.023664 0.082582 0.182568
0.228223 0.091240 0.188391
0.437992 0.038624 0.194070
0.652912 0.053608 0.281468
0.798810 0.235581 0.437656
0.906676 0.496498 0.634974
0.971756 0.757565 0.792706
0.000000 0.187366 0.232715
0.000000 0.179648 0.220514
0.000000 0.176446 0.214731
0.196033 0.209360 0.219177
0.507106 0.196436 0.207678
0.656562 0.100694 0.218390
0.800757 0.246171 0.407114
0.907988 0.501439 0.625406
0.972091 0.759014 0.790814
0.000000 0.343832 0.360784
0.000000 0.347237 0.340722
0.000000 0.348678 0.326714
0.000000 0.348083 0.271128
0.507353 0.431226 0.186862
0.771676 0.422177 0.228489
0.823951 0.315441 0.289232
0.911611 0.513695 0.591061
0.973098 0.763134 0.784985
0.000000 0.529732 0.517449
0.000000 0.542770 0.502785
0.000000 0.548525 0.494270
0.000000 0.559399 0.471586
0.026624 0.563168 0.301933
0.803741 0.686357 0.251814
0.937353 0.683442 0.329509
0.945388 0.618769 0.448515
0.975906 0.773007 0.761639
0.000000 0.702953 0.681071
0.000000 0.712349 0.674028
0.000000 0.716469 0.670588
0.000006 0.724355 0.662763
0.030515 0.742528 0.634006
0.557638 0.780710 0.443384
0.950991 0.854447 0.486186
0.997678 0.858439 0.524181
0.995163 0.842557 0.639918
0.328817 0.833722 0.796277
0.350643 0.837040 0.795441
0.365420 0.838709 0.795352
0.391998 0.841984 0.795258
0.454993 0.850245 0.794250
0.578256 0.868287 0.785370
0.842194 0.896007 0.659452
0.993851 0.925063 0.706737
1.000000 0.925978 0.721355
0.740734 0.912627 0.861341
0.744839 0.913344 0.861463
0.746761 0.913680 0.861540
0.750607 0.914351 0.861677
0.760098 0.915908 0.861906
0.784421 0.919829 0.862226
0.837888 0.928222 0.860746
0.952544 0.940276 0.813748
1.000000 0.949233 0.836133
0.000000 0.000000 0.267964
0.114229 0.000000 0.271702
0.179232 0.000000 0.284016
0.281193 0.000107 0.309285
0.480522 0.000366 0.360082
0.667369 0.013001 0.422827
0.800320 0.224506 0.523232
0.906264 0.491707 0.671763
0.970459 0.752117 0.799985
0.000000 0.049485 0.264576
0.000000 0.000281 0.261967
0.078645 0.001108 0.275422
0.229032 0.013349 0.305400
0.459010 0.008087 0.347048
0.663209 0.038196 0.406412
0.802197 0.237895 0.511501
0.906829 0.497435 0.664457
0.970794 0.753567 0.798245
0.000000 0.117021 0.300664
0.000000 0.070036 0.290120
0.000037 0.056101 0.297014
0.212637 0.080012 0.325960
0.448371 0.018055 0.340365
0.662397 0.054029 0.397070
0.803318 0.243854 0.504851
0.907396 0.499678 0.661238
0.970962 0.754314 0.797467
0.000000 0.213504 0.346929
0.000000 0.195096 0.347268
0.000000 0.186072 0.351489
0.125170 0.220655 0.386780
0.505705 0.205060 0.396793
0.665513 0.100197 0.378372
0.805621 0.255381 0.489293
0.908550 0.504213 0.654166
0.971298 0.755764 0.795727
0.000000 0.367102 0.437781
0.000000 0.371328 0.435959
0.000000 0.373147 0.434449
0.000000 0.378271 0.430878
0.480778 0.464949 0.445933
0.774933 0.425739 0.432673
0.828397 0.330581 0.445136
0.911751 0.516210 0.629496
0.972274 0.759960 0.790799
0.000000 0.545830 0.565698
0.000000 0.558941 0.559393
0.000000 0.564813 0.555816
0.000000 0.575967 0.546020
0.000296 0.597369 0.485921
0.797034 0.708998 0.417862
0.933651 0.694218 0.471910
0.939132 0.609509 0.533577
0.975097 0.770611 0.771267
0.000000 0.701762 0.698955
0.000000 0.711171 0.692811
0.000000 0.715474 0.690413
0.000003 0.723809 0.684746
0.018372 0.743474 0.664164
0.425226 0.771484 0.522176
0.949313 0.857905 0.514022
0.995978 0.864762 0.583517
0.993286 0.842634 0.672160
0.295918 0.830472 0.797925
0.321859 0.834003 0.797653
0.337121 0.835739 0.797623
0.366570 0.839188 0.797604
0.433607 0.847822 0.797378
0.565451 0.866902 0.790985
0.818460 0.894356 0.674754
0.993521 0.925801 0.712947
1.000000 0.928206 0.738933
0.737026 0.912001 0.861402
0.741344 0.912749 0.861570
0.743038 0.913054 0.861616
0.747112 0.913771 0.861784
0.757000 0.915419 0.862043
0.781521 0.919402 0.862501
0.835798 0.927947 0.861280
0.949554 0.940185 0.816556
1.000000 0.949325 0.837003
0.000000 0.000000 0.397650
0.095003 0.000000 0.391791
0.172107 0.000000 0.397665
0.291981 0.000000 0.426703
0.495995 0.000000 0.475196
0.680110 0.021378 0.530724
0.808545 0.243824 0.605844
0.908553 0.500969 0.713298
0.970596 0.754498 0.812070
0.000000 0.010422 0.409201
0.000000 0.000000 0.395627
0.001642 0.000000 0.394699
0.216831 0.000031 0.432990
0.469175 0.000699 0.478858
0.676237 0.056199 0.528548
0.810321 0.254856 0.602289
0.909056 0.506392 0.709367
0.970916 0.755962 0.811002
0.000000 0.115328 0.442039
0.000000 0.019522 0.417899
0.000000 0.000549 0.409406
0.166198 0.035221 0.443955
0.452973 0.006989 0.480378
0.675084 0.066545 0.527461
0.811325 0.260206 0.600574
0.909599 0.508653 0.707961
0.971069 0.756695 0.810529
0.000000 0.233280 0.493233
0.000000 0.204413 0.485191
0.000000 0.184360 0.479057
0.001602 0.211304 0.507955
0.480034 0.219651 0.542125
0.673338 0.091051 0.526134
0.813388 0.270915 0.596436
0.910695 0.513219 0.705010
0.971344 0.757977 0.809445
0.000000 0.376318 0.548562
0.000000 0.366806 0.548614
0.000000 0.361840 0.548422
0.000000 0.376608 0.567129
0.418253 0.475306 0.618006
0.769122 0.438114 0.620441
0.832950 0.342184 0.596060
0.913643 0.525469 0.694783
0.972137 0.761608 0.806317
0.000000 0.579782 0.645029
0.000000 0.589673 0.645835
0.000000 0.594067 0.646275
0.000000 0.602732 0.646494
0.000003 0.622983 0.642933
0.772116 0.737789 0.665617
0.927138 0.697850 0.654911
0.937764 0.621476 0.668373
0.974548 0.771786 0.793362
0.000000 0.717983 0.734386
0.000000 0.726302 0.730928
0.000000 0.730095 0.729918
0.000000 0.737569 0.727632
0.031586 0.755984 0.719225
0.371838 0.793741 0.681901
0.941561 0.875010 0.647080
0.991867 0.874925 0.689946
0.989197 0.837766 0.734737
0.260105 0.827878 0.804288
0.291169 0.831565 0.804550
0.306557 0.833335 0.804691
0.336022 0.836817 0.805005
0.407636 0.845689 0.805640
0.546777 0.865711 0.804269
0.751205 0.890825 0.729641
0.992606 0.927938 0.730916
1.000000 0.932570 0.774121
0.726375 0.910185 0.861555
0.730709 0.910948 0.861723
0.732631 0.911284 0.861799
0.736721 0.912001 0.861952
0.747784 0.913939 0.862379
0.773312 0.918135 0.863005
0.830060 0.927184 0.862654
0.940414 0.939635 0.822873
1.000000 0.949569 0.839231
0.000000 0.003540 0.514153
0.000000 0.000061 0.508705
0.080308 0.005966 0.513420
0.248585 0.000000 0.524697
0.492302 0.000031 0.575341
0.688792 0.025238 0.624582
0.825116 0.294423 0.693156
0.913909 0.522210 0.765301
0.971283 0.760555 0.831647
0.000000 0.071702 0.532815
0.000000 0.008173 0.513671
0.000000 0.001297 0.504942
0.080125 0.014722 0.513875
0.448536 0.021598 0.582400
0.685069 0.073390 0.629911
0.825321 0.300661 0.693290
0.914205 0.526781 0.764059
0.971572 0.762051 0.831250
0.000000 0.147570 0.554482
0.000000 0.056242 0.528914
0.000000 0.019614 0.517604
0.000000 0.002551 0.509377
0.423071 0.056138 0.585837
0.683870 0.095265 0.632923
0.825727 0.303554 0.693571
0.914629 0.528719 0.763913
0.971679 0.762615 0.831083
0.000000 0.262531 0.603784
0.000000 0.224326 0.588217
0.000000 0.205524 0.580340
0.000000 0.159536 0.566616
0.408872 0.232856 0.633558
0.682066 0.139922 0.639759
0.826542 0.309251 0.694063
0.915440 0.532473 0.763592
0.971939 0.763912 0.830640
0.000000 0.400458 0.655879
0.000000 0.387924 0.651847
0.000000 0.381646 0.650098
0.000000 0.367749 0.646189
0.250569 0.467057 0.699406
0.750683 0.461784 0.728624
0.836756 0.352191 0.703401
0.917748 0.542983 0.762478
0.972625 0.767437 0.829450
0.000000 0.517128 0.696284
0.000000 0.512822 0.693825
0.000000 0.511598 0.693715
0.000000 0.509102 0.693535
0.000000 0.593851 0.736925
0.729375 0.741695 0.787912
0.920314 0.702925 0.785715
0.937408 0.628794 0.770611
0.974441 0.776791 0.825544
0.000000 0.752132 0.779232
0.010523 0.756982 0.777960
0.013901 0.759451 0.777911
0.027655 0.764315 0.777795
0.085725 0.776895 0.777813
0.341412 0.806424 0.782538
0.926781 0.891484 0.810556
0.986819 0.879594 0.806122
0.986221 0.843122 0.813870
0.355886 0.840330 0.821790
0.364309 0.843064 0.821652
0.376172 0.844526 0.822061
0.398254 0.847367 0.822824
0.454267 0.854789 0.824726
0.564459 0.871928 0.827988
0.735961 0.900346 0.819940
0.988742 0.936770 0.807013
1.000000 0.938079 0.826185
0.716197 0.908598 0.862913
0.720760 0.909407 0.863142
0.722683 0.909743 0.863218
0.726757 0.910475 0.863416
0.737575 0.912367 0.863920
0.764553 0.916945 0.864958
0.822446 0.926345 0.865995
0.912886 0.938186 0.844114
1.000000 0.950286 0.845823
0.000000 0.231022 0.633021
0.000000 0.193423 0.616205
0.000000 0.173159 0.607523
0.000000 0.158343 0.613825
0.388388 0.151858 0.646113
0.696635 0.181811 0.696590
0.835630 0.334279 0.746334
0.926253 0.577081 0.808515
0.973953 0.776608 0.850324
0.000000 0.263844 0.646387
0.000000 0.230250 0.631345
0.000000 0.213266 0.624494
0.000000 0.172970 0.608530
0.289155 0.189416 0.644507
0.691383 0.224171 0.705272
0.837269 0.347195 0.749383
0.925899 0.578650 0.808176
0.974151 0.777752 0.850340
0.000000 0.276844 0.651606
0.000000 0.245948 0.637736
0.000000 0.230488 0.631403
0.000000 0.194904 0.616941
0.213544 0.199426 0.638395
0.688286 0.241099 0.709090
0.838242 0.353054 0.750915
0.926070 0.579556 0.808307
0.974197 0.778088 0.850340
0.000000 0.331930 0.673732
0.000000 0.308897 0.663544
0.000000 0.295952 0.658350
0.000000 0.265861 0.646042
0.000345 0.232050 0.646091
0.680085 0.272255 0.716210
0.840186 0.364770 0.753985
0.926461 0.581604 0.808624
0.974380 0.779080 0.850340
0.000000 0.438514 0.712093
0.000000 0.426523 0.707637
0.000000 0.420828 0.705479
0.000000 0.408774 0.700856
0.000000 0.394501 0.707436
0.700825 0.489873 0.775766
0.844837 0.396289 0.762158
0.927458 0.586899 0.809427
0.974823 0.781720 0.850370
0.000000 0.532769 0.741939
0.000000 0.528661 0.740606
0.000000 0.527446 0.740282
0.000000 0.525033 0.739650
0.000000 0.517144 0.737490
0.623462 0.732512 0.822537
0.911745 0.719719 0.834021
0.938485 0.638764 0.819418
0.976074 0.788998 0.850340
0.000000 0.580621 0.756558
0.000000 0.580285 0.756234
0.000000 0.580163 0.756228
0.000000 0.579907 0.756222
0.000000 0.579113 0.756252
0.011154 0.761657 0.815116
0.907539 0.892189 0.860731
0.983541 0.880552 0.860777
0.985763 0.846799 0.855451
0.518502 0.866377 0.844175
0.520784 0.867323 0.844193
0.525685 0.868125 0.844486
0.535335 0.869734 0.845072
0.560345 0.873964 0.846607
0.618796 0.884199 0.850251
0.731765 0.904039 0.856913
0.983627 0.942318 0.869487
0.999908 0.940612 0.868254
0.746059 0.914305 0.868254
0.749386 0.914870 0.868437
0.750881 0.915114 0.868513
0.753841 0.915618 0.868650
0.761929 0.916945 0.869062
0.783398 0.920516 0.870115
0.830625 0.928328 0.872206
0.907073 0.940505 0.871962
1.000000 0.953094 0.869947
0.000000 0.437644 0.722377
0.000000 0.428779 0.719539
0.000000 0.424567 0.718196
0.000000 0.415442 0.715297
0.000000 0.379522 0.702953
0.627314 0.433646 0.768246
0.863813 0.487175 0.798947
0.937804 0.634150 0.832944
0.979828 0.814908 0.864561
0.000000 0.445762 0.724926
0.000000 0.437766 0.722408
0.000000 0.433799 0.721126
0.000000 0.425345 0.718441
0.000000 0.394980 0.708324
0.586282 0.446464 0.768475
0.864683 0.498894 0.801770
0.938476 0.638071 0.833707
0.979904 0.815381 0.864637
0.000000 0.448569 0.725704
0.000000 0.441566 0.723598
0.000000 0.437751 0.722393
0.000000 0.429435 0.719738
0.000000 0.401511 0.710597
0.560876 0.451087 0.767834
0.864866 0.503990 0.802976
0.938811 0.639872 0.834058
0.979965 0.815702 0.864683
0.000000 0.454429 0.727352
0.000000 0.448325 0.725628
0.000000 0.445502 0.724834
0.000000 0.437873 0.722423
0.000000 0.413443 0.714626
0.491295 0.458762 0.764645
0.864958 0.515023 0.805356
0.939437 0.643595 0.834775
0.980041 0.816175 0.864759
0.000000 0.494865 0.742321
0.000000 0.488945 0.739727
0.000000 0.486107 0.738491
0.000000 0.480049 0.735851
0.000000 0.462654 0.729839
0.206592 0.520043 0.764111
0.864210 0.544121 0.811414
0.941146 0.653681 0.836759
0.980285 0.817609 0.864958
0.000000 0.551965 0.758343
0.000000 0.550484 0.757870
0.000000 0.549767 0.757641
0.000000 0.548119 0.757153
0.000000 0.542901 0.755688
0.000000 0.617441 0.796262
0.891127 0.749111 0.851530
0.945617 0.680812 0.842039
0.980941 0.821439 0.865507
0.000000 0.586313 0.770993
0.000000 0.586084 0.770977
0.000000 0.585962 0.770977
0.000000 0.585733 0.770977
0.000000 0.585122 0.770962
0.000000 0.583246 0.770901
0.857816 0.888853 0.870268
0.980713 0.888502 0.874846
0.986511 0.854459 0.870130
0.000000 0.604395 0.776410
0.000000 0.604318 0.776379
0.000000 0.604288 0.776379
0.000000 0.604227 0.776349
0.000000 0.604059 0.776272
0.000000 0.603540 0.776059
0.543709 0.871672 0.854963
0.977584 0.942412 0.882246
0.998154 0.939864 0.880964
0.808179 0.924910 0.875074
0.809934 0.925216 0.875181
0.810636 0.925322 0.875212
0.812055 0.925566 0.875303
0.816281 0.926268 0.875547
0.827558 0.928145 0.876219
0.853773 0.932570 0.877791
0.903746 0.940810 0.880629
1.000000 0.954589 0.884855
