luts/apple-log/33x/Apple_LOG_to_Kodak_2383_D55_Rec709_G2-4.cube
TITLE "Apple LOG to Kodak 2383 D55 Rec709 G2-4"
#  
# Apple LOG to Rec.709 Hybrid LUT
#  
# This hybrid LUT converts Apple LOG to Rec.709 Gamma 2.4
#  
# Based on an original creative LUT included in DaVinci Resolve, adapted for a different color space.  
#  
# Created by Tobia Montanari | tobiamontanari.com
#  
#  
# 
LUT_3D_SIZE 5
0.031342 0.037629 0.042359
0.155154 0.058549 0.045838
0.459373 0.006287 0.082231
0.797894 0.230106 0.403845
0.971939 0.758267 0.790921
0.000000 0.082032 0.064912
0.076783 0.077348 0.048325
0.432227 0.120363 0.000000
0.800809 0.245441 0.339391
0.972503 0.760632 0.787991
0.000000 0.326421 0.249622
0.000000 0.309636 0.102632
0.523812 0.423362 0.000046
0.856580 0.365866 0.000000
0.973877 0.765850 0.778378
0.000000 0.709102 0.662821
0.000015 0.721355 0.649134
0.061128 0.743908 0.598489
0.953796 0.852461 0.460365
0.997009 0.841047 0.602075
0.744213 0.913207 0.861265
0.750225 0.914260 0.861463
0.762982 0.916350 0.861738
0.839826 0.928450 0.860044
1.000000 0.949126 0.835294
0.024414 0.040513 0.083116
0.143206 0.056001 0.117922
0.459449 0.000443 0.209155
0.794324 0.213062 0.446204
0.971496 0.756451 0.793637
0.000015 0.087068 0.103502
0.065644 0.079319 0.084483
0.430463 0.040384 0.081566
0.797528 0.234278 0.403650
0.972015 0.758633 0.790829
0.000000 0.332387 0.320974
0.000000 0.333205 0.257673
0.510241 0.417911 0.059711
0.828336 0.325475 0.196567
0.973388 0.764157 0.782422
0.000000 0.705531 0.674357
0.000003 0.718502 0.662592
0.048191 0.743157 0.621460
0.951629 0.853272 0.476365
0.995911 0.842191 0.626154
0.741985 0.912840 0.861295
0.748241 0.913924 0.861509
0.761196 0.916075 0.861830
0.838666 0.928328 0.860517
1.000000 0.949187 0.835828
0.000000 0.000000 0.267964
0.179232 0.000000 0.284016
0.480522 0.000366 0.360082
0.800320 0.224506 0.523232
0.970459 0.752117 0.799985
0.000000 0.117021 0.300664
0.000037 0.056101 0.297014
0.448371 0.018055 0.340365
0.803318 0.243854 0.504851
0.970962 0.754314 0.797467
0.000000 0.367102 0.437781
0.000000 0.373147 0.434449
0.480778 0.464949 0.445933
0.828397 0.330581 0.445136
0.972274 0.759960 0.790799
0.000000 0.701762 0.698955
0.000000 0.715474 0.690413
0.018372 0.743474 0.664164
0.949313 0.857905 0.514022
0.993286 0.842634 0.672160
0.737026 0.912001 0.861402
0.743038 0.913054 0.861616
0.757000 0.915419 0.862043
0.835798 0.927947 0.861280
1.000000 0.949325 0.837003
0.000000 0.003540 0.514153
0.080308 0.005966 0.513420
0.492302 0.000031 0.575341
0.825116 0.294423 0.693156
0.971283 0.760555 0.831647
0.000000 0.147570 0.554482
0.000000 0.019614 0.517604
0.423071 0.056138 0.585837
0.825727 0.303554 0.693571
0.971679 0.762615 0.831083
0.000000 0.400458 0.655879
0.000000 0.381646 0.650098
0.250569 0.467057 0.699406
0.836756 0.352191 0.703401
0.972625 0.767437 0.829450
0.000000 0.752132 0.779232
0.013901 0.759451 0.777911
0.085725 0.776895 0.777813
0.926781 0.891484 0.810556
0.986221 0.843122 0.813870
0.716197 0.908598 0.862913
0.722683 0.909743 0.863218
0.737575 0.912367 0.863920
0.822446 0.926345 0.865995
1.000000 0.950286 0.845823
0.000000 0.437644 0.722377
0.000000 0.424567 0.718196
0.000000 0.379522 0.702953
0.863813 0.487175 0.798947
0.979828 0.814908 0.864561
0.000000 0.448569 0.725704
0.000000 0.437751 0.722393
0.000000 0.401511 0.710597
0.864866 0.503990 0.802976
0.979965 0.815702 0.864683
0.000000 0.494865 0.742321
0.000000 0.486107 0.738491
0.000000 0.462654 0.729839
0.864210 0.544121 0.811414
0.980285 0.817609 0.864958
0.000000 0.586313 0.770993
0.000000 0.585962 0.770977
0.000000 0.585122 0.770962
0.857816 0.888853 0.870268
0.986511 0.854459 0.870130
0.808179 0.924910 0.875074
0.810636 0.925322 0.875212
0.816281 0.926268 0.875547
0.853773 0.932570 0.877791
1.000000 0.954589 0.884855
