luts/apple-log/33x/Apple_LOG_to_Fujifilm_3513DI_D65_Rec709_G2-4.cube
TITLE "Apple LOG to Fujifilm 3513DI D65 Rec709 G2-4"
#  
# Apple LOG to Rec.709 Hybrid LUT
#  
# This hybrid LUT converts Apple LOG to Rec.709 Gamma 2.4
#  
# Based on an original creative LUT included in DaVinci Resolve, adapted for a different color space.  
#  
# Created by Tobia Montanari | tobiamontanari.com
#  
#  
# 
LUT_3D_SIZE 33
0.029648 0.037140 0.037064
0.029648 0.037140 0.037064
0.030533 0.037461 0.038178
0.047868 0.039948 0.040299
0.073320 0.046372 0.043046
0.088914 0.051331 0.044999
0.108080 0.054337 0.046403
0.127413 0.056016 0.046204
0.150530 0.057527 0.044495
0.176669 0.059083 0.041092
0.205783 0.060853 0.035874
0.237766 0.062135 0.029114
0.274739 0.062394 0.020401
0.316670 0.060182 0.020798
0.363577 0.049180 0.045685
0.414038 0.029206 0.065522
0.466819 0.010910 0.098695
0.518090 0.011719 0.123247
0.569940 0.016998 0.154620
0.620737 0.035676 0.193362
0.668345 0.061357 0.239994
0.710277 0.106798 0.291814
0.748974 0.158236 0.347906
0.784268 0.209323 0.407904
0.815595 0.267582 0.473152
0.841810 0.327199 0.543099
0.864561 0.390265 0.613046
0.886244 0.458839 0.678706
0.908171 0.533837 0.741085
0.928908 0.612406 0.799084
0.947829 0.687236 0.849149
0.962432 0.750622 0.887892
0.972854 0.805768 0.917662
0.029648 0.037140 0.037064
0.029648 0.037140 0.037064
0.029648 0.037140 0.037064
0.030854 0.038025 0.036957
0.028214 0.042100 0.038773
0.051057 0.045228 0.040864
0.067445 0.050248 0.041886
0.077470 0.054780 0.041886
0.094469 0.059007 0.041871
0.120119 0.062943 0.040681
0.154177 0.066575 0.036942
0.190112 0.070954 0.032090
0.227359 0.074907 0.010391
0.276356 0.080110 0.000336
0.333471 0.084550 0.000000
0.392508 0.083024 0.000000
0.454063 0.083452 0.000000
0.508309 0.064942 0.008377
0.560082 0.042939 0.064057
0.614404 0.054581 0.121553
0.666148 0.085481 0.178119
0.711620 0.122652 0.243900
0.750912 0.167742 0.311452
0.785916 0.216892 0.380194
0.816815 0.273335 0.451392
0.842908 0.331594 0.526574
0.865400 0.393561 0.601495
0.886915 0.461585 0.671122
0.908797 0.536339 0.735851
0.929427 0.614389 0.795972
0.948211 0.688624 0.847395
0.962707 0.751659 0.886931
0.973007 0.806378 0.916991
0.029648 0.037140 0.037064
0.029648 0.037140 0.037064
0.029648 0.037140 0.037064
0.029648 0.037140 0.037064
0.029435 0.040833 0.037583
0.028794 0.044434 0.041688
0.050828 0.048264 0.042207
0.066209 0.053010 0.042710
0.079088 0.058274 0.042771
0.100969 0.063691 0.042664
0.135088 0.068696 0.040040
0.175616 0.073960 0.034913
0.217014 0.079469 0.018677
0.261677 0.085054 0.002853
0.311162 0.090303 0.000000
0.367132 0.094438 0.000000
0.438666 0.099794 0.000000
0.503426 0.102541 0.000000
0.559762 0.085206 0.009903
0.610071 0.061723 0.075135
0.664042 0.092637 0.146334
0.711604 0.128252 0.218631
0.751675 0.171450 0.293599
0.786572 0.219867 0.367086
0.817319 0.275425 0.441398
0.843320 0.333120 0.518791
0.865690 0.394675 0.596155
0.887190 0.462638 0.667689
0.908980 0.537057 0.733379
0.929656 0.615244 0.794308
0.948394 0.689235 0.846616
0.962798 0.751965 0.886427
0.973068 0.806699 0.916777
0.029648 0.037140 0.037064
0.029648 0.037140 0.037064
0.029648 0.037140 0.037064
0.029648 0.037140 0.037064
0.030533 0.038880 0.036378
0.026062 0.043610 0.041306
0.032868 0.047334 0.042466
0.053468 0.050950 0.043122
0.070497 0.056443 0.043412
0.086839 0.063127 0.043458
0.118105 0.069566 0.042542
0.162478 0.076097 0.037324
0.207691 0.082628 0.026078
0.254215 0.088609 0.003632
0.305760 0.095048 0.000000
0.360204 0.100969 0.000000
0.414054 0.107179 0.000000
0.491936 0.116014 0.000000
0.559152 0.119127 0.000000
0.609430 0.083528 0.020295
0.661738 0.097154 0.116335
0.711299 0.132219 0.196475
0.752132 0.174044 0.277668
0.787045 0.221942 0.356207
0.817655 0.276951 0.433494
0.843641 0.334295 0.512779
0.865965 0.395651 0.591913
0.887358 0.463264 0.664790
0.909194 0.537881 0.731655
0.929839 0.615869 0.793011
0.948501 0.689601 0.845823
0.962890 0.752316 0.886137
0.973144 0.807034 0.916594
0.029191 0.042741 0.039078
0.029648 0.037140 0.037064
0.029648 0.037140 0.037064
0.029648 0.037140 0.037064
0.029648 0.037140 0.037064
0.029282 0.042481 0.040024
0.027436 0.046647 0.042252
0.039155 0.049882 0.043290
0.060441 0.054780 0.043931
0.079011 0.061753 0.043992
0.106096 0.070039 0.043488
0.150027 0.077516 0.039246
0.198642 0.084810 0.032456
0.247150 0.091066 0.003922
0.300832 0.100130 0.000000
0.357107 0.107347 0.000000
0.412772 0.114122 0.000000
0.472404 0.122316 0.000000
0.551308 0.128847 0.000000
0.613291 0.117983 0.003708
0.659373 0.100053 0.081361
0.710735 0.135042 0.175433
0.752346 0.175921 0.262898
0.787442 0.223453 0.346059
0.817945 0.278294 0.426322
0.843870 0.335271 0.507515
0.866178 0.396460 0.588190
0.887541 0.463951 0.662531
0.909331 0.538445 0.730022
0.929946 0.616266 0.791913
0.948608 0.689998 0.845167
0.962936 0.752453 0.885786
0.973190 0.807187 0.916442
0.025589 0.056886 0.047578
0.030335 0.050004 0.040299
0.030701 0.047410 0.039261
0.030762 0.045106 0.038575
0.030701 0.042832 0.038132
0.031296 0.044343 0.037262
0.026749 0.047059 0.042267
0.029526 0.049332 0.043305
0.050111 0.053178 0.044343
0.072038 0.060349 0.044450
0.095537 0.069917 0.044205
0.138094 0.078462 0.040818
0.189624 0.086259 0.034089
0.240711 0.094331 0.006790
0.295842 0.104662 0.000000
0.353918 0.112505 0.000000
0.411353 0.119783 0.000000
0.464424 0.126986 0.000000
0.541817 0.138384 0.000000
0.614908 0.141466 0.000000
0.659709 0.110964 0.049546
0.709743 0.136934 0.155932
0.752499 0.177584 0.248707
0.787793 0.224720 0.336553
0.818189 0.279454 0.419913
0.844129 0.336248 0.502678
0.866346 0.397055 0.584970
0.887724 0.464668 0.660456
0.909499 0.539040 0.728542
0.930129 0.616938 0.791012
0.948714 0.690394 0.844602
0.963027 0.752834 0.885634
0.973220 0.807340 0.916274
0.009110 0.071916 0.053895
0.027710 0.061311 0.043610
0.030915 0.057862 0.042588
0.029465 0.055268 0.041917
0.029435 0.053040 0.041337
0.028290 0.052476 0.041550
0.027100 0.055283 0.041718
0.031220 0.057587 0.045762
0.052186 0.061662 0.046693
0.073060 0.067842 0.046296
0.092927 0.075532 0.045487
0.131212 0.082353 0.041962
0.180819 0.087800 0.035340
0.234623 0.097368 0.011368
0.291218 0.108293 0.000244
0.350835 0.116808 0.000000
0.409888 0.124605 0.000000
0.464439 0.132250 0.000000
0.524269 0.141299 0.000000
0.610956 0.151446 0.000000
0.662013 0.127398 0.018906
0.708751 0.138445 0.136172
0.752682 0.178988 0.235126
0.788128 0.226017 0.327443
0.818479 0.280293 0.413535
0.844327 0.337026 0.498192
0.866514 0.397681 0.581949
0.887877 0.465171 0.658503
0.909590 0.539376 0.727153
0.930190 0.617090 0.790127
0.948837 0.690806 0.844053
0.963073 0.752972 0.885252
0.973251 0.807507 0.916152
0.000000 0.087633 0.058152
0.011368 0.076204 0.046357
0.017029 0.070924 0.045136
0.016831 0.066819 0.044358
0.019883 0.063386 0.043595
0.023117 0.061418 0.043091
0.022431 0.064012 0.045899
0.033784 0.068116 0.045014
0.054917 0.072480 0.048157
0.075120 0.079988 0.047715
0.094896 0.088609 0.046037
0.133989 0.096208 0.041672
0.184436 0.101900 0.032700
0.234470 0.106447 0.012421
0.286748 0.111177 0.000565
0.347417 0.120424 0.000000
0.408438 0.129076 0.000000
0.464317 0.137011 0.000000
0.515328 0.144396 0.000000
0.603143 0.155474 0.000000
0.664805 0.143740 0.000000
0.707668 0.140063 0.114260
0.752575 0.180179 0.221088
0.788418 0.227054 0.318486
0.818662 0.280919 0.407507
0.844480 0.337591 0.493858
0.866682 0.398322 0.579095
0.887999 0.465675 0.656672
0.909743 0.540002 0.725963
0.930297 0.617517 0.789288
0.948898 0.690974 0.843565
0.963134 0.753124 0.884947
0.973297 0.807660 0.916045
0.000000 0.104463 0.063386
0.001984 0.092485 0.049622
0.002960 0.087541 0.048066
0.001312 0.083864 0.047150
0.005112 0.080690 0.046876
0.010422 0.078004 0.047120
0.023667 0.079118 0.046555
0.042542 0.083375 0.048539
0.058930 0.088075 0.046677
0.077104 0.093660 0.048722
0.097703 0.102571 0.046448
0.136843 0.110887 0.041031
0.188602 0.117693 0.028855
0.240772 0.124056 0.008179
0.293477 0.129137 0.000275
0.346944 0.129076 0.000000
0.406546 0.134051 0.000000
0.464027 0.142290 0.000000
0.516075 0.150088 0.000000
0.591379 0.162646 0.000000
0.669566 0.166278 0.000031
0.708034 0.148104 0.086961
0.752255 0.181338 0.202731
0.788754 0.228168 0.307210
0.819013 0.281880 0.400107
0.844694 0.338506 0.488563
0.866850 0.398886 0.575494
0.888121 0.466117 0.654368
0.909834 0.540322 0.724422
0.930419 0.617914 0.788190
0.949004 0.691356 0.842878
0.963180 0.753262 0.884565
0.973327 0.807813 0.915877
0.000000 0.122179 0.073549
0.000000 0.109590 0.053284
0.000000 0.105425 0.051453
0.000000 0.102800 0.050355
0.000000 0.100435 0.050980
0.011307 0.098283 0.050843
0.024308 0.096208 0.050690
0.042405 0.100526 0.048539
0.064210 0.106676 0.048478
0.084672 0.112261 0.045716
0.101472 0.117800 0.046601
0.140261 0.126604 0.040192
0.192782 0.134478 0.025421
0.246983 0.142687 0.004761
0.301869 0.149935 0.000000
0.357610 0.152895 0.000000
0.411978 0.151125 0.000000
0.463279 0.148806 0.000000
0.516747 0.156710 0.000000
0.567727 0.163745 0.000000
0.665339 0.178866 0.000000
0.709133 0.157916 0.047913
0.751736 0.182666 0.176669
0.789075 0.229374 0.291127
0.819440 0.283055 0.389853
0.845014 0.339452 0.481468
0.867109 0.399817 0.570855
0.888365 0.466987 0.651514
0.910048 0.541115 0.722545
0.930587 0.618540 0.786892
0.949111 0.691737 0.842115
0.963272 0.753597 0.884153
0.973373 0.807950 0.915663
0.000000 0.145617 0.088289
0.000000 0.129885 0.058763
0.000000 0.125216 0.054551
0.000000 0.122942 0.053086
0.002869 0.120851 0.053422
0.016236 0.118837 0.053178
0.027298 0.117006 0.052766
0.043946 0.117601 0.051957
0.071702 0.123842 0.048951
0.092500 0.131777 0.045701
0.114076 0.138643 0.039719
0.144549 0.143542 0.038010
0.196841 0.152819 0.019959
0.252857 0.163134 0.002686
0.309743 0.172152 0.000000
0.367956 0.177157 0.000000
0.425635 0.178119 0.000000
0.475959 0.174090 0.000000
0.517266 0.164523 0.000000
0.569497 0.171710 0.000000
0.647898 0.186725 0.000000
0.715206 0.182071 0.000000
0.751827 0.187716 0.143160
0.789288 0.230930 0.267277
0.819913 0.284337 0.375692
0.845335 0.340383 0.471901
0.867399 0.400839 0.564508
0.888579 0.467704 0.647486
0.910231 0.541817 0.719905
0.930831 0.619394 0.785245
0.949279 0.692317 0.841047
0.963363 0.753902 0.883574
0.973434 0.808286 0.915419
0.000000 0.175051 0.113069
0.000000 0.156619 0.067582
0.000000 0.149767 0.056687
0.000015 0.147967 0.054917
0.002930 0.146090 0.052262
0.011734 0.144228 0.052033
0.024536 0.142443 0.052415
0.042100 0.141085 0.051957
0.066484 0.143404 0.050111
0.092805 0.152544 0.042725
0.124544 0.162783 0.035050
0.160830 0.171450 0.019715
0.200870 0.174655 0.009384
0.258167 0.187350 0.000000
0.317037 0.198520 0.000000
0.377493 0.205692 0.000000
0.437797 0.208606 0.000000
0.492058 0.207431 0.000000
0.536370 0.200259 0.000000
0.573678 0.184863 0.000000
0.620493 0.190463 0.000000
0.716945 0.210803 0.000000
0.752667 0.197635 0.087602
0.789319 0.232227 0.231754
0.820539 0.285664 0.355001
0.845823 0.341894 0.458762
0.867811 0.402029 0.555169
0.888930 0.469001 0.642313
0.910536 0.542931 0.716487
0.931075 0.620157 0.782910
0.949447 0.692836 0.839643
0.963516 0.754376 0.882780
0.973510 0.808560 0.914900
0.000000 0.208377 0.143664
0.000000 0.188983 0.078813
0.000000 0.178790 0.062928
0.000015 0.177615 0.057679
0.000076 0.176577 0.052644
0.000031 0.175311 0.047425
0.010605 0.174228 0.043305
0.029450 0.173159 0.043473
0.049104 0.171267 0.043610
0.081758 0.176761 0.037720
0.124483 0.188891 0.012833
0.172412 0.202777 0.004944
0.224308 0.215228 0.000046
0.262608 0.215503 0.000000
0.322835 0.228565 0.000000
0.385260 0.237934 0.000000
0.448203 0.243458 0.000000
0.505776 0.244770 0.000000
0.553872 0.240665 0.000000
0.595895 0.229801 0.000000
0.629282 0.211124 0.000000
0.678553 0.216632 0.000000
0.759548 0.222965 0.006683
0.790677 0.240635 0.183780
0.821424 0.286870 0.323934
0.846403 0.343526 0.440116
0.868360 0.403586 0.542382
0.889326 0.470298 0.635019
0.910933 0.544396 0.711818
0.931411 0.621363 0.780011
0.949722 0.693782 0.837812
0.963699 0.755016 0.881773
0.973617 0.809003 0.914305
0.000000 0.244984 0.180270
0.000000 0.225818 0.111299
0.000000 0.215869 0.077577
0.000000 0.209567 0.066224
0.000000 0.209552 0.061707
0.000000 0.209140 0.052201
0.001038 0.208392 0.040848
0.004685 0.208133 0.028946
0.014572 0.207187 0.012741
0.058015 0.206622 0.015152
0.113252 0.216693 0.003357
0.172244 0.233631 0.000198
0.234485 0.250126 0.000168
0.294163 0.265187 0.000046
0.327230 0.259083 0.000000
0.391028 0.270497 0.000000
0.455909 0.278309 0.000000
0.516396 0.282246 0.000000
0.567971 0.281849 0.000000
0.613931 0.275471 0.000000
0.652476 0.263035 0.000000
0.679133 0.243061 0.000000
0.752834 0.253895 0.000000
0.791531 0.250751 0.096956
0.822507 0.289143 0.274937
0.847456 0.344747 0.412055
0.869047 0.405325 0.524514
0.889891 0.472023 0.623667
0.911376 0.545907 0.705516
0.931884 0.622965 0.776013
0.950057 0.694911 0.835477
0.963897 0.755581 0.880339
0.973739 0.809415 0.913512
0.000000 0.286366 0.222370
0.000000 0.268879 0.163058
0.000000 0.260441 0.125963
0.000000 0.252461 0.090516
0.000000 0.246006 0.070237
0.000000 0.246693 0.065858
0.000015 0.246876 0.059037
0.000015 0.247135 0.048753
0.000000 0.247578 0.026535
0.038331 0.249149 0.001862
0.090166 0.250263 0.000015
0.159823 0.265385 0.000031
0.232959 0.284352 0.000015
0.303532 0.304204 0.000000
0.368811 0.321508 0.000000
0.414389 0.318227 0.000000
0.461707 0.313909 0.000000
0.524987 0.320317 0.000000
0.579690 0.322621 0.000000
0.628672 0.319631 0.000000
0.670695 0.311452 0.000000
0.702342 0.298222 0.000000
0.722820 0.277195 0.000000
0.804883 0.288029 0.000000
0.825284 0.299779 0.203647
0.848966 0.345525 0.367468
0.869917 0.407019 0.498238
0.890623 0.473991 0.607614
0.911971 0.547738 0.696269
0.932479 0.624918 0.770626
0.950515 0.696376 0.832242
0.964172 0.756497 0.878569
0.973922 0.810162 0.912551
0.000000 0.333974 0.273716
0.000000 0.320836 0.222721
0.000000 0.313756 0.195453
0.000000 0.307195 0.167254
0.000000 0.300740 0.136751
0.000000 0.294133 0.104189
0.000000 0.290654 0.083741
0.000000 0.291905 0.072953
0.000031 0.293339 0.052094
0.000046 0.295354 0.023377
0.000000 0.298283 0.000687
0.120577 0.302205 0.000000
0.216052 0.321340 0.000000
0.300130 0.344152 0.000000
0.376303 0.366629 0.000000
0.445441 0.382345 0.000000
0.503044 0.381643 0.000000
0.536538 0.364462 0.000000
0.590036 0.365637 0.000000
0.641688 0.365194 0.000000
0.686687 0.359976 0.000000
0.721660 0.350790 0.000000
0.761212 0.343771 0.000000
0.804501 0.332921 0.000000
0.826261 0.306981 0.001846
0.853330 0.354788 0.301518
0.871244 0.408438 0.457542
0.891600 0.476249 0.583780
0.912871 0.550103 0.683116
0.933165 0.627039 0.762768
0.951019 0.697932 0.827817
0.964553 0.757702 0.876143
0.974151 0.811032 0.911223
0.000000 0.385183 0.332158
0.000000 0.377447 0.289113
0.000000 0.373510 0.266896
0.000000 0.369451 0.246433
0.000000 0.364889 0.226505
0.000000 0.360311 0.205997
0.000000 0.355444 0.183124
0.000000 0.350286 0.156832
0.000000 0.343038 0.118822
0.000000 0.346777 0.093202
0.000000 0.351659 0.045563
0.044846 0.358877 0.005417
0.163531 0.363272 0.000000
0.277623 0.388312 0.000000
0.370382 0.413504 0.000000
0.449683 0.432929 0.002777
0.521691 0.444633 0.000015
0.590814 0.450721 0.000000
0.638651 0.443488 0.000000
0.674357 0.429709 0.000000
0.714290 0.420264 0.000000
0.762463 0.420905 0.000000
0.808713 0.421469 0.000000
0.841657 0.410285 0.000000
0.858122 0.383062 0.000000
0.856077 0.360998 0.164492
0.875731 0.415625 0.395468
0.892927 0.477852 0.544625
0.914000 0.552651 0.663783
0.934066 0.629404 0.751110
0.951751 0.700236 0.821958
0.965042 0.759182 0.872938
0.974441 0.812177 0.909407
0.000000 0.439872 0.399161
0.000000 0.436622 0.363561
0.000000 0.434531 0.345144
0.000000 0.432456 0.328725
0.000000 0.430442 0.312734
0.000000 0.428305 0.297047
0.000000 0.425696 0.282292
0.000000 0.422797 0.266865
0.000000 0.418723 0.246113
0.000000 0.412573 0.214282
0.000000 0.403403 0.160784
0.000031 0.412757 0.121294
0.021668 0.421958 0.039094
0.221347 0.431708 0.000000
0.343053 0.460273 0.000000
0.439643 0.482551 0.002136
0.521782 0.497383 0.009201
0.597665 0.509606 0.029892
0.674662 0.522835 0.000000
0.727794 0.518929 0.000000
0.773602 0.510704 0.000000
0.814221 0.505180 0.000000
0.849958 0.501671 0.000000
0.877714 0.492607 0.000000
0.887678 0.466499 0.000000
0.878157 0.421805 0.020234
0.883009 0.425528 0.277241
0.896361 0.483253 0.484031
0.915373 0.554513 0.628962
0.935134 0.631769 0.733959
0.952621 0.702464 0.811780
0.965667 0.761059 0.868513
0.974823 0.813581 0.907012
0.000000 0.492790 0.468849
0.000000 0.492897 0.441199
0.000000 0.492927 0.426841
0.000000 0.492409 0.414206
0.000000 0.491661 0.402472
0.000000 0.490715 0.391073
0.000000 0.490349 0.379904
0.000000 0.489616 0.368673
0.000000 0.488441 0.354269
0.000000 0.486366 0.333806
0.000000 0.482414 0.302861
0.000000 0.474388 0.254215
0.000107 0.474647 0.194934
0.064942 0.484825 0.118135
0.269032 0.495689 0.020020
0.405921 0.523659 0.007721
0.507942 0.546120 0.039109
0.594980 0.560830 0.064317
0.669017 0.573754 0.075822
0.741512 0.580224 0.000000
0.802472 0.583917 0.000000
0.849653 0.582193 0.000000
0.882628 0.576883 0.000000
0.905104 0.566125 0.000000
0.914046 0.546563 0.000000
0.910491 0.519127 0.061692
0.906371 0.493050 0.193973
0.906035 0.496712 0.379049
0.918044 0.557015 0.568917
0.936584 0.633555 0.705669
0.953628 0.704692 0.796933
0.966400 0.763043 0.860822
0.975311 0.815396 0.903777
0.000000 0.543023 0.536660
0.000000 0.545693 0.515450
0.000000 0.546838 0.505333
0.000000 0.548135 0.496849
0.000000 0.549050 0.488823
0.000000 0.549493 0.481056
0.000000 0.549874 0.473716
0.000000 0.550164 0.466331
0.000000 0.550210 0.457038
0.000000 0.550439 0.443793
0.000000 0.550072 0.424445
0.000000 0.548592 0.394903
0.000000 0.544305 0.348074
0.000000 0.533547 0.266987
0.072465 0.548104 0.206821
0.327123 0.555337 0.084352
0.469001 0.584619 0.093629
0.578073 0.607828 0.114656
0.666087 0.625727 0.165042
0.733028 0.635981 0.183062
0.796216 0.629908 0.055833
0.852399 0.630884 0.000000
0.892348 0.630442 0.000000
0.918135 0.624475 0.000000
0.930968 0.612909 0.009812
0.935485 0.600290 0.093431
0.938811 0.592386 0.229969
0.933242 0.571115 0.320867
0.927581 0.571710 0.473060
0.938537 0.633402 0.652216
0.954879 0.706340 0.772534
0.967239 0.765209 0.848783
0.975875 0.817258 0.898299
0.000000 0.593194 0.602426
0.000000 0.599054 0.586892
0.000000 0.601175 0.579599
0.000000 0.602655 0.573602
0.000000 0.604059 0.568109
0.000000 0.605371 0.563226
0.000000 0.606455 0.558404
0.000000 0.607385 0.553674
0.000000 0.608392 0.547692
0.000000 0.609674 0.539605
0.000000 0.610986 0.528298
0.000000 0.612284 0.511879
0.000000 0.612085 0.485069
0.000000 0.609918 0.441505
0.000534 0.601251 0.361120
0.139818 0.610681 0.281697
0.385504 0.620600 0.184360
0.535470 0.650935 0.196735
0.646448 0.672541 0.216297
0.727474 0.688746 0.252766
0.791638 0.696895 0.272648
0.847456 0.687404 0.171405
0.889281 0.680781 0.054383
0.920409 0.677699 0.031251
0.941756 0.675288 0.085954
0.955001 0.673671 0.203235
0.960998 0.671046 0.280110
0.960525 0.663539 0.358846
0.953933 0.645563 0.432883
0.946624 0.646189 0.562936
0.956497 0.705638 0.727962
0.968399 0.767163 0.828550
0.976577 0.819226 0.889189
0.000000 0.643244 0.666682
0.000000 0.650492 0.655009
0.000000 0.653223 0.649638
0.000000 0.655299 0.645380
0.000000 0.656916 0.641443
0.000000 0.658289 0.638056
0.000000 0.659480 0.634638
0.000000 0.660624 0.631495
0.000000 0.661845 0.627314
0.000000 0.663172 0.621622
0.000000 0.664881 0.614130
0.000000 0.666804 0.603708
0.000000 0.668925 0.588678
0.000031 0.670130 0.565270
0.000031 0.669245 0.526848
0.000000 0.663249 0.454627
0.196185 0.669718 0.359625
0.446769 0.684504 0.274861
0.602838 0.713451 0.284916
0.707301 0.732860 0.305852
0.783963 0.746578 0.337469
0.843687 0.754238 0.358968
0.892607 0.747890 0.294743
0.927550 0.743435 0.257740
0.952071 0.741497 0.256138
0.968048 0.741115 0.288319
0.975769 0.741009 0.341497
0.977523 0.738659 0.405829
0.975250 0.731350 0.471473
0.968322 0.714153 0.534173
0.962539 0.714824 0.649317
0.970047 0.767788 0.790494
0.977569 0.821225 0.873594
0.000000 0.691661 0.726360
0.000000 0.698131 0.717708
0.000000 0.700618 0.713817
0.000000 0.702449 0.710628
0.000000 0.703929 0.707958
0.000000 0.705257 0.705501
0.000000 0.706371 0.703182
0.000000 0.707424 0.701030
0.000000 0.708644 0.698390
0.000000 0.710170 0.694835
0.000000 0.711849 0.689769
0.000000 0.713619 0.682506
0.000000 0.715724 0.672267
0.000000 0.717968 0.657450
0.000000 0.720241 0.635981
0.000000 0.720455 0.600458
0.000473 0.716976 0.536950
0.289342 0.722606 0.440467
0.509529 0.739773 0.362188
0.665660 0.767285 0.373465
0.762066 0.784298 0.394629
0.834745 0.796536 0.424323
0.885359 0.804898 0.447410
0.926390 0.800534 0.400229
0.955444 0.797909 0.377111
0.974227 0.798184 0.383200
0.984176 0.799435 0.414084
0.987747 0.800183 0.459495
0.988190 0.799329 0.513359
0.985245 0.794461 0.570504
0.979446 0.778836 0.625864
0.975219 0.777218 0.725246
0.979019 0.822049 0.841886
0.000000 0.733486 0.775570
0.000000 0.738949 0.769772
0.000000 0.740963 0.767117
0.000000 0.742397 0.765057
0.000000 0.743664 0.763195
0.000000 0.744747 0.761593
0.000000 0.745724 0.760037
0.000000 0.746502 0.758587
0.000000 0.747524 0.756878
0.000000 0.748806 0.754482
0.000000 0.750362 0.751461
0.000000 0.752377 0.747326
0.000000 0.754528 0.741375
0.000000 0.756817 0.732006
0.000000 0.759487 0.718486
0.000000 0.762280 0.698802
0.037629 0.764157 0.666743
0.137713 0.763790 0.611399
0.356863 0.767605 0.520470
0.573754 0.785779 0.450141
0.719203 0.811139 0.462364
0.811612 0.826429 0.482490
0.875685 0.838422 0.510384
0.916579 0.846693 0.533242
0.950149 0.843214 0.498024
0.973297 0.842252 0.485328
0.986297 0.843870 0.495537
0.992538 0.846326 0.523003
0.995071 0.848463 0.563088
0.995056 0.850141 0.610529
0.992737 0.848936 0.661189
0.988586 0.836194 0.708171
0.983429 0.831312 0.785458
0.000000 0.768597 0.815595
0.000000 0.772869 0.811536
0.000000 0.774426 0.809583
0.000000 0.775616 0.808103
0.000000 0.776562 0.806760
0.000000 0.777493 0.805570
0.000000 0.778241 0.804501
0.000000 0.778958 0.803479
0.000000 0.779767 0.802258
0.000000 0.780850 0.800656
0.000000 0.782147 0.798444
0.000000 0.783886 0.795621
0.000000 0.785962 0.791928
0.000000 0.788540 0.786923
0.000015 0.791363 0.779309
0.000046 0.794385 0.768032
0.000168 0.797833 0.751659
0.083253 0.801328 0.726619
0.259556 0.803479 0.681498
0.429862 0.805295 0.594766
0.633799 0.824231 0.534813
0.768826 0.847425 0.546685
0.854185 0.861921 0.564736
0.906600 0.873426 0.591485
0.940658 0.881117 0.614221
0.967788 0.879164 0.588251
0.984329 0.879332 0.582269
0.992981 0.881331 0.593835
0.997574 0.884382 0.619394
0.999054 0.887602 0.656062
0.998795 0.890517 0.698924
0.998352 0.890837 0.741131
0.993942 0.880568 0.774395
0.000000 0.799298 0.847608
0.000000 0.802548 0.844572
0.000000 0.803800 0.843168
0.000000 0.804730 0.842039
0.000000 0.805493 0.841199
0.000000 0.806165 0.840360
0.000000 0.806806 0.839551
0.000000 0.807309 0.838895
0.000000 0.808011 0.838071
0.000000 0.808850 0.836851
0.000000 0.809934 0.835492
0.000000 0.811261 0.833494
0.000000 0.812985 0.831067
0.000000 0.815183 0.827726
0.000000 0.817792 0.823240
0.036454 0.821118 0.817884
0.106371 0.825040 0.810147
0.197299 0.829602 0.798733
0.299351 0.834546 0.780957
0.385870 0.837919 0.746365
0.500740 0.838178 0.664271
0.687922 0.857466 0.612985
0.816114 0.878843 0.623209
0.888563 0.892622 0.641794
0.931930 0.903181 0.668635
0.960250 0.910689 0.691844
0.980667 0.909697 0.671504
0.991409 0.910201 0.668971
0.997528 0.912245 0.681437
0.999741 0.915190 0.705623
0.999969 0.918441 0.738415
1.000000 0.921050 0.773419
0.999786 0.920836 0.802594
0.000000 0.826230 0.871214
0.000000 0.828702 0.869108
0.000000 0.829679 0.868238
0.005386 0.830427 0.867628
0.012344 0.830991 0.867170
0.019333 0.831571 0.866728
0.025574 0.832074 0.866377
0.031067 0.832486 0.865995
0.037385 0.832990 0.865553
0.046097 0.833692 0.865019
0.057267 0.834546 0.864302
0.071778 0.835676 0.863340
0.090562 0.837110 0.862104
0.113832 0.838849 0.860533
0.145296 0.841154 0.858381
0.184894 0.843931 0.855497
0.232853 0.847547 0.852384
0.286091 0.852003 0.848142
