luts/apple-log/33x/Apple_LOG_to_Kodak_2383_D60_Rec709_G2-4.cube
TITLE "Apple LOG to Kodak 2383 D60 Rec709 G2-4"
#  
# Apple LOG to Rec.709 Hybrid LUT
#  
# This hybrid LUT converts Apple LOG to Rec.709 Gamma 2.4
#  
# Based on an original creative LUT included in DaVinci Resolve, adapted for a different color space.  
#  
# Created by Tobia Montanari | tobiamontanari.com
#  
#  
# 
LUT_3D_SIZE 9
0.030549 0.038148 0.044801
0.087068 0.050797 0.049622
0.156970 0.060197 0.050095
0.268849 0.067369 0.044953
0.465202 0.010620 0.091753
0.662531 0.037522 0.219409
0.808026 0.238209 0.431830
0.916960 0.511803 0.668894
0.976791 0.778012 0.844846
0.029770 0.041611 0.046830
0.030549 0.038148 0.044801
0.076371 0.054520 0.040925
0.207095 0.078492 0.021851
0.446006 0.106630 0.000000
0.656199 0.063828 0.075120
0.810162 0.249882 0.388556
0.918349 0.516960 0.656580
0.977157 0.779706 0.842725
0.000000 0.084123 0.069490
0.039933 0.071717 0.051881
0.076570 0.079225 0.051972
0.197391 0.104051 0.028122
0.436790 0.122621 0.000000
0.670466 0.131807 0.000168
0.810971 0.253834 0.364111
0.918959 0.519127 0.650446
0.977325 0.780438 0.841764
0.000000 0.170459 0.127001
0.002762 0.157015 0.068864
0.083665 0.153964 0.055100
0.222492 0.190829 0.037766
0.482063 0.229236 0.000000
0.675731 0.190906 0.000000
0.812070 0.259495 0.292653
0.920333 0.523827 0.636591
0.977661 0.781888 0.839261
0.000000 0.334722 0.267201
0.000000 0.327199 0.184085
0.000000 0.317968 0.114153
0.151904 0.345113 0.001953
0.525322 0.432151 0.000656
0.786526 0.446616 0.000000
0.864912 0.373495 0.000000
0.923964 0.534249 0.586084
0.978622 0.785809 0.831647
0.000000 0.545800 0.494636
0.000000 0.557076 0.463691
0.000000 0.561074 0.444938
0.000000 0.564981 0.387854
0.365698 0.600458 0.098695
0.813764 0.696559 0.158129
0.959838 0.693462 0.009216
0.962325 0.639292 0.344121
0.981384 0.795209 0.802625
0.000000 0.727642 0.709773
0.000000 0.736614 0.700328
0.000000 0.740429 0.695598
0.000000 0.747845 0.684504
0.000031 0.763760 0.642252
0.654612 0.812268 0.416739
0.956786 0.875029 0.499214
1.000000 0.871748 0.482109
0.999405 0.862623 0.646265
0.294606 0.857633 0.848188
0.360250 0.861479 0.848234
0.377462 0.863035 0.848066
0.398688 0.866148 0.847654
0.456077 0.874479 0.845975
0.579278 0.892454 0.833921
0.860075 0.920684 0.692500
0.995926 0.949004 0.752941
1.000000 0.947280 0.753384
0.735286 0.936477 0.919921
0.739559 0.937209 0.920073
0.741573 0.937560 0.920150
0.745312 0.938186 0.920272
0.754879 0.939727 0.920501
0.780041 0.943740 0.920775
0.834791 0.952255 0.919005
0.954421 0.964691 0.867826
1.000000 0.973663 0.893431
0.030442 0.038300 0.046708
0.077882 0.047898 0.073060
0.143999 0.056153 0.101869
0.258534 0.058137 0.129763
0.461463 0.001297 0.185443
0.661524 0.011536 0.293446
0.805570 0.226413 0.464408
0.915755 0.507301 0.679301
0.976486 0.776730 0.846860
0.029831 0.040803 0.047852
0.030872 0.038670 0.045362
0.090156 0.053379 0.051731
0.224769 0.069834 0.050281
0.443479 0.033603 0.088636
0.656397 0.048512 0.217728
0.807572 0.241138 0.431989
0.916429 0.513558 0.668080
0.976852 0.778408 0.844831
0.000015 0.085847 0.095048
0.007050 0.073060 0.064829
0.072514 0.077723 0.058863
0.217795 0.095140 0.040574
0.437144 0.074266 0.000070
0.654643 0.063621 0.163928
0.808618 0.246885 0.413193
0.917079 0.515984 0.662635
0.977020 0.779156 0.843870
0.000000 0.176486 0.176913
0.000000 0.163537 0.126543
0.000528 0.155276 0.082835
0.219232 0.193790 0.062922
0.497594 0.217047 0.000345
0.668916 0.144213 0.009650
0.810410 0.256416 0.364690
0.918370 0.520662 0.650355
0.977356 0.780636 0.841871
0.000000 0.339864 0.323980
0.000000 0.339770 0.273494
0.000000 0.337359 0.235789
0.000653 0.335375 0.109743
0.515767 0.428336 0.042820
0.785403 0.440168 0.004559
0.840732 0.340685 0.146191
0.921993 0.532143 0.606253
0.978302 0.784588 0.834699
0.000000 0.544030 0.521324
0.000000 0.556682 0.498732
0.000000 0.561798 0.484724
0.000000 0.569720 0.445539
0.241026 0.590637 0.204196
0.809940 0.699400 0.225287
0.947280 0.692103 0.198947
0.957577 0.638630 0.413489
0.981048 0.794491 0.807599
0.000000 0.725002 0.718334
0.000000 0.734295 0.709587
0.000000 0.738250 0.705125
0.000000 0.745925 0.695360
0.038691 0.763046 0.658994
0.615122 0.808020 0.443854
0.954858 0.875202 0.510509
0.999698 0.875059 0.520247
0.999146 0.863584 0.664256
0.273167 0.856458 0.848981
0.299089 0.859788 0.847843
0.317397 0.861445 0.847620
0.351873 0.864668 0.847382
0.433991 0.872956 0.846021
0.569067 0.891008 0.835020
0.850883 0.919799 0.697932
0.995318 0.948751 0.753964
1.000000 0.948379 0.761959
0.733730 0.936217 0.919951
0.738003 0.936950 0.920104
0.740017 0.937301 0.920180
0.743923 0.937972 0.920317
0.753704 0.939544 0.920577
0.778881 0.943572 0.920913
0.833982 0.952163 0.919341
0.953338 0.964660 0.868940
1.000000 0.973709 0.893843
0.021347 0.041047 0.088273
0.079728 0.050263 0.092882
0.144778 0.057114 0.125551
0.260777 0.055940 0.163119
0.465080 0.000656 0.222843
0.662776 0.008072 0.318944
0.804379 0.220676 0.476509
0.915251 0.505394 0.683665
0.976364 0.776165 0.847700
0.010529 0.046967 0.058656
0.027256 0.040784 0.073713
0.087666 0.054520 0.085264
0.224854 0.070390 0.105672
0.445701 0.031205 0.144652
0.657353 0.043207 0.259693
0.806446 0.236118 0.448072
0.915871 0.511525 0.673097
0.976730 0.777859 0.845731
0.000015 0.089143 0.111284
0.002728 0.077809 0.093452
0.064149 0.081221 0.090022
0.233323 0.092595 0.084593
0.436231 0.047733 0.092247
0.655637 0.057221 0.218259
0.807590 0.242484 0.431681
0.916527 0.514052 0.667991
0.976852 0.778408 0.844739
0.000000 0.180743 0.199725
0.000000 0.170138 0.163891
0.000000 0.163534 0.131582
0.217945 0.196848 0.084602
0.499269 0.204837 0.072233
0.657679 0.101143 0.088334
0.809659 0.253297 0.389795
0.917809 0.518816 0.656455
0.977218 0.780087 0.842786
0.000000 0.340780 0.342916
0.000000 0.342440 0.304976
0.000000 0.341897 0.275950
0.000000 0.331029 0.161254
0.512545 0.428449 0.081617
0.777197 0.429600 0.079698
0.838508 0.335769 0.218003
0.921440 0.530751 0.615268
0.978164 0.784070 0.835904
0.000000 0.542916 0.531823
0.000000 0.555959 0.512196
0.000000 0.561645 0.500450
0.000000 0.570855 0.467033
0.140551 0.583603 0.238334
0.809088 0.701067 0.244919
0.946334 0.696062 0.276213
0.956231 0.638212 0.439524
0.980896 0.794110 0.809644
0.000000 0.723751 0.721798
0.000000 0.733257 0.713866
0.000000 0.737353 0.709691
0.000000 0.745171 0.700380
0.033811 0.762912 0.666447
0.595096 0.806140 0.455753
0.954510 0.875831 0.515850
0.999557 0.876957 0.536089
0.999039 0.864073 0.671839
0.263188 0.855909 0.849302
0.292137 0.859236 0.848334
0.309807 0.860926 0.848161
0.345318 0.864207 0.847990
0.429508 0.872556 0.846729
0.566687 0.890819 0.836427
0.847239 0.919655 0.701073
0.995251 0.948910 0.755263
1.000000 0.948806 0.765423
0.732967 0.936095 0.919951
0.737484 0.936873 0.920134
0.739498 0.937209 0.920211
0.743450 0.937896 0.920348
0.753017 0.939437 0.920592
0.778408 0.943511 0.920958
0.833585 0.952117 0.919509
0.952789 0.964645 0.869505
1.000000 0.973739 0.894011
0.000000 0.028290 0.165591
0.098100 0.034607 0.167452
0.156222 0.047913 0.184314
0.265873 0.049287 0.223468
0.472923 0.000015 0.282521
0.667338 0.012833 0.364889
0.805997 0.223301 0.503288
0.914122 0.501045 0.692424
0.976074 0.774868 0.849577
0.000000 0.059647 0.133898
0.000897 0.035346 0.151574
0.086814 0.049256 0.165454
0.226529 0.066517 0.191202
0.452863 0.021402 0.238157
0.662474 0.044486 0.325585
0.807779 0.237626 0.480653
0.914745 0.507353 0.682615
0.976440 0.776547 0.847608
0.000000 0.105516 0.172564
0.000000 0.085359 0.173733
0.019333 0.083708 0.194476
0.230656 0.093724 0.200705
0.443690 0.043375 0.207584
0.661466 0.060945 0.301131
0.808811 0.243683 0.467592
0.915389 0.509923 0.677949
0.976593 0.777295 0.846723
0.000000 0.191943 0.248615
0.000000 0.184115 0.235959
0.000000 0.180719 0.229526
0.195013 0.214643 0.233899
0.513237 0.202432 0.223252
0.665327 0.107964 0.235380
0.810791 0.254572 0.435407
0.916698 0.515007 0.667866
0.976928 0.778790 0.844739
0.000000 0.351781 0.384527
0.000000 0.356136 0.364880
0.000000 0.357159 0.348940
0.000000 0.357669 0.291280
0.509581 0.442701 0.205609
0.779788 0.434125 0.250715
0.834046 0.325402 0.312429
0.920314 0.527642 0.631665
0.977890 0.783032 0.838605
0.000000 0.543221 0.552880
0.000000 0.556634 0.537648
0.000000 0.562771 0.528975
0.000000 0.573941 0.505086
0.013376 0.578360 0.327041
0.807340 0.704698 0.282332
0.944213 0.701927 0.361267
0.953460 0.635593 0.483037
0.980560 0.793179 0.814054
0.000000 0.720989 0.728847
0.000000 0.730916 0.721608
0.000000 0.735192 0.718084
0.000000 0.743432 0.710054
0.022351 0.762298 0.679884
0.547149 0.800925 0.478309
0.953789 0.877031 0.526040
0.999274 0.880339 0.564993
0.998657 0.864576 0.686458
0.241794 0.854719 0.850050
0.278813 0.858171 0.849290
0.296580 0.859870 0.849134
0.332818 0.863224 0.849021
0.421192 0.871742 0.848093
0.561767 0.890367 0.839051
0.839478 0.919283 0.707289
0.995114 0.949209 0.757821
1.000000 0.949752 0.772839
0.731655 0.935866 0.919997
0.735927 0.936614 0.920150
0.737942 0.936965 0.920241
0.741955 0.937652 0.920378
0.751858 0.939254 0.920653
0.777249 0.943343 0.921096
0.832776 0.952026 0.919738
0.951720 0.964614 0.870542
1.000000 0.973770 0.894331
0.000000 0.000000 0.286748
0.112749 0.000000 0.288746
0.180148 0.000000 0.301869
0.284092 0.000122 0.328771
0.486488 0.000381 0.383001
0.675807 0.017136 0.450217
0.810208 0.231952 0.558053
0.914946 0.504906 0.716823
0.975372 0.771710 0.854383
0.000000 0.034211 0.280598
0.000000 0.000061 0.280369
0.074226 0.000958 0.292995
0.231159 0.010785 0.324932
0.464653 0.008484 0.369329
0.671611 0.043223 0.433069
0.812039 0.245691 0.545702
0.915441 0.510799 0.709136
0.975692 0.773205 0.852552
0.000000 0.110918 0.317617
0.000000 0.058735 0.307457
0.000021 0.044544 0.315685
0.213846 0.080479 0.346752
0.453898 0.018845 0.362335
0.670866 0.059886 0.423328
0.813166 0.251820 0.538692
0.915990 0.513109 0.705742
0.975845 0.773968 0.851743
0.000000 0.216144 0.369512
0.000000 0.196576 0.368597
0.000000 0.186117 0.373275
0.113872 0.225596 0.411786
0.511241 0.210700 0.422928
0.674125 0.106727 0.403793
0.815479 0.263673 0.522277
0.917131 0.517781 0.698299
0.976165 0.775464 0.849897
0.000000 0.375082 0.466392
0.000000 0.380444 0.465980
0.000000 0.382492 0.464726
0.000000 0.387259 0.459956
0.480366 0.476912 0.476457
0.782702 0.437497 0.463295
0.838160 0.340533 0.476097
0.920311 0.530150 0.672294
0.977096 0.779767 0.844739
0.000000 0.559396 0.604395
0.000000 0.573007 0.597959
0.000000 0.578933 0.594085
0.000000 0.591119 0.584378
0.000089 0.613452 0.521505
0.799524 0.727727 0.451472
0.939913 0.712810 0.508455
0.947054 0.625986 0.572039
0.979751 0.790692 0.824186
0.000000 0.719646 0.747860
0.000000 0.729681 0.741503
0.000000 0.734130 0.739028
0.000000 0.742721 0.733214
0.013178 0.763256 0.711952
0.403253 0.791290 0.560326
0.951894 0.880537 0.554998
0.998175 0.887120 0.627375
0.997192 0.864805 0.720546
0.182147 0.851408 0.851835
0.241212 0.855088 0.851737
0.259437 0.856849 0.851639
0.296013 0.860353 0.851530
0.391010 0.869237 0.851353
0.548083 0.888929 0.844950
0.814786 0.917543 0.723272
0.994766 0.949960 0.764364
1.000000 0.952071 0.791409
0.727764 0.935225 0.920058
0.732280 0.936004 0.920241
0.734051 0.936309 0.920302
0.738308 0.937041 0.920485
0.748623 0.938766 0.920806
0.774212 0.942885 0.921370
0.830594 0.951736 0.920287
0.948638 0.964523 0.873472
1.000000 0.973861 0.895232
0.000000 0.000000 0.425132
0.085740 0.000000 0.416297
0.169741 0.000000 0.422339
0.293889 0.000000 0.453559
0.501717 0.000000 0.504967
0.688457 0.022339 0.564965
0.818173 0.251164 0.645685
0.917021 0.514260 0.760845
0.975387 0.774121 0.867170
0.000000 0.000000 0.437293
0.000000 0.000000 0.422992
0.001083 0.000000 0.422187
0.216510 0.000012 0.460423
0.474528 0.000668 0.509200
0.684578 0.059190 0.562832
0.819883 0.262370 0.641953
0.917433 0.519857 0.756719
0.975677 0.775631 0.866056
0.000000 0.098390 0.467628
0.000000 0.004562 0.445973
0.000000 0.000000 0.437961
0.163552 0.032065 0.472263
0.458039 0.006778 0.510976
0.683409 0.069966 0.561724
0.820878 0.267878 0.640149
0.917964 0.522185 0.755248
0.975830 0.776379 0.865568
0.000000 0.233799 0.525765
0.000000 0.200107 0.514610
0.000000 0.177865 0.507585
0.001132 0.212158 0.541415
0.484144 0.224707 0.577105
0.681626 0.095122 0.560394
0.822919 0.278905 0.635807
0.919020 0.526882 0.752154
0.976074 0.777691 0.864424
0.000000 0.383719 0.584436
0.000000 0.373391 0.583822
0.000000 0.367984 0.583484
0.000000 0.383242 0.604431
0.413605 0.487068 0.658586
0.775952 0.449595 0.661741
0.842240 0.351852 0.635715
0.921880 0.539464 0.741402
0.976822 0.781445 0.861173
0.000000 0.594858 0.689784
0.000000 0.604556 0.690358
0.000000 0.608826 0.690727
0.000000 0.617420 0.690800
0.000088 0.639185 0.687944
0.772165 0.756893 0.711748
0.932656 0.716234 0.700587
0.945019 0.637970 0.714208
0.979126 0.791882 0.847547
0.000000 0.736446 0.785687
0.000000 0.745092 0.782284
0.000000 0.749053 0.781320
0.000000 0.756872 0.779068
0.015933 0.775775 0.770162
0.338424 0.813944 0.728893
0.943035 0.897911 0.694359
0.994614 0.897835 0.739574
0.992813 0.859693 0.786328
0.124544 0.848814 0.858808
0.202808 0.852644 0.859229
0.219937 0.854435 0.859309
0.255061 0.857969 0.859531
0.350768 0.867036 0.860105
0.528258 0.887669 0.858952
0.744503 0.913756 0.780804
0.993774 0.952142 0.783295
1.000000 0.956542 0.828550
0.716640 0.933364 0.920180
0.721157 0.934157 0.920378
0.723171 0.934493 0.920455
0.727428 0.935241 0.920638
0.738979 0.937240 0.921111
0.765637 0.941573 0.921874
0.824643 0.950942 0.921721
0.939223 0.963943 0.880110
1.000000 0.974105 0.897597
0.000000 0.002075 0.549661
0.000000 0.000031 0.544228
0.056672 0.004715 0.546334
0.247303 0.000000 0.557870
0.496818 0.000031 0.611185
0.697078 0.025849 0.664729
0.834302 0.302312 0.738445
0.921920 0.535866 0.816037
0.975875 0.780270 0.887907
0.000000 0.055695 0.566659
0.000000 0.004468 0.548833
0.000000 0.000470 0.539837
0.056095 0.012543 0.546795
0.452796 0.020249 0.619586
0.693175 0.074669 0.670543
0.834421 0.308721 0.738616
0.922136 0.540609 0.814765
0.976135 0.781811 0.887495
0.000000 0.132052 0.588098
0.000000 0.040180 0.562875
0.000000 0.012387 0.552465
0.000000 0.000610 0.544872
0.426703 0.053242 0.623291
0.691893 0.096901 0.673789
0.834809 0.311681 0.738918
0.922530 0.542598 0.814621
0.976242 0.782376 0.887327
0.000000 0.260426 0.642023
0.000000 0.220475 0.625321
0.000000 0.198364 0.616409
0.000000 0.142394 0.600034
0.410251 0.237305 0.674144
0.689885 0.142852 0.681102
0.835600 0.317513 0.739452
0.923305 0.546447 0.814307
0.976471 0.783703 0.886870
0.000000 0.406577 0.697856
0.000000 0.393268 0.693623
0.000000 0.386630 0.691771
0.000000 0.370974 0.687022
0.230075 0.478181 0.745013
0.756262 0.473493 0.776446
0.845557 0.361477 0.749517
0.925490 0.557235 0.813193
0.977111 0.787335 0.885634
0.000000 0.529320 0.741100
0.000000 0.524980 0.739513
0.000000 0.523793 0.739452
0.000000 0.521370 0.739382
0.000000 0.607852 0.786898
0.727114 0.760601 0.840910
0.925103 0.721190 0.838773
0.944112 0.645219 0.822345
0.978729 0.796918 0.881575
0.000000 0.771725 0.833997
0.000659 0.776736 0.832776
0.000864 0.779275 0.832746
0.001605 0.784243 0.832572
0.021961 0.797037 0.832145
0.289037 0.826767 0.835364
0.926623 0.914546 0.866615
0.988946 0.902461 0.862006
0.989258 0.865049 0.869856
0.304707 0.861479 0.877150
0.295051 0.864396 0.877284
0.312044 0.865885 0.877690
0.342620 0.868785 0.878465
0.418772 0.876362 0.880424
0.546511 0.894023 0.884099
0.727544 0.923381 0.876167
0.989276 0.961093 0.863511
1.000000 0.962188 0.883528
0.705943 0.931731 0.921599
0.710704 0.932555 0.921843
0.712703 0.932906 0.921935
0.716976 0.933654 0.922148
0.728267 0.935622 0.922713
0.756436 0.940337 0.923919
0.816724 0.950072 0.925231
0.910628 0.962386 0.902449
1.000000 0.974853 0.904540
0.000000 0.223789 0.670939
0.000000 0.182559 0.652827
0.000000 0.157336 0.643305
0.000000 0.142779 0.650752
0.390051 0.152438 0.687327
0.704265 0.185595 0.741527
0.844511 0.342992 0.794995
0.933577 0.592081 0.862135
0.978134 0.796689 0.907790
0.000000 0.259266 0.685924
0.000000 0.224338 0.670686
0.000000 0.203400 0.662641
0.000000 0.152880 0.643919
0.286919 0.191409 0.685576
0.698582 0.229071 0.750805
0.845975 0.356191 0.798269
0.933107 0.593649 0.861793
0.978302 0.797879 0.907820
0.000000 0.273182 0.691722
0.000000 0.241813 0.677806
0.000000 0.224643 0.670768
0.000000 0.180154 0.653605
0.204810 0.201883 0.679039
0.695293 0.246455 0.754885
0.846903 0.362203 0.799911
0.933263 0.594577 0.861930
0.978363 0.798215 0.907805
0.000000 0.331838 0.715831
0.000000 0.306380 0.704530
0.000000 0.294039 0.699529
0.000000 0.263245 0.686952
0.000091 0.228495 0.687523
0.686641 0.278438 0.762481
0.848765 0.374231 0.803214
0.933633 0.596680 0.862281
0.978500 0.799237 0.907820
0.000000 0.443870 0.758007
0.000000 0.432196 0.753405
0.000000 0.426307 0.751153
0.000000 0.413852 0.746331
0.000000 0.399277 0.752273
0.704427 0.502059 0.826459
0.853126 0.406531 0.812003
0.934557 0.602106 0.863160
0.978912 0.801953 0.907866
0.000000 0.542351 0.790402
0.000000 0.538302 0.788785
0.000000 0.536983 0.788351
0.000000 0.534350 0.787503
0.000000 0.526000 0.784909
0.616642 0.750954 0.877293
0.915648 0.738277 0.889979
0.944848 0.655308 0.874070
0.980026 0.809430 0.907912
0.000000 0.595590 0.808896
0.000000 0.592920 0.806586
0.000000 0.592807 0.806568
0.000000 0.592597 0.806546
0.000000 0.591864 0.806415
0.000851 0.781390 0.872202
0.906413 0.915154 0.919561
0.985312 0.903343 0.919710
0.988510 0.868711 0.913802
0.497047 0.888243 0.901106
0.498326 0.889201 0.901100
0.503679 0.890034 0.901430
0.514171 0.891695 0.902080
0.541268 0.896055 0.903780
0.603824 0.906615 0.907826
0.722564 0.927074 0.915239
0.983590 0.966680 0.929448
1.000000 0.964828 0.928038
0.737087 0.937606 0.927337
0.740566 0.938186 0.927535
0.742123 0.938430 0.927611
0.745220 0.938949 0.927794
0.753658 0.940337 0.928252
0.776074 0.944015 0.929427
0.825162 0.952087 0.931823
0.904219 0.964675 0.931838
1.000000 0.977752 0.930083
0.000000 0.444770 0.769863
0.000000 0.434745 0.766445
0.000000 0.429953 0.764797
0.000000 0.419547 0.761242
0.000000 0.385077 0.746929
0.630076 0.444099 0.818082
0.871107 0.499672 0.851408
0.944213 0.650584 0.888365
0.983124 0.835966 0.923171
0.000000 0.453727 0.772869
0.000000 0.444892 0.769894
0.000000 0.440406 0.768353
0.000000 0.430838 0.765087
0.000000 0.399374 0.753079
0.587655 0.457145 0.818296
0.871824 0.511727 0.854459
0.944808 0.654597 0.889204
0.983185 0.836454 0.923247
0.000000 0.456321 0.773587
0.000000 0.449149 0.771328
0.000000 0.444862 0.769879
0.000000 0.435462 0.766674
0.000000 0.405432 0.755688
0.561395 0.461860 0.817609
0.871931 0.516960 0.855756
0.945113 0.656443 0.889586
0.983230 0.836789 0.923293
0.000000 0.461784 0.775143
0.000000 0.456077 0.773495
0.000000 0.453452 0.772747
0.000000 0.444984 0.769909
0.000000 0.417288 0.760433
0.489082 0.469673 0.814160
0.871839 0.528267 0.858320
0.945678 0.660258 0.890364
0.983307 0.837278 0.923369
0.000000 0.501671 0.789441
0.000000 0.495628 0.786999
0.000000 0.492744 0.785824
0.000000 0.486580 0.783322
0.000000 0.469718 0.777630
0.171862 0.532479 0.813977
0.870619 0.558099 0.864866
0.947219 0.670588 0.892515
0.983520 0.838758 0.923598
0.000000 0.564126 0.809628
0.000000 0.562737 0.809171
0.000000 0.562066 0.808942
0.000000 0.560281 0.808347
0.000000 0.554055 0.806271
0.000000 0.630762 0.849378
0.893706 0.768322 0.908629
0.951232 0.698390 0.898283
0.984085 0.842680 0.924224
0.000000 0.598138 0.818051
0.000000 0.597910 0.817975
0.000000 0.597787 0.817945
0.000000 0.597559 0.817853
0.000000 0.596918 0.817639
0.000000 0.594873 0.816861
0.854932 0.911620 0.929473
0.982101 0.911467 0.934630
0.988983 0.876539 0.929366
0.000000 0.619913 0.830167
0.000000 0.619821 0.830137
0.000000 0.619806 0.830121
0.000000 0.619745 0.830091
0.000000 0.619577 0.830014
0.000000 0.619043 0.829786
0.523705 0.893675 0.912581
0.977142 0.966766 0.942946
0.998596 0.964141 0.941573
0.801907 0.948547 0.934752
0.803723 0.948852 0.934874
0.804456 0.948974 0.934920
0.805920 0.949218 0.935012
0.810300 0.949950 0.935286
0.821973 0.951888 0.936034
0.849104 0.956466 0.937804
0.900801 0.964965 0.940978
0.999969 0.979294 0.945876
