luts/apple-log/33x/Apple_LOG_to_Kodak_2383_D60_Rec709_G2-4.cube
TITLE "Apple LOG to Kodak 2383 D60 Rec709 G2-4"
#  
# Apple LOG to Rec.709 Hybrid LUT
#  
# This hybrid LUT converts Apple LOG to Rec.709 Gamma 2.4
#  
# Based on an original creative LUT included in DaVinci Resolve, adapted for a different color space.  
#  
# Created by Tobia Montanari | tobiamontanari.com
#  
#  
# 
LUT_3D_SIZE 5
0.030549 0.038148 0.044801
0.156970 0.060197 0.050095
0.465202 0.010620 0.091753
0.808026 0.238209 0.431830
0.976791 0.778012 0.844846
0.000000 0.084123 0.069490
0.076570 0.079225 0.051972
0.436790 0.122621 0.000000
0.810971 0.253834 0.364111
0.977325 0.780438 0.841764
0.000000 0.334722 0.267201
0.000000 0.317968 0.114153
0.525322 0.432151 0.000656
0.864912 0.373495 0.000000
0.978622 0.785809 0.831647
0.000000 0.727642 0.709773
0.000000 0.740429 0.695598
0.000031 0.763760 0.642252
0.956786 0.875029 0.499214
0.999405 0.862623 0.646265
0.735286 0.936477 0.919921
0.741573 0.937560 0.920150
0.754879 0.939727 0.920501
0.834791 0.952255 0.919005
1.000000 0.973663 0.893431
0.021347 0.041047 0.088273
0.144778 0.057114 0.125551
0.465080 0.000656 0.222843
0.804379 0.220676 0.476509
0.976364 0.776165 0.847700
0.000015 0.089143 0.111284
0.064149 0.081221 0.090022
0.436231 0.047733 0.092247
0.807590 0.242484 0.431681
0.976852 0.778408 0.844739
0.000000 0.340780 0.342916
0.000000 0.341897 0.275950
0.512545 0.428449 0.081617
0.838508 0.335769 0.218003
0.978164 0.784070 0.835904
0.000000 0.723751 0.721798
0.000000 0.737353 0.709691
0.033811 0.762912 0.666447
0.954510 0.875831 0.515850
0.999039 0.864073 0.671839
0.732967 0.936095 0.919951
0.739498 0.937209 0.920211
0.753017 0.939437 0.920592
0.833585 0.952117 0.919509
1.000000 0.973739 0.894011
0.000000 0.000000 0.286748
0.180148 0.000000 0.301869
0.486488 0.000381 0.383001
0.810208 0.231952 0.558053
0.975372 0.771710 0.854383
0.000000 0.110918 0.317617
0.000021 0.044544 0.315685
0.453898 0.018845 0.362335
0.813166 0.251820 0.538692
0.975845 0.773968 0.851743
0.000000 0.375082 0.466392
0.000000 0.382492 0.464726
0.480366 0.476912 0.476457
0.838160 0.340533 0.476097
0.977096 0.779767 0.844739
0.000000 0.719646 0.747860
0.000000 0.734130 0.739028
0.013178 0.763256 0.711952
0.951894 0.880537 0.554998
0.997192 0.864805 0.720546
0.727764 0.935225 0.920058
0.734051 0.936309 0.920302
0.748623 0.938766 0.920806
0.830594 0.951736 0.920287
1.000000 0.973861 0.895232
0.000000 0.002075 0.549661
0.056672 0.004715 0.546334
0.496818 0.000031 0.611185
0.834302 0.302312 0.738445
0.975875 0.780270 0.887907
0.000000 0.132052 0.588098
0.000000 0.012387 0.552465
0.426703 0.053242 0.623291
0.834809 0.311681 0.738918
0.976242 0.782376 0.887327
0.000000 0.406577 0.697856
0.000000 0.386630 0.691771
0.230075 0.478181 0.745013
0.845557 0.361477 0.749517
0.977111 0.787335 0.885634
0.000000 0.771725 0.833997
0.000864 0.779275 0.832746
0.021961 0.797037 0.832145
0.926623 0.914546 0.866615
0.989258 0.865049 0.869856
0.705943 0.931731 0.921599
0.712703 0.932906 0.921935
0.728267 0.935622 0.922713
0.816724 0.950072 0.925231
1.000000 0.974853 0.904540
0.000000 0.444770 0.769863
0.000000 0.429953 0.764797
0.000000 0.385077 0.746929
0.871107 0.499672 0.851408
0.983124 0.835966 0.923171
0.000000 0.456321 0.773587
0.000000 0.444862 0.769879
0.000000 0.405432 0.755688
0.871931 0.516960 0.855756
0.983230 0.836789 0.923293
0.000000 0.501671 0.789441
0.000000 0.492744 0.785824
0.000000 0.469718 0.777630
0.870619 0.558099 0.864866
0.983520 0.838758 0.923598
0.000000 0.598138 0.818051
0.000000 0.597787 0.817945
0.000000 0.596918 0.817639
0.854932 0.911620 0.929473
0.988983 0.876539 0.929366
0.801907 0.948547 0.934752
0.804456 0.948974 0.934920
0.810300 0.949950 0.935286
0.849104 0.956466 0.937804
0.999969 0.979294 0.945876
