luts/apple-log/33x/Apple_LOG_to_Kodak_2383_D60_Rec709_G2-4.cube
TITLE "Apple LOG to Kodak 2383 D60 Rec709 G2-4"
#  
# Apple LOG to Rec.709 Hybrid LUT
#  
# This hybrid LUT converts Apple LOG to Rec.709 Gamma 2.4
#  
# Based on an original creative LUT included in DaVinci Resolve, adapted for a different color space.  
#  
# Created by Tobia Montanari | tobiamontanari.com
#  
#  
# 
LUT_3D_SIZE 33
0.030549 0.038148 0.044801
0.030549 0.038148 0.044801
0.036774 0.039521 0.045747
0.064790 0.045426 0.048600
0.087068 0.050797 0.049622
0.101686 0.054780 0.050385
0.118639 0.056825 0.050950
0.136049 0.058381 0.050812
0.156970 0.060197 0.050095
0.179843 0.062150 0.048936
0.205127 0.064439 0.047456
0.233875 0.066941 0.046021
0.268849 0.067369 0.044953
0.310399 0.064698 0.045197
0.358648 0.054505 0.055467
0.411337 0.034333 0.070405
0.465202 0.010620 0.091753
0.516503 0.007950 0.112108
0.567849 0.009857 0.140658
0.616663 0.015213 0.175830
0.662531 0.037522 0.219409
0.702571 0.071000 0.267536
0.739986 0.120287 0.319661
0.774853 0.175433 0.374334
0.808026 0.238209 0.431830
0.839323 0.301717 0.492805
0.867811 0.367147 0.553857
0.893629 0.436759 0.611795
0.916960 0.511803 0.668894
0.937377 0.589883 0.723598
0.954955 0.664042 0.772259
0.967926 0.725338 0.812100
0.976791 0.778012 0.844846
0.030549 0.038148 0.044801
0.030549 0.038148 0.044801
0.030549 0.038148 0.044801
0.033951 0.039155 0.044190
0.044678 0.044007 0.042298
0.067781 0.048463 0.040406
0.082933 0.052781 0.038804
0.093629 0.056733 0.038666
0.110277 0.060151 0.037461
0.134722 0.063157 0.035111
0.166918 0.065980 0.030915
0.200336 0.069688 0.019669
0.237675 0.074388 0.002884
0.285283 0.077714 0.000381
0.342428 0.078660 0.000015
0.402411 0.073182 0.000015
0.461311 0.067262 0.000000
0.511788 0.040147 0.008743
0.561868 0.026780 0.062104
0.612329 0.029587 0.110399
0.659907 0.052934 0.161227
0.702556 0.085252 0.222675
0.740734 0.130251 0.285801
0.775998 0.183612 0.348669
0.809033 0.244495 0.411765
0.840558 0.306462 0.477501
0.868971 0.370779 0.542733
0.894530 0.439826 0.603937
0.917693 0.514580 0.663005
0.937926 0.592020 0.719783
0.955337 0.665553 0.769848
0.968215 0.726513 0.810590
0.976959 0.778759 0.843717
0.030549 0.038148 0.044801
0.030549 0.038148 0.044801
0.030549 0.038148 0.044801
0.030549 0.038148 0.044801
0.037629 0.041459 0.041993
0.046326 0.045579 0.039811
0.067796 0.050324 0.040177
0.081682 0.054124 0.039567
0.094667 0.058595 0.039582
0.115877 0.062791 0.037934
0.148348 0.066484 0.034745
0.186297 0.070481 0.026383
0.226398 0.076036 0.010346
0.273091 0.081727 0.000671
0.328588 0.086076 0.000000
0.390875 0.088548 0.000000
0.457343 0.087373 0.000000
0.514229 0.081910 0.000000
0.563424 0.058152 0.010819
0.610239 0.036118 0.072373
0.658549 0.058106 0.132036
0.702220 0.090318 0.199054
0.740917 0.134081 0.269184
0.776379 0.186831 0.336492
0.809537 0.246769 0.402533
0.840986 0.308110 0.470298
0.869368 0.372015 0.537636
0.894911 0.441016 0.600443
0.917922 0.515419 0.660288
0.938170 0.592935 0.717830
0.955520 0.666224 0.768795
0.968322 0.726909 0.809842
0.977035 0.779141 0.843320
0.030549 0.038148 0.044801
0.030549 0.038148 0.044801
0.030549 0.038148 0.044801
0.030549 0.038148 0.044801
0.033234 0.039490 0.043153
0.038682 0.043625 0.039612
0.050721 0.047929 0.040452
0.070054 0.051927 0.040650
0.085740 0.056367 0.040131
0.101823 0.061799 0.040162
0.131868 0.066529 0.036988
0.173770 0.071595 0.031525
0.216449 0.077501 0.016510
0.264118 0.083803 0.001068
0.321096 0.089067 0.000000
0.384878 0.094682 0.000000
0.448142 0.100710 0.000000
0.513069 0.099733 0.000000
0.567010 0.094484 0.000000
0.611017 0.053834 0.023682
0.657176 0.061357 0.105013
0.701946 0.094102 0.178470
0.741054 0.136782 0.254337
0.776608 0.189105 0.326375
0.809873 0.248432 0.395193
0.841337 0.309377 0.464714
0.869734 0.373098 0.533578
0.895140 0.441733 0.597482
0.918166 0.516320 0.658381
0.938354 0.593622 0.716289
0.955627 0.666621 0.767819
0.968414 0.727306 0.809354
0.977111 0.779507 0.843000
0.029770 0.041611 0.046830
0.030549 0.038148 0.044801
0.030549 0.038148 0.044801
0.030549 0.038148 0.044801
0.030549 0.038148 0.044801
0.037232 0.041978 0.040085
0.042237 0.046189 0.040345
0.056596 0.049989 0.041062
0.076371 0.054520 0.040925
0.093965 0.060166 0.040803
0.119982 0.066560 0.038880
0.161791 0.072328 0.034607
0.207095 0.078492 0.021851
0.255802 0.085237 0.001419
0.314458 0.093049 0.000000
0.380362 0.100038 0.000000
0.446006 0.106630 0.000000
0.507073 0.111498 0.000000
0.567346 0.106996 0.000000
0.615854 0.086564 0.005951
0.656199 0.063828 0.075120
0.701442 0.096803 0.158938
0.741009 0.138735 0.240528
0.776776 0.190768 0.316930
0.810162 0.249882 0.388556
0.841596 0.310460 0.459831
0.870039 0.373983 0.530007
0.895384 0.442512 0.595193
0.918349 0.516960 0.656580
0.938476 0.594079 0.715023
0.955749 0.667063 0.766979
0.968475 0.727489 0.808850
0.977157 0.779706 0.842725
0.028717 0.050004 0.054032
0.032044 0.046204 0.047852
0.033249 0.044953 0.046723
0.033494 0.043610 0.046021
0.033387 0.042145 0.045594
0.036072 0.043183 0.042985
0.038575 0.045548 0.040436
0.046403 0.048508 0.041276
0.066743 0.052750 0.041566
0.087129 0.058656 0.041154
0.109621 0.066209 0.040574
0.150118 0.072724 0.036286
0.198520 0.079271 0.025315
0.248676 0.087511 0.003586
0.307927 0.096712 0.000000
0.375860 0.104372 0.000000
0.443809 0.111467 0.000000
0.504479 0.117586 0.000000
0.566812 0.118791 0.000000
0.620188 0.111467 0.000000
0.657420 0.074433 0.047227
0.700877 0.098650 0.141207
0.740917 0.140459 0.227268
0.776898 0.192172 0.308064
0.810407 0.251148 0.382620
0.841901 0.311498 0.455329
0.870268 0.374670 0.526940
0.895644 0.443305 0.593057
0.918547 0.517632 0.654963
0.938659 0.594797 0.713939
0.955856 0.667475 0.766262
0.968566 0.727886 0.808560
0.977203 0.779889 0.842435
0.016998 0.060823 0.059236
0.033875 0.053895 0.051011
0.038102 0.052216 0.049638
0.038727 0.050858 0.048661
0.039139 0.049592 0.047883
0.039582 0.049699 0.048310
0.043610 0.052354 0.047150
0.050431 0.054398 0.043595
0.068574 0.058259 0.043351
0.087648 0.063554 0.042802
0.106630 0.069779 0.042359
0.142992 0.075227 0.037949
0.190204 0.080263 0.028351
0.242359 0.089601 0.006989
0.302235 0.099596 0.000107
0.371557 0.107973 0.000000
0.441611 0.115419 0.000000
0.504189 0.121767 0.000000
0.562081 0.126040 0.000000
0.621637 0.123705 0.000000
0.660197 0.090593 0.019135
0.700328 0.100191 0.123232
0.740856 0.141939 0.214572
0.777035 0.193591 0.299580
0.810620 0.252079 0.376669
0.842130 0.312337 0.451148
0.870497 0.375372 0.524041
0.895842 0.443885 0.591058
0.918654 0.518029 0.653437
0.938720 0.594995 0.712917
0.955962 0.667918 0.765545
0.968627 0.728069 0.808042
0.977234 0.780072 0.842237
0.003769 0.072221 0.063554
0.023835 0.065309 0.053559
0.035706 0.062455 0.052003
0.038544 0.059953 0.050782
0.041444 0.057740 0.049729
0.043671 0.056626 0.048859
0.048096 0.059236 0.052033
0.056306 0.062974 0.049851
0.071488 0.066606 0.044984
0.089280 0.073091 0.044511
0.108873 0.080415 0.043061
0.145235 0.086656 0.039323
0.193408 0.091844 0.027741
0.241672 0.096727 0.008087
0.297017 0.101869 0.000244
0.366934 0.110994 0.000000
0.439490 0.118837 0.000000
0.503792 0.125536 0.000000
0.559564 0.130968 0.000000
0.621195 0.129854 0.000000
0.663859 0.107500 0.001373
0.699794 0.101839 0.103578
0.740780 0.143389 0.201602
0.777111 0.194751 0.291249
0.810712 0.252781 0.371023
0.842298 0.312947 0.447105
0.870741 0.376089 0.521324
0.896025 0.444465 0.589212
0.918837 0.518715 0.652125
0.938842 0.595453 0.711925
0.956024 0.668116 0.764935
0.968673 0.728252 0.807645
0.977279 0.780255 0.842039
0.000000 0.084123 0.069490
0.007263 0.077256 0.057084
0.022156 0.075181 0.054734
0.031937 0.073365 0.053056
0.039933 0.071717 0.051881
0.044068 0.070085 0.051103
0.052750 0.071473 0.051591
0.064500 0.075273 0.054276
0.076570 0.079225 0.051972
0.091447 0.083635 0.046326
0.111574 0.091112 0.044648
0.148043 0.097978 0.040696
0.197391 0.104051 0.028122
0.247623 0.110323 0.007355
0.303014 0.115938 0.000168
0.365408 0.117510 0.000000
0.436790 0.122621 0.000000
0.503166 0.129732 0.000000
0.560082 0.135607 0.000000
0.620188 0.139635 0.000000
0.670466 0.131807 0.000168
0.700832 0.110170 0.079774
0.740505 0.144854 0.184619
0.777173 0.195987 0.280720
0.810971 0.253834 0.364111
0.842557 0.313939 0.442176
0.870970 0.376745 0.517876
0.896193 0.444984 0.586862
0.918959 0.519127 0.650446
0.938979 0.595895 0.710658
0.956130 0.668528 0.764080
0.968734 0.728420 0.807126
0.977325 0.780438 0.841764
0.000000 0.096376 0.078477
0.000412 0.089372 0.061570
0.005280 0.087999 0.058350
0.019776 0.086885 0.055985
0.035584 0.085802 0.054719
0.048447 0.084901 0.053498
0.058061 0.083894 0.052293
0.072251 0.087770 0.053757
0.084382 0.092760 0.056260
0.097475 0.097459 0.053864
0.115190 0.102327 0.046921
0.151705 0.109773 0.042313
0.201785 0.116670 0.028992
0.253651 0.124071 0.006592
0.311086 0.131563 0.000076
0.375570 0.135668 0.000000
0.441550 0.135744 0.000000
0.501976 0.134890 0.000000
0.560479 0.141024 0.000000
0.614038 0.146059 0.000000
0.673518 0.146288 0.000000
0.703075 0.121096 0.045136
0.740047 0.146609 0.160540
0.777203 0.197406 0.265675
0.811261 0.255131 0.354513
0.842893 0.314961 0.435462
0.871336 0.377783 0.513420
0.896513 0.445960 0.583947
0.919219 0.520012 0.648371
0.939162 0.596582 0.709102
0.956252 0.668956 0.763104
0.968826 0.728801 0.806546
0.977371 0.780621 0.841398
0.000000 0.114946 0.088792
0.000000 0.106310 0.068101
0.000031 0.104051 0.062989
0.006668 0.102266 0.060090
0.022614 0.100649 0.058335
0.048844 0.099489 0.056809
0.066773 0.098924 0.055039
0.076692 0.099931 0.054093
0.091279 0.105135 0.055711
0.105287 0.111559 0.057755
0.123369 0.117845 0.054933
0.156146 0.123415 0.043641
0.206332 0.131838 0.029206
0.259678 0.140734 0.005646
0.319036 0.149676 0.000000
0.385870 0.155367 0.000000
0.455116 0.156817 0.000000
0.514687 0.154742 0.000000
0.560708 0.147402 0.000000
0.615473 0.152651 0.000000
0.672465 0.158602 0.000000
0.710475 0.145937 0.000000
0.740719 0.152804 0.130068
0.777142 0.199313 0.243366
0.811521 0.256550 0.341238
0.843183 0.316014 0.426444
0.871717 0.378943 0.507332
0.896819 0.446830 0.579858
0.919463 0.520836 0.645487
0.939406 0.597528 0.707164
0.956420 0.669581 0.761776
0.968933 0.729168 0.805753
0.977447 0.781003 0.840970
0.000000 0.140566 0.105379
0.000000 0.131548 0.078569
0.000000 0.128130 0.068818
0.002060 0.126497 0.065568
0.014267 0.124681 0.062180
0.041398 0.123156 0.060090
0.062455 0.121843 0.058198
0.075502 0.121218 0.055802
0.091798 0.123644 0.055100
0.108507 0.131411 0.056214
0.132815 0.140124 0.057755
0.165591 0.148348 0.053117
0.210666 0.153628 0.025452
0.265980 0.165454 0.003983
0.327337 0.176745 0.000000
0.396231 0.184329 0.000000
0.468452 0.187793 0.000000
0.532280 0.187350 0.000000
0.580667 0.180529 0.000000
0.619410 0.164324 0.000000
0.666728 0.169421 0.000000
0.720439 0.177676 0.000000
0.742855 0.164889 0.080552
0.776867 0.201144 0.210163
0.811795 0.258061 0.321843
0.843687 0.317662 0.414054
0.872190 0.380316 0.498451
0.897322 0.448310 0.574578
0.919829 0.522133 0.641733
0.939666 0.598413 0.704433
0.956603 0.670176 0.760037
0.969085 0.729717 0.804654
0.977539 0.781353 0.840192
0.000000 0.170459 0.127001
0.000000 0.161746 0.089586
0.000000 0.157473 0.078767
0.000000 0.157702 0.073762
0.002762 0.157015 0.068864
0.017380 0.156222 0.064164
0.038346 0.155703 0.060456
0.061540 0.155123 0.058152
0.083665 0.153964 0.055100
0.102968 0.158907 0.053605
0.133883 0.169223 0.051881
0.174701 0.180606 0.051270
0.222492 0.190829 0.037766
0.271977 0.197635 0.000000
0.335195 0.211826 0.000015
0.406577 0.222492 0.000000
0.482063 0.229236 0.000000
0.549996 0.231479 0.000000
0.602029 0.226810 0.000000
0.644038 0.213291 0.000000
0.675731 0.190906 0.000000
0.715084 0.193927 0.000000
0.752117 0.192187 0.006149
0.778759 0.211429 0.165240
0.812070 0.259495 0.292653
0.844266 0.319524 0.396460
0.872801 0.382116 0.486320
0.897871 0.449866 0.567254
0.920333 0.523827 0.636591
0.940032 0.599756 0.701030
0.956893 0.671214 0.757717
0.969299 0.730449 0.803265
0.977661 0.781888 0.839261
0.000000 0.203311 0.152804
0.000000 0.195178 0.111849
0.000000 0.190936 0.092104
0.000000 0.189380 0.084459
0.000000 0.190906 0.080217
0.000488 0.191394 0.073899
0.007828 0.191562 0.067658
0.030991 0.192035 0.062760
0.060166 0.191928 0.057176
0.088167 0.191791 0.051774
0.125505 0.199847 0.045243
0.174838 0.212894 0.036744
0.230823 0.226658 0.032166
0.286244 0.240192 0.010895
0.342947 0.247944 0.000000
0.416159 0.261418 0.000000
0.494896 0.271229 0.000000
0.567117 0.276722 0.000000
0.623514 0.276570 0.000000
0.669123 0.268788 0.000000
0.704585 0.253544 0.000000
0.726436 0.229129 0.000000
0.763607 0.229587 0.000000
0.781750 0.225391 0.084276
0.812741 0.262486 0.246433
0.844831 0.320867 0.369787
0.873579 0.384176 0.469322
0.898558 0.451926 0.556130
0.920897 0.525658 0.629709
0.940536 0.601541 0.696345
0.957244 0.672465 0.754772
0.969512 0.731167 0.801343
0.977798 0.782422 0.838056
0.000000 0.240177 0.181918
0.000000 0.233967 0.145892
0.000000 0.230106 0.122316
0.000000 0.226581 0.100984
0.000000 0.225010 0.089815
0.000000 0.227558 0.085908
0.000000 0.229282 0.081224
0.000000 0.230854 0.076127
0.000000 0.232181 0.067613
0.043320 0.233692 0.055878
0.100755 0.234180 0.039643
0.161898 0.246403 0.023606
0.230579 0.262699 0.011627
0.294942 0.280064 0.003357
0.359411 0.297597 0.000000
0.430274 0.307897 0.000000
0.505714 0.314458 0.000000
0.582834 0.323156 0.000000
0.644099 0.326452 0.000000
0.693538 0.322972 0.000000
0.732876 0.312917 0.000000
0.759075 0.296483 0.000000
0.771389 0.270863 0.000000
0.801114 0.265019 0.000015
0.816876 0.275639 0.178393
0.845441 0.321767 0.327337
0.874418 0.386282 0.444221
0.899428 0.454398 0.540383
0.921660 0.527901 0.619974
0.941176 0.603784 0.690059
0.957717 0.674098 0.750713
0.969833 0.732250 0.798932
0.978012 0.783322 0.836530
0.000000 0.285008 0.220096
0.000000 0.280232 0.183886
0.000000 0.277134 0.165682
0.000000 0.274266 0.147509
0.000000 0.271275 0.127932
0.000000 0.268620 0.108309
0.000000 0.268559 0.096300
0.000000 0.271611 0.089983
0.000076 0.274922 0.081193
0.001587 0.278523 0.069917
0.025666 0.281819 0.054581
0.121767 0.284566 0.014023
0.212634 0.302235 0.001892
0.292805 0.323644 0.000000
0.365972 0.344579 0.000855
0.439780 0.361975 0.000000
0.524437 0.374548 0.000000
0.596414 0.375952 0.000000
0.661875 0.381018 0.000000
0.715969 0.381262 0.000000
0.759213 0.374670 0.000000
0.789792 0.362585 0.000000
0.811460 0.346395 0.000000
0.824506 0.322667 0.000000
0.823865 0.292058 0.001465
0.849836 0.332052 0.263859
0.875425 0.388205 0.405112
0.900572 0.457374 0.517128
0.922667 0.530846 0.606241
0.941955 0.606302 0.681010
0.958267 0.675883 0.745220
0.970245 0.733700 0.795605
0.978271 0.784390 0.834470
0.000000 0.334722 0.267201
0.000000 0.332525 0.231144
0.000000 0.331182 0.214130
0.000000 0.329351 0.198383
0.000000 0.327199 0.184085
0.000000 0.325246 0.170230
0.000000 0.323079 0.155047
0.000000 0.320867 0.137972
0.000000 0.317968 0.114153
0.000000 0.324285 0.098543
0.000015 0.331167 0.075547
0.037903 0.338033 0.039124
0.151904 0.345113 0.001953
0.268727 0.370138 0.000015
0.358557 0.395605 0.000092
0.441474 0.416327 0.002319
0.525322 0.432151 0.000656
0.617624 0.449332 0.000000
0.688197 0.455024 0.000000
0.741100 0.452262 0.000000
0.786526 0.446616 0.000000
0.824277 0.441245 0.000000
0.850752 0.430762 0.000000
0.864439 0.408682 0.000000
0.864912 0.373495 0.000000
0.854627 0.343450 0.124453
0.879057 0.396002 0.344594
0.902022 0.460075 0.479393
0.923964 0.534249 0.586084
0.943008 0.609262 0.667903
0.959060 0.678508 0.737865
0.970794 0.735485 0.791257
0.978622 0.785809 0.831647
0.000000 0.389090 0.323125
0.000000 0.388602 0.291188
0.000000 0.387808 0.275013
0.000000 0.387106 0.261082
0.000000 0.386404 0.247654
0.000000 0.385611 0.234531
0.000000 0.384649 0.223117
0.000000 0.383413 0.211139
0.000000 0.381491 0.194949
0.000000 0.378866 0.172976
0.000000 0.375448 0.136446
0.000031 0.387442 0.109148
0.013733 0.398413 0.045716
0.207416 0.412589 0.001007
0.329000 0.444373 0.000000
0.429145 0.470451 0.000839
0.522530 0.489235 0.004700
0.611734 0.505287 0.001114
0.702235 0.526802 0.000000
0.767117 0.532815 0.000000
0.819196 0.531350 0.000000
0.857877 0.526192 0.000000
0.883955 0.517143 0.000000
0.898924 0.499916 0.000000
0.900404 0.468498 0.000000
0.887755 0.420523 0.006348
0.885435 0.408347 0.226520
0.905241 0.467201 0.420172
0.925734 0.537530 0.551415
0.944305 0.612512 0.648707
0.960037 0.681239 0.725628
0.971496 0.737804 0.785260
0.979065 0.787579 0.827955
0.000000 0.441779 0.380118
0.000000 0.443946 0.355612
0.000000 0.444495 0.342763
0.000000 0.444556 0.331685
0.000000 0.444434 0.321401
0.000000 0.444068 0.311391
0.000000 0.444144 0.301701
0.000000 0.443839 0.291951
0.000000 0.443549 0.279728
0.000000 0.442908 0.262425
0.000000 0.441154 0.236271
0.000000 0.437354 0.197574
0.000092 0.442847 0.154498
0.058106 0.458228 0.093095
0.251911 0.477867 0.011322
0.391959 0.513054 0.000000
0.504204 0.539040 0.005432
0.606729 0.558740 0.010864
0.689860 0.574289 0.021591
0.770581 0.591836 0.000031
0.834684 0.600717 0.000000
0.882033 0.602029 0.000000
0.910262 0.595636 0.000000
0.925322 0.581231 0.000000
0.929427 0.558709 0.000000
0.923308 0.526558 0.000015
0.911727 0.485893 0.114733
0.912596 0.482826 0.315068
0.928786 0.542458 0.492363
0.946075 0.615793 0.618433
0.961227 0.684215 0.707866
0.972381 0.740322 0.775311
0.979644 0.789868 0.822950
0.000000 0.493797 0.437980
0.000000 0.497734 0.418753
0.000000 0.499245 0.409613
0.000000 0.500557 0.401892
0.000000 0.501549 0.394720
0.000000 0.502068 0.387884
0.000000 0.502525 0.381384
0.000000 0.502907 0.374838
0.000000 0.503090 0.366613
0.000000 0.503471 0.354910
0.000000 0.503471 0.337789
0.000000 0.502739 0.311437
0.000000 0.500572 0.270298
0.000000 0.495705 0.201648
0.067048 0.516335 0.148333
0.309148 0.538064 0.042664
0.457938 0.573983 0.012665
0.584009 0.602716 0.040467
0.683238 0.622141 0.029282
0.755718 0.636530 0.073823
0.827451 0.646708 0.000000
0.884520 0.653849 0.000000
0.920851 0.653864 0.000000
0.940627 0.645884 0.000000
0.949493 0.632151 0.000000
0.949584 0.612909 0.017533
0.943923 0.589670 0.113970
0.939391 0.564141 0.244877
0.937331 0.561074 0.395773
0.948837 0.618540 0.563561
0.962875 0.687129 0.679469
0.973480 0.743221 0.760006
0.980377 0.792370 0.815045
0.000000 0.545800 0.494636
0.000000 0.551904 0.480735
0.000000 0.554177 0.474174
0.000000 0.555764 0.468757
0.000000 0.557076 0.463691
0.000000 0.558282 0.459144
0.000000 0.559274 0.454704
0.000000 0.560128 0.450401
0.000000 0.561074 0.444938
0.000000 0.562264 0.437552
0.000000 0.563470 0.427192
0.000000 0.564752 0.412161
0.000000 0.564981 0.387854
0.000000 0.563638 0.348226
0.000488 0.558206 0.274754
0.125566 0.576486 0.202380
0.365698 0.600458 0.098695
0.530953 0.637705 0.083330
0.660273 0.667002 0.096132
0.747677 0.685161 0.141070
0.813764 0.696559 0.158129
0.873365 0.698589 0.020249
0.919295 0.704189 0.005280
0.946258 0.702220 0.003342
0.959838 0.693462 0.009216
0.964309 0.680079 0.021820
0.967422 0.670863 0.160006
0.967361 0.659785 0.268574
0.962325 0.639292 0.344121
0.957534 0.636225 0.472084
0.965347 0.688930 0.629969
0.975006 0.746258 0.734783
0.981384 0.795209 0.802625
0.000000 0.597757 0.553429
0.000000 0.604532 0.542901
0.000000 0.607019 0.538003
0.000000 0.608911 0.534081
0.000000 0.610376 0.530419
0.000000 0.611597 0.527245
0.000000 0.612665 0.524041
0.000000 0.613764 0.521065
0.000000 0.614923 0.517082
0.000000 0.616205 0.511742
0.000000 0.617929 0.504677
0.000000 0.619867 0.494835
0.000000 0.622065 0.480583
0.000031 0.623804 0.458488
0.000031 0.624109 0.422415
0.000000 0.620127 0.354833
0.179263 0.635554 0.266178
0.430579 0.663447 0.176028
0.610071 0.701976 0.179309
0.726802 0.728237 0.191241
0.806516 0.745785 0.242008
0.865690 0.755657 0.264912
0.912093 0.752987 0.175860
0.944228 0.752178 0.107912
0.964248 0.749477 0.103410
0.975921 0.744366 0.153323
0.982254 0.740063 0.225834
0.985107 0.735485 0.300954
0.984253 0.726268 0.367941
0.978607 0.707103 0.431205
0.972946 0.703029 0.545876
0.977356 0.748775 0.688884
0.982818 0.798383 0.781964
0.000000 0.646693 0.611902
0.000000 0.652644 0.603662
0.000000 0.654963 0.599954
0.000000 0.656672 0.596902
0.000000 0.658061 0.594354
0.000000 0.659312 0.591989
0.000000 0.660365 0.589761
0.000000 0.661357 0.587716
0.000000 0.662501 0.585168
0.000000 0.663935 0.581735
0.000000 0.665766 0.576822
0.000000 0.667796 0.569726
0.000000 0.670253 0.559716
0.000000 0.672953 0.545220
0.000000 0.675883 0.524315
0.000000 0.678172 0.490150
0.000000 0.677363 0.428977
0.265202 0.690547 0.337545
0.504051 0.720363 0.258457
0.683772 0.759350 0.266850
0.785229 0.782025 0.290974
0.857633 0.796872 0.324224
0.906203 0.806012 0.348119
0.942657 0.802899 0.295018
0.966690 0.799847 0.260716
0.982757 0.798886 0.263294
0.992233 0.798245 0.297978
0.995544 0.796613 0.342367
0.996429 0.793774 0.396124
0.995560 0.787320 0.453254
0.989960 0.769162 0.509743
0.983963 0.762112 0.613077
0.984970 0.800916 0.741726
0.000000 0.689265 0.663539
0.000000 0.694514 0.657526
0.000000 0.696574 0.654734
0.000000 0.698054 0.652583
0.000000 0.699351 0.650629
0.000000 0.700496 0.648981
0.000000 0.701518 0.647349
0.000000 0.702342 0.645853
0.000000 0.703426 0.644068
0.000000 0.704784 0.641611
0.000000 0.706462 0.638498
0.000000 0.708659 0.634256
0.000015 0.711345 0.628260
0.000046 0.714458 0.619104
0.000046 0.718181 0.605859
0.000031 0.722225 0.586404
0.025818 0.725994 0.554513
0.118990 0.728267 0.499107
0.340612 0.738582 0.409506
0.582147 0.769863 0.339574
0.743725 0.805676 0.351598
0.836210 0.824491 0.373968
0.898039 0.837263 0.403677
0.935683 0.844984 0.426169
0.964553 0.841886 0.386236
0.984436 0.840406 0.368566
0.995834 0.840635 0.374334
0.999283 0.840406 0.397345
0.999756 0.839948 0.434516
0.999924 0.839460 0.480262
0.999634 0.836606 0.531044
0.997040 0.822278 0.582269
0.990585 0.813092 0.670985
0.000000 0.727642 0.709773
0.000000 0.732189 0.705333
0.000000 0.734051 0.703304
0.000000 0.735485 0.701747
0.000000 0.736614 0.700328
0.000000 0.737713 0.699077
0.000000 0.738613 0.697963
0.000000 0.739467 0.696880
0.000000 0.740429 0.695598
0.000000 0.741726 0.693874
0.000000 0.743267 0.691508
0.000000 0.745357 0.688487
0.000000 0.747845 0.684504
0.000000 0.750927 0.679072
0.000000 0.754681 0.671016
0.000031 0.758892 0.659388
0.000031 0.763760 0.642252
0.067094 0.768826 0.615518
0.233448 0.773022 0.567880
0.423301 0.780072 0.478202
0.654612 0.812268 0.416739
0.796109 0.842466 0.430137
0.878645 0.858213 0.450706
0.927443 0.869047 0.477943
0.956786 0.875029 0.499214
0.980346 0.872984 0.467491
0.995178 0.872450 0.456107
0.999786 0.871855 0.461570
1.000000 0.871748 0.482109
1.000000 0.872724 0.516289
1.000000 0.873793 0.558190
0.999985 0.872709 0.602777
0.999405 0.862623 0.646265
0.000000 0.765026 0.753033
0.000000 0.768917 0.749676
0.000000 0.770443 0.748104
0.000000 0.771618 0.746899
0.000000 0.772595 0.745998
0.000000 0.773449 0.745083
0.000000 0.774243 0.744198
0.000000 0.774868 0.743465
0.000000 0.775753 0.742565
0.000000 0.776822 0.741222
0.000000 0.778164 0.739742
0.000000 0.779843 0.737499
0.000000 0.782010 0.734798
0.000000 0.784756 0.731044
0.000000 0.788037 0.725948
0.032624 0.792020 0.719265
0.095872 0.796689 0.709636
0.179461 0.802075 0.695415
0.281224 0.808042 0.673579
0.379767 0.813031 0.634012
0.507820 0.817456 0.545373
0.715923 0.848005 0.490471
0.843275 0.872724 0.503975
0.911299 0.886107 0.523796
0.949004 0.894667 0.549310
0.972519 0.899916 0.570123
0.991135 0.898512 0.543435
0.999496 0.897444 0.534493
1.000000 0.896345 0.540475
1.000000 0.897185 0.560815
1.000000 0.899016 0.592325
1.000000 0.900404 0.628702
1.000000 0.899596 0.665415
0.000000 0.800107 0.790051
0.000000 0.803296 0.787793
0.000000 0.804562 0.786847
0.004044 0.805493 0.786114
0.009293 0.806180 0.785504
0.014603 0.806851 0.784909
0.019348 0.807462 0.784421
0.023560 0.807965 0.783917
0.028412 0.808560 0.783322
0.035141 0.809400 0.782589
0.043854 0.810422 0.781613
0.055283 0.811765 0.780301
0.070237 0.813474 0.778622
0.089082 0.815534 0.776471
0.115068 0.818265 0.773510
0.148714 0.821546 0.769497
0.197833 0.825727 0.764889
0.263645 0.830808 0.758419
