luts/apple-log/33x/Apple_LOG_to_Fujifilm_3513DI_D60_Rec709_G2-4.cube
TITLE "Apple LOG to Fujifilm 3513DI D60 Rec709 G2-4"
#  
# Apple LOG to Rec.709 Hybrid LUT
#  
# This hybrid LUT converts Apple LOG to Rec.709 Gamma 2.4
#  
# Based on an original creative LUT included in DaVinci Resolve, adapted for a different color space.  
#  
# Created by Tobia Montanari | tobiamontanari.com
#  
#  
# 
LUT_3D_SIZE 33
0.030533 0.036622 0.035416
0.030533 0.036622 0.035416
0.031449 0.036927 0.036438
0.048127 0.039231 0.038361
0.072740 0.045396 0.040848
0.088304 0.050340 0.042496
0.107210 0.053193 0.043641
0.126268 0.054780 0.043229
0.149020 0.056214 0.041321
0.174807 0.057649 0.037964
0.203555 0.059297 0.032013
0.235111 0.060273 0.019974
0.272023 0.060853 0.015274
0.313664 0.058793 0.016800
0.359670 0.046540 0.038453
0.409567 0.022766 0.056855
0.461784 0.004837 0.090333
0.512566 0.010254 0.114229
0.563806 0.012131 0.144533
0.613901 0.032364 0.181445
0.661021 0.056748 0.225864
0.702358 0.101030 0.275105
0.740658 0.151995 0.328435
0.775738 0.203113 0.385550
0.807050 0.260685 0.447562
0.833356 0.319356 0.514031
0.856428 0.381552 0.580438
0.878630 0.449012 0.642725
0.901076 0.522484 0.701823
0.922652 0.599588 0.756695
0.942382 0.672908 0.804028
0.957900 0.735027 0.840589
0.969131 0.789075 0.868650
0.030533 0.036622 0.035416
0.030533 0.036622 0.035416
0.030533 0.036622 0.035416
0.031769 0.037476 0.035294
0.029145 0.041444 0.036988
0.051286 0.044358 0.038819
0.067155 0.049287 0.039795
0.077058 0.053712 0.039643
0.093828 0.057832 0.039445
0.119112 0.061631 0.038041
0.152605 0.065003 0.034058
0.188067 0.069062 0.028702
0.225193 0.073259 0.004669
0.274098 0.079164 0.000244
0.330587 0.083619 0.000000
0.389120 0.082368 0.000000
0.450080 0.083040 0.000000
0.503853 0.065705 0.007004
0.554162 0.035676 0.052369
0.607614 0.049271 0.109957
0.658671 0.079271 0.165850
0.703639 0.116503 0.228824
0.742550 0.161425 0.293416
0.777371 0.210468 0.358984
0.808255 0.266331 0.426734
0.834424 0.323674 0.498222
0.857237 0.384726 0.569406
0.879271 0.451698 0.635493
0.901686 0.524926 0.696818
0.923186 0.601526 0.753704
0.942763 0.674266 0.802335
0.958190 0.736034 0.839658
0.969284 0.789670 0.868025
0.030533 0.036622 0.035416
0.030533 0.036622 0.035416
0.030533 0.036622 0.035416
0.030533 0.036622 0.035416
0.030350 0.040208 0.035874
0.029755 0.043702 0.039689
0.051148 0.047334 0.040040
0.066178 0.052003 0.040497
0.078691 0.057099 0.040375
0.100237 0.062394 0.040070
0.133867 0.067185 0.037247
0.173785 0.072084 0.031571
0.214923 0.077745 0.014115
0.259525 0.083833 0.001053
0.308583 0.089128 0.000000
0.363943 0.093248 0.000000
0.434775 0.098665 0.000000
0.498970 0.101778 0.000000
0.554665 0.083223 0.005524
0.603479 0.056550 0.060975
0.656535 0.086793 0.133989
0.703593 0.121950 0.204349
0.743282 0.165087 0.276249
0.778012 0.213352 0.346410
0.808743 0.268376 0.417166
0.834821 0.325154 0.490806
0.857511 0.385779 0.564309
0.879545 0.452705 0.632212
0.901884 0.525628 0.694438
0.923430 0.602350 0.752132
0.942931 0.674861 0.801602
0.958282 0.736339 0.839185
0.969360 0.789990 0.867796
0.030533 0.036622 0.035416
0.030533 0.036622 0.035416
0.030533 0.036622 0.035416
0.030533 0.036622 0.035416
0.031418 0.038300 0.034760
0.027024 0.042908 0.039368
0.033753 0.046494 0.040391
0.053773 0.049989 0.040909
0.070573 0.055390 0.041031
0.086213 0.061784 0.040848
0.117220 0.068131 0.039780
0.160876 0.074327 0.034089
0.205631 0.080736 0.021149
0.252155 0.087282 0.001541
0.303273 0.093767 0.000000
0.357122 0.099626 0.000000
0.410407 0.105928 0.000000
0.487541 0.114763 0.000000
0.554223 0.118196 0.000000
0.603937 0.082872 0.010834
0.654292 0.091676 0.103761
0.703258 0.125856 0.182818
0.743740 0.167666 0.260884
0.778470 0.215381 0.335988
0.809079 0.269886 0.409583
0.835142 0.326314 0.485054
0.857771 0.386709 0.560265
0.879698 0.453315 0.629435
0.902098 0.526421 0.692805
0.923598 0.602960 0.750881
0.943038 0.675212 0.800839
0.958389 0.736690 0.838911
0.969436 0.790311 0.867643
0.030106 0.042054 0.037262
0.030533 0.036622 0.035416
0.030533 0.036622 0.035416
0.030533 0.036622 0.035416
0.030533 0.036622 0.035416
0.030213 0.041794 0.038148
0.028443 0.045838 0.040208
0.039872 0.048981 0.041138
0.060731 0.053757 0.041596
0.078798 0.060487 0.041398
0.105333 0.068574 0.040696
0.148684 0.075822 0.036255
0.196597 0.082780 0.026520
0.245212 0.089708 0.001907
0.298421 0.098772 0.000000
0.354086 0.105882 0.000000
0.409171 0.112688 0.000000
0.468193 0.120806 0.000000
0.546410 0.127504 0.000000
0.607965 0.117357 0.000397
0.652216 0.095064 0.068742
0.702693 0.128634 0.162402
0.743938 0.169558 0.246601
0.778866 0.216876 0.326238
0.809369 0.271199 0.402731
0.835370 0.327291 0.480018
0.857969 0.387472 0.556695
0.879881 0.453986 0.627283
0.902235 0.526970 0.691234
0.923705 0.603357 0.749828
0.943160 0.675608 0.800214
0.958434 0.736812 0.838575
0.969482 0.790463 0.867475
0.027924 0.055833 0.045060
0.031342 0.049149 0.038407
0.031632 0.046601 0.037415
0.031663 0.044358 0.036774
0.031601 0.042130 0.036378
0.032181 0.043610 0.035554
0.027756 0.046235 0.040238
0.030518 0.048463 0.041199
0.050568 0.052201 0.042069
0.072282 0.059205 0.041871
0.094942 0.068437 0.041398
0.136919 0.076768 0.037827
0.187762 0.084306 0.028473
0.238788 0.092821 0.004181
0.293523 0.103212 0.000000
0.350958 0.110964 0.000000
0.407782 0.118227 0.000000
0.460288 0.125399 0.000000
0.536919 0.136706 0.000000
0.609491 0.140139 0.000000
0.653086 0.107347 0.039582
0.701701 0.130541 0.142580
0.744091 0.171206 0.232898
0.779202 0.218128 0.317082
0.809613 0.272328 0.396597
0.835615 0.328252 0.475395
0.858122 0.388052 0.553628
0.880064 0.454673 0.625299
0.902403 0.527565 0.689830
0.923888 0.604013 0.748974
0.943267 0.675990 0.799680
0.958526 0.737179 0.838407
0.969512 0.790616 0.867323
0.012589 0.070542 0.050874
0.030137 0.060151 0.041260
0.032380 0.056794 0.040406
0.030915 0.054276 0.039857
0.030579 0.052110 0.039399
0.029435 0.051576 0.039597
0.028748 0.054292 0.039689
0.033097 0.056519 0.043366
0.052781 0.060487 0.044129
0.073121 0.066468 0.043366
0.092577 0.073945 0.042512
0.130144 0.080583 0.038865
0.179126 0.085878 0.030320
0.232670 0.095644 0.007538
0.288960 0.106737 0.000092
0.347936 0.115190 0.000000
0.406332 0.122942 0.000000
0.460319 0.130541 0.000000
0.519554 0.139513 0.000000
0.605478 0.149706 0.000000
0.656260 0.126055 0.015076
0.700694 0.132067 0.122438
0.744259 0.172610 0.219776
0.779538 0.219394 0.308324
0.809888 0.273152 0.390478
0.835813 0.329000 0.471107
0.858274 0.388647 0.550729
0.880201 0.455161 0.623423
0.902495 0.527886 0.688487
0.923949 0.604166 0.748119
0.943389 0.676387 0.799146
0.958572 0.737316 0.838041
0.969558 0.790768 0.867216
0.000549 0.085893 0.054948
0.014633 0.074632 0.043183
0.019532 0.069490 0.042252
0.020462 0.065492 0.041672
0.023728 0.062165 0.041154
0.026261 0.060243 0.040772
0.026627 0.062745 0.043229
0.035996 0.066789 0.042374
0.055451 0.071031 0.045274
0.075258 0.078355 0.044663
0.094804 0.086778 0.042618
0.133196 0.094179 0.038300
0.182818 0.099641 0.026566
0.232502 0.104417 0.007202
0.284535 0.109545 0.000183
0.344579 0.118746 0.000000
0.404913 0.127306 0.000000
0.460227 0.135180 0.000000
0.510704 0.142504 0.000000
0.597726 0.153628 0.000000
0.659449 0.143206 0.000000
0.699687 0.133822 0.099931
0.744137 0.173846 0.206073
0.779812 0.220447 0.299718
0.810056 0.273762 0.384695
0.835966 0.329549 0.466972
0.858442 0.389258 0.548012
0.880323 0.455650 0.621683
0.902647 0.528496 0.687358
0.924056 0.604562 0.747326
0.943450 0.676555 0.798672
0.958618 0.737469 0.837766
0.969589 0.790936 0.867109
0.000000 0.102281 0.059815
0.003006 0.090471 0.045975
0.004623 0.085679 0.044526
0.005035 0.082063 0.043564
0.009598 0.078981 0.043427
0.014572 0.076387 0.043854
0.026703 0.077485 0.043442
0.044221 0.081682 0.045441
0.060075 0.086275 0.043641
0.077470 0.091737 0.045304
0.097765 0.100435 0.042695
0.136217 0.108537 0.036896
0.187182 0.115221 0.023133
0.239002 0.121843 0.004456
0.291264 0.127108 0.000061
0.344121 0.127138 0.000000
0.403052 0.132143 0.000000
0.459953 0.140368 0.000000
0.511452 0.148058 0.000000
0.585992 0.160494 0.000000
0.663691 0.164416 0.000000
0.700252 0.142321 0.071305
0.743816 0.175036 0.188144
0.780133 0.221546 0.288869
0.810407 0.274708 0.377600
0.836179 0.330449 0.461906
0.858595 0.389792 0.544579
0.880446 0.456077 0.619471
0.902754 0.528817 0.685893
0.924178 0.604959 0.746288
0.943557 0.676936 0.798016
0.958663 0.737606 0.837400
0.969635 0.791089 0.866941
0.000000 0.119539 0.068864
0.000000 0.107164 0.049561
0.000000 0.103090 0.047547
0.000702 0.100511 0.046220
0.002075 0.098161 0.046845
0.014969 0.096147 0.046983
0.028717 0.094194 0.047059
0.047303 0.098482 0.045045
0.066148 0.104479 0.044846
0.085161 0.109941 0.041917
0.101869 0.115358 0.042466
0.139818 0.123919 0.035065
0.191455 0.131716 0.018006
0.245396 0.140276 0.001923
0.299718 0.147524 0.000000
0.354742 0.150378 0.000000
0.408484 0.148760 0.000000
0.459236 0.146731 0.000000
0.512123 0.154528 0.000000
0.562585 0.161410 0.000000
0.659342 0.176532 0.000000
0.701885 0.153292 0.032761
0.743282 0.176394 0.162646
0.780453 0.222751 0.273350
0.810803 0.275837 0.367773
0.836484 0.331380 0.455116
0.858839 0.390677 0.540154
0.880659 0.456901 0.616754
0.902953 0.529595 0.684092
0.924346 0.605570 0.745037
0.943679 0.677302 0.797284
0.958755 0.737926 0.837003
0.969665 0.791226 0.866743
0.000000 0.142275 0.082399
0.000000 0.127123 0.054749
0.000000 0.122423 0.050309
0.000000 0.120104 0.048600
0.003113 0.118166 0.049363
0.017121 0.116289 0.049485
0.029313 0.114549 0.049149
0.046097 0.115160 0.048051
0.073411 0.121279 0.044465
0.093721 0.129061 0.041245
0.114656 0.135760 0.035020
0.144320 0.140520 0.032120
0.195727 0.149767 0.011612
0.251438 0.160388 0.000000
0.307683 0.169360 0.000000
0.365133 0.174273 0.000000
0.422049 0.175128 0.000000
0.471794 0.171313 0.000000
0.512657 0.162142 0.000000
0.564340 0.169223 0.000000
0.641978 0.184115 0.000000
0.709468 0.180514 0.000000
0.743404 0.181476 0.128115
0.780652 0.224292 0.250278
0.811276 0.277089 0.354208
0.836805 0.332296 0.445945
0.859098 0.391638 0.534081
0.880873 0.457603 0.612909
0.903151 0.530266 0.681575
0.924590 0.606409 0.743465
0.943847 0.677867 0.796262
0.958862 0.738231 0.836439
0.969741 0.791531 0.866499
0.000000 0.171221 0.105943
0.000000 0.153262 0.062821
0.000000 0.146548 0.052247
0.000000 0.144686 0.049851
0.004150 0.142824 0.046586
0.016693 0.141131 0.046586
0.031281 0.139437 0.047349
0.047486 0.138140 0.047120
0.071092 0.140459 0.045045
0.095277 0.149386 0.037278
0.125643 0.159442 0.029084
0.161181 0.168154 0.014939
0.200504 0.171588 0.006210
0.257099 0.184314 0.000015
0.315175 0.195224 0.000000
0.374731 0.202182 0.000000
0.434211 0.204959 0.000000
0.487800 0.203861 0.000000
0.531670 0.197116 0.000000
0.568505 0.182147 0.000000
0.614832 0.187549 0.000000
0.710521 0.207858 0.000000
0.744518 0.191745 0.064622
0.780652 0.225528 0.215778
0.811856 0.278355 0.334325
0.837293 0.333776 0.433371
0.859510 0.392828 0.525154
0.881209 0.458854 0.607965
0.903456 0.531365 0.678309
0.924819 0.607156 0.741222
0.944015 0.678370 0.794919
0.958999 0.738689 0.835676
0.969818 0.791806 0.866011
0.000000 0.203845 0.135348
0.000000 0.184863 0.072862
0.000000 0.174914 0.057572
0.000000 0.173770 0.052247
0.000504 0.172702 0.046754
0.003067 0.171496 0.040772
0.016342 0.170489 0.036454
0.036881 0.169497 0.036927
0.057786 0.167712 0.037736
0.086580 0.173083 0.029206
0.126955 0.185443 0.009125
0.173480 0.199313 0.002457
0.224399 0.211704 0.000046
0.261723 0.211841 0.000046
0.321141 0.224628 0.000000
0.382589 0.233722 0.000000
0.444678 0.239094 0.000000
0.501610 0.240543 0.000000
0.549126 0.236637 0.000000
0.590600 0.226062 0.000000
0.623590 0.207889 0.000000
0.672343 0.213367 0.000000
0.753231 0.220020 0.001587
0.781979 0.233646 0.168521
0.812711 0.279469 0.304402
0.837873 0.335393 0.415518
0.860044 0.394369 0.512932
0.881575 0.460090 0.601007
0.903868 0.532784 0.673838
0.925155 0.608331 0.738460
0.944305 0.679301 0.793164
0.959182 0.739315 0.834730
0.969940 0.792248 0.865446
0.000000 0.239643 0.169757
0.000000 0.220920 0.103853
0.000000 0.211139 0.070863
0.000000 0.205081 0.059953
0.000000 0.205005 0.055116
0.000015 0.204562 0.043748
0.003967 0.203861 0.029770
0.018326 0.203845 0.017945
0.038422 0.203372 0.006912
0.070405 0.202777 0.006912
0.118334 0.213016 0.001434
0.174426 0.229709 0.000153
0.235142 0.245930 0.000122
0.293706 0.260655 0.000031
0.325963 0.254551 0.000000
0.388647 0.265660 0.000000
0.452674 0.273335 0.000000
0.512352 0.277256 0.000000
0.563195 0.276844 0.000000
0.608545 0.270588 0.000000
0.646616 0.258518 0.000000
0.672953 0.239124 0.000000
0.746014 0.249866 0.000000
0.783337 0.244236 0.078248
0.813718 0.281544 0.256916
0.838880 0.336538 0.388602
0.860731 0.396094 0.495857
0.882124 0.461723 0.590158
0.904295 0.534264 0.667826
0.925628 0.609888 0.734630
0.944640 0.680385 0.790936
0.959365 0.739864 0.833356
0.970047 0.792645 0.864683
0.000000 0.280095 0.209384
0.000000 0.263188 0.153216
0.000000 0.254902 0.117769
0.000000 0.247059 0.083543
0.000000 0.240711 0.062654
0.000000 0.241367 0.058000
0.000015 0.241505 0.049638
0.000000 0.241794 0.037873
0.000000 0.242588 0.017868
0.044099 0.244831 0.000244
0.098360 0.246006 0.000015
0.163684 0.260807 0.000015
0.234699 0.279423 0.000015
0.303685 0.298939 0.000000
0.367819 0.315862 0.000000
0.412192 0.312367 0.000000
0.458747 0.308186 0.000000
0.521080 0.314458 0.000000
0.574899 0.316609 0.000000
0.623255 0.313710 0.000000
0.664790 0.305837 0.000000
0.695994 0.292882 0.000000
0.716243 0.272465 0.000000
0.797955 0.283619 0.000000
0.816464 0.291905 0.186618
0.840284 0.337179 0.345739
0.861585 0.397772 0.470726
0.882811 0.463584 0.574792
0.904891 0.536034 0.658976
0.926207 0.611811 0.729503
0.945098 0.681819 0.787839
0.959655 0.740764 0.831662
0.970245 0.793378 0.863752
0.000000 0.326635 0.257511
0.000000 0.313726 0.209430
0.000000 0.306706 0.183215
0.000000 0.300496 0.156466
0.000000 0.294301 0.127230
0.000000 0.287785 0.095354
0.000000 0.284367 0.074632
0.000000 0.285527 0.062303
0.000031 0.287068 0.037400
0.005600 0.289540 0.009689
0.044724 0.293217 0.000244
0.131518 0.296941 0.000000
0.219318 0.315694 0.000000
0.301152 0.338094 0.000000
0.376226 0.360189 0.000000
0.444022 0.375616 0.000000
0.500206 0.374502 0.000000
0.532845 0.357626 0.000000
0.585489 0.358740 0.000000
0.636561 0.358480 0.000000
0.680858 0.353353 0.000000
0.715328 0.344381 0.000000
0.754345 0.337560 0.000000
0.797223 0.327092 0.000000
0.820417 0.303120 0.001526
0.844541 0.346090 0.281971
0.862882 0.399145 0.431739
0.883711 0.465721 0.552026
0.905745 0.538338 0.646418
0.926894 0.613870 0.721981
0.945617 0.683330 0.783612
0.960021 0.741939 0.829328
0.970474 0.794232 0.862486
0.000000 0.378088 0.315190
0.000000 0.369833 0.272602
0.000000 0.365377 0.250965
0.000000 0.361074 0.231159
0.000000 0.356588 0.212116
0.000000 0.352255 0.192721
0.000000 0.347616 0.170947
0.000000 0.342535 0.145373
0.000000 0.335470 0.107759
0.000000 0.339178 0.077531
0.000015 0.344564 0.028901
0.055360 0.352575 0.002777
0.175631 0.356954 0.000000
0.280934 0.381430 0.000000
0.371374 0.406180 0.000000
0.449363 0.425345 0.000839
0.520241 0.437064 0.000046
0.587427 0.442298 0.000000
0.634195 0.434974 0.000000
0.669123 0.421439 0.000000
0.708446 0.412253 0.000000
0.755917 0.412879 0.000000
0.801648 0.413550 0.000000
0.834272 0.402747 0.000000
0.850889 0.376562 0.000000
0.847257 0.352148 0.144503
0.867231 0.405982 0.372030
0.884932 0.467216 0.514580
0.906783 0.540795 0.627955
0.927779 0.616159 0.710842
0.946365 0.685573 0.777996
0.960494 0.743374 0.826261
0.970794 0.795346 0.860746
0.000000 0.431754 0.378347
0.000000 0.428031 0.343771
0.000000 0.425757 0.325978
0.000000 0.423529 0.310231
0.000000 0.421408 0.294896
0.000000 0.419242 0.279896
0.000000 0.416556 0.265538
0.000000 0.413596 0.250553
0.000000 0.409491 0.230426
0.000000 0.403479 0.199771
0.000000 0.394537 0.147784
0.000000 0.403677 0.106126
0.037110 0.413809 0.025147
0.228992 0.424216 0.000015
0.346700 0.452247 0.000000
0.440848 0.474189 0.000580
0.521614 0.489082 0.007233
0.595880 0.500359 0.012299
0.671260 0.513283 0.000000
0.722927 0.509041 0.000000
0.767834 0.500908 0.000000
0.807782 0.495521 0.000000
0.843122 0.492226 0.000000
0.870604 0.483543 0.000000
0.880934 0.458579 0.000000
0.871931 0.415122 0.015244
0.874434 0.415717 0.257221
0.888334 0.472511 0.456519
0.908156 0.542580 0.594675
0.928832 0.618402 0.694453
0.947219 0.687755 0.768277
0.961105 0.745190 0.822034
0.971176 0.796735 0.858457
0.000000 0.483436 0.443931
0.000000 0.483162 0.417395
0.000000 0.482918 0.403433
0.000000 0.482139 0.391119
0.000000 0.481270 0.379767
0.000000 0.480278 0.368811
0.000000 0.479912 0.358129
0.000000 0.479194 0.347402
0.000000 0.477989 0.333608
0.000000 0.475914 0.314031
0.000000 0.471992 0.284382
0.000000 0.464027 0.237568
0.000519 0.464286 0.179751
0.086656 0.474891 0.100389
0.279667 0.486839 0.014374
0.409857 0.514824 0.000000
0.509026 0.536187 0.028931
0.593988 0.550027 0.025208
0.667018 0.563058 0.062135
0.738674 0.570443 0.000000
0.797818 0.573312 0.000000
0.844007 0.571405 0.000000
0.876417 0.566247 0.000000
0.898924 0.556115 0.000000
0.908339 0.537682 0.000015
0.903426 0.508904 0.017929
0.897948 0.481758 0.170336
0.897810 0.485481 0.355276
0.910628 0.544869 0.537224
0.930129 0.620081 0.667414
0.948196 0.689921 0.754101
0.961852 0.747127 0.814679
0.971679 0.798505 0.855360
0.000000 0.531975 0.507576
0.000000 0.535042 0.487846
0.000000 0.536217 0.478340
0.000000 0.537316 0.470115
0.000000 0.538018 0.462226
0.000000 0.538262 0.454566
0.000000 0.538445 0.447379
0.000000 0.538582 0.440162
0.000000 0.538445 0.431144
0.000000 0.538537 0.418418
0.000000 0.538186 0.399939
0.000000 0.536767 0.371710
0.000000 0.532525 0.326818
0.000000 0.521996 0.248676
0.087114 0.536339 0.188586
0.335363 0.544610 0.066850
0.471992 0.572885 0.070314
0.578424 0.595682 0.085313
0.664088 0.612436 0.139712
0.729793 0.622370 0.155474
0.792767 0.618112 0.026932
0.848905 0.620630 0.000122
0.887816 0.619852 0.000000
0.913329 0.614145 0.000015
0.926207 0.603037 0.000015
0.929427 0.588998 0.047746
0.931029 0.579202 0.207462
0.925414 0.558450 0.297414
0.919997 0.559167 0.445106
0.931945 0.619852 0.616312
0.949401 0.691508 0.730785
0.962722 0.749264 0.803189
0.972259 0.800305 0.850111
0.000000 0.580728 0.569635
0.000000 0.586694 0.554833
0.000000 0.588876 0.547967
0.000000 0.590372 0.542367
0.000000 0.591745 0.537148
0.000000 0.593011 0.532479
0.000000 0.593988 0.527779
0.000000 0.594781 0.523125
0.000000 0.595651 0.517266
0.000000 0.596735 0.509361
0.000000 0.597803 0.498375
0.000000 0.598856 0.482536
0.000000 0.598795 0.456947
0.000046 0.596643 0.415335
0.002136 0.588098 0.338186
0.172671 0.597879 0.261738
0.393240 0.607797 0.164324
0.537881 0.637232 0.173587
0.646128 0.658305 0.191806
0.725505 0.674083 0.228977
0.788373 0.681987 0.248447
0.843183 0.673152 0.136004
0.885954 0.669108 0.043320
0.916777 0.666545 0.026352
0.936919 0.662974 0.072267
0.947982 0.658808 0.172885
0.953948 0.656336 0.254322
0.953460 0.649042 0.332830
0.946838 0.631495 0.405341
0.939864 0.632258 0.530694
0.950851 0.690730 0.688197
0.963821 0.751141 0.783856
0.972961 0.802213 0.841398
0.000000 0.629938 0.630365
0.000000 0.637110 0.619135
0.000000 0.639826 0.614069
0.000000 0.641886 0.610071
0.000000 0.643503 0.606409
0.000000 0.644877 0.603250
0.000000 0.646082 0.600107
0.000000 0.647181 0.597086
0.000000 0.648310 0.593027
0.000000 0.649454 0.587427
0.000000 0.650980 0.580056
0.000000 0.652689 0.569909
0.000000 0.654643 0.555520
0.000000 0.655756 0.533150
0.000000 0.654765 0.496132
0.000000 0.648829 0.427008
0.220264 0.655695 0.336355
0.454078 0.670207 0.252811
0.604990 0.698436 0.261326
0.706920 0.717357 0.280949
0.781994 0.730709 0.311574
0.840513 0.738155 0.332097
0.888167 0.731807 0.267430
0.922179 0.727260 0.227207
0.946181 0.725322 0.225101
0.961944 0.725017 0.259724
0.969604 0.724971 0.314092
0.971359 0.722713 0.377539
0.969100 0.715602 0.441489
0.962112 0.698802 0.502297
0.956741 0.699596 0.612848
0.965316 0.751690 0.747494
0.973892 0.804135 0.826490
0.000000 0.677424 0.686442
0.000000 0.683619 0.678019
0.000000 0.686030 0.674327
0.000000 0.687816 0.671290
0.000000 0.689265 0.668757
0.000000 0.690562 0.666438
0.000000 0.691661 0.664240
0.000000 0.692699 0.662211
0.000000 0.693889 0.659724
0.000000 0.695399 0.656367
0.000000 0.697017 0.651514
0.000000 0.698680 0.644480
0.000015 0.700633 0.634562
0.000046 0.702739 0.620340
0.000122 0.704860 0.599939
0.000214 0.704921 0.565713
0.044312 0.701610 0.505425
0.314199 0.707698 0.413962
0.516182 0.724330 0.337331
0.667582 0.751171 0.347127
0.761593 0.767727 0.367010
0.832776 0.779644 0.395453
0.882429 0.787793 0.417502
0.922377 0.783444 0.371344
0.950729 0.780804 0.348333
0.969131 0.781048 0.354177
0.978958 0.782284 0.384527
0.982467 0.783017 0.428733
0.982956 0.782223 0.481056
0.980163 0.777523 0.536324
0.974258 0.762280 0.589776
0.970352 0.760800 0.685008
0.975204 0.804883 0.796201
0.000000 0.718364 0.732509
0.000000 0.723613 0.726879
0.000000 0.725505 0.724346
0.000000 0.726864 0.722393
0.000000 0.728054 0.720638
0.000000 0.729091 0.719112
0.000000 0.730022 0.717647
0.000000 0.730785 0.716289
0.000000 0.731762 0.714672
0.000000 0.732998 0.712413
0.000000 0.734539 0.709575
0.000000 0.736522 0.705684
0.000000 0.738674 0.700038
0.000000 0.740841 0.691005
0.000000 0.743343 0.677943
0.000000 0.745892 0.658976
0.054093 0.747875 0.628855
0.167712 0.747875 0.576898
0.377432 0.751766 0.490196
0.579782 0.769390 0.421759
0.720775 0.794110 0.432685
0.810971 0.809003 0.451621
0.873808 0.820691 0.478187
0.913924 0.828763 0.499977
0.946578 0.825299 0.465827
0.969162 0.824292 0.453315
0.981903 0.825864 0.463142
0.988159 0.828290 0.489738
0.990845 0.830457 0.528542
0.990860 0.832120 0.574212
0.988647 0.830976 0.622934
0.984436 0.818540 0.668132
0.979507 0.813855 0.742199
0.000000 0.753079 0.770901
0.000015 0.757137 0.766781
0.000031 0.758602 0.764858
0.000046 0.759716 0.763424
0.000061 0.760601 0.762112
0.000061 0.761456 0.760952
0.000076 0.762158 0.759915
0.000076 0.762814 0.758907
0.000076 0.763577 0.757733
0.000076 0.764599 0.756161
0.000092 0.765805 0.754025
0.000092 0.767437 0.751278
0.000076 0.769406 0.747692
0.000473 0.771847 0.742855
0.014755 0.774594 0.735592
0.040391 0.777554 0.724926
0.088060 0.781079 0.709789
0.181857 0.784817 0.686793
0.300694 0.787045 0.644129
0.445594 0.788708 0.561013
0.638972 0.807050 0.502754
0.770092 0.829664 0.513558
0.853452 0.843778 0.530465
0.904936 0.855024 0.555886
0.938323 0.862516 0.577569
0.964721 0.860548 0.552483
0.980789 0.860685 0.546700
0.989288 0.862638 0.557763
0.994385 0.865766 0.582452
0.996185 0.869047 0.617807
0.995941 0.871885 0.658885
0.995041 0.872068 0.699184
0.990707 0.862074 0.731167
0.000015 0.782696 0.800641
0.000046 0.785870 0.797650
0.000046 0.787060 0.796277
0.000061 0.787945 0.795178
0.000061 0.788678 0.794354
0.000061 0.789319 0.793530
0.000061 0.789914 0.792737
0.000061 0.790387 0.792096
0.000061 0.791058 0.791287
0.000061 0.791867 0.790097
0.000061 0.792889 0.788769
0.000061 0.794156 0.786816
0.000061 0.795789 0.784436
0.000046 0.797879 0.781186
0.000015 0.800366 0.776806
0.043549 0.803738 0.772061
0.131945 0.807843 0.765423
0.236591 0.812604 0.755398
0.333989 0.817624 0.738979
0.408438 0.820829 0.705806
0.513497 0.820935 0.627161
0.692454 0.839628 0.577447
0.817044 0.860441 0.586679
0.887861 0.873869 0.604196
0.930434 0.884199 0.629725
0.958236 0.891539 0.651850
0.978119 0.890532 0.632242
0.988632 0.890990 0.629755
0.994980 0.893095 0.641779
0.998337 0.896376 0.665385
0.999039 0.899718 0.696956
0.999161 0.902312 0.730495
0.997757 0.901671 0.757946
0.000000 0.808667 0.822324
0.000000 0.811048 0.820218
0.000000 0.811994 0.819348
0.007156 0.812741 0.818845
0.016373 0.813336 0.818524
0.025620 0.813931 0.818204
0.033860 0.814466 0.817945
0.041077 0.814893 0.817670
0.049363 0.815427 0.817349
0.060761 0.816144 0.816968
0.075334 0.817044 0.816434
0.094179 0.818219 0.815732
0.118395 0.819715 0.814817
0.148135 0.821530 0.813642
0.187884 0.823926 0.811994
0.237095 0.826810 0.809720
0.287556 0.830442 0.807065
0.329915 0.834791 0.802945
