luts/apple-log/33x/Apple_LOG_to_Kodak_2383_D65_Rec709_G2-4.cube
TITLE "Apple LOG to Kodak 2383 D65 Rec709 G2-4"
#  
# Apple LOG to Rec.709 Hybrid LUT
#  
# This hybrid LUT converts Apple LOG to Rec.709 Gamma 2.4
#  
# Based on an original creative LUT included in DaVinci Resolve, adapted for a different color space.  
#  
# Created by Tobia Montanari | tobiamontanari.com
#  
#  
# 
LUT_3D_SIZE 33
0.030106 0.038559 0.046921
0.030106 0.038559 0.046921
0.035828 0.040085 0.048096
0.065049 0.046265 0.051164
0.087724 0.051759 0.052354
0.102510 0.055757 0.053178
0.119753 0.057893 0.053819
0.137423 0.059602 0.053925
0.158602 0.061524 0.053452
0.181750 0.063630 0.052674
0.207370 0.066209 0.051728
0.236484 0.069139 0.050858
0.271885 0.069779 0.050629
0.313924 0.067292 0.052079
0.362737 0.058518 0.062562
0.416129 0.040803 0.079011
0.470253 0.014389 0.099611
0.522042 0.009964 0.121386
0.573877 0.010651 0.150576
0.623423 0.021515 0.187442
0.669841 0.041459 0.233143
0.710567 0.077668 0.283833
0.748394 0.126864 0.338689
0.783475 0.181613 0.396139
0.816739 0.244923 0.456626
0.847974 0.309056 0.520836
0.876280 0.375586 0.585168
0.901793 0.446601 0.646281
0.924514 0.523003 0.706584
0.944167 0.602625 0.764385
0.960861 0.678264 0.815854
0.972976 0.740780 0.858000
0.980911 0.794537 0.892668
0.030106 0.038559 0.046921
0.030106 0.038559 0.046921
0.030106 0.038559 0.046921
0.033158 0.039658 0.046372
0.044236 0.044785 0.044526
0.068086 0.049393 0.042512
0.083574 0.053819 0.041031
0.094331 0.057847 0.040970
0.111147 0.061326 0.039841
0.135943 0.064485 0.037553
0.168704 0.067643 0.034028
0.202564 0.071687 0.028122
0.239673 0.075532 0.004685
0.287678 0.078599 0.001541
0.345296 0.079301 0.000732
0.405829 0.073518 0.000992
0.465202 0.066651 0.000000
0.516320 0.039429 0.011749
0.567758 0.028351 0.071488
0.619104 0.034684 0.121782
0.667369 0.060365 0.173419
0.710597 0.092134 0.237385
0.749187 0.136751 0.303410
0.784634 0.189883 0.369345
0.817777 0.251362 0.435660
0.849226 0.313954 0.504829
0.877455 0.379309 0.573510
0.902693 0.449744 0.638071
0.925246 0.525841 0.700404
0.944717 0.604807 0.760388
0.961227 0.679820 0.813336
0.973266 0.741985 0.856413
0.981064 0.795300 0.891508
0.030106 0.038559 0.046921
0.030106 0.038559 0.046921
0.030106 0.038559 0.046921
0.030106 0.038559 0.046921
0.036790 0.042069 0.044099
0.046006 0.046403 0.041871
0.068010 0.051240 0.042267
0.082261 0.055192 0.041871
0.095384 0.059754 0.041962
0.116808 0.064042 0.040421
0.149798 0.068040 0.037308
0.188327 0.072480 0.032349
0.228504 0.077607 0.015061
0.275349 0.082750 0.001221
0.331426 0.087038 0.000000
0.394339 0.089403 0.000000
0.461372 0.087877 0.000015
0.518669 0.081697 0.000000
0.568460 0.057618 0.013535
0.617060 0.039872 0.086931
0.666056 0.066056 0.144274
0.710277 0.097215 0.213062
0.749386 0.140566 0.286107
0.785031 0.193118 0.356649
0.818296 0.253697 0.426017
0.849668 0.315679 0.497292
0.877867 0.380575 0.568185
0.903075 0.450965 0.634409
0.925490 0.526711 0.697566
0.944961 0.605768 0.758358
0.961410 0.680491 0.812238
0.973358 0.742382 0.855634
0.981140 0.795682 0.891096
0.030106 0.038559 0.046921
0.030106 0.038559 0.046921
0.030106 0.038559 0.046921
0.030106 0.038559 0.046921
0.032441 0.040009 0.045274
0.037873 0.044266 0.041550
0.050584 0.048859 0.042603
0.070268 0.052857 0.042802
0.086397 0.057496 0.042542
0.102571 0.063035 0.042618
0.132998 0.067903 0.039628
0.175601 0.073472 0.035218
0.218647 0.079316 0.023621
0.266285 0.084962 0.001938
0.323827 0.090166 0.000000
0.388296 0.095735 0.000000
0.452201 0.101717 0.000000
0.517617 0.100328 0.000000
0.571862 0.094148 0.000000
0.617197 0.056199 0.037339
0.664683 0.069062 0.118120
0.710033 0.100923 0.191928
0.749523 0.143267 0.270756
0.785275 0.195392 0.346090
0.818647 0.255406 0.418357
0.850034 0.317006 0.491447
0.878233 0.381704 0.563943
0.903304 0.451713 0.631312
0.925734 0.527626 0.695583
0.945129 0.606470 0.756741
0.961517 0.680903 0.811215
0.973449 0.742779 0.855131
0.981216 0.796078 0.890761
0.029221 0.042100 0.049104
0.030106 0.038559 0.046921
0.030106 0.038559 0.046921
0.030106 0.038559 0.046921
0.030106 0.038559 0.046921
0.036393 0.042588 0.042054
0.041703 0.046998 0.042420
0.056519 0.050919 0.043244
0.076722 0.055558 0.043214
0.094682 0.061372 0.043290
0.120958 0.067918 0.041566
0.163424 0.074098 0.037385
0.209293 0.080415 0.030549
0.257877 0.086503 0.002579
0.317098 0.094270 0.000000
0.383703 0.101274 0.000000
0.450034 0.107836 0.000000
0.511681 0.112749 0.000000
0.572305 0.107546 0.000000
0.621454 0.087098 0.012055
0.663584 0.070069 0.091371
0.709545 0.103548 0.171847
0.749477 0.145235 0.256504
0.785443 0.197086 0.336278
0.818936 0.256916 0.411429
0.850294 0.318135 0.486351
0.878553 0.382620 0.560204
0.903548 0.452506 0.628916
0.925902 0.528283 0.693706
0.945266 0.606928 0.755413
0.961624 0.681346 0.810330
0.973510 0.742977 0.854597
0.981247 0.796262 0.890471
0.027619 0.050721 0.056718
0.031372 0.046921 0.050278
0.032532 0.045685 0.049134
0.032731 0.044297 0.048386
0.032624 0.042786 0.047913
0.035157 0.043824 0.045167
0.037858 0.046296 0.042466
0.046097 0.049439 0.043458
0.066789 0.053681 0.043763
0.087800 0.059861 0.043656
0.110445 0.067552 0.043198
0.151568 0.074433 0.039185
0.200580 0.081132 0.032456
0.250721 0.088914 0.005814
0.310460 0.098039 0.000000
0.379141 0.105745 0.000000
0.447807 0.112825 0.000000
0.509102 0.119051 0.000000
0.571908 0.119890 0.000000
0.625483 0.111360 0.000000
0.664439 0.078904 0.063859
0.708995 0.105470 0.154376
0.749401 0.146960 0.242817
0.785580 0.198505 0.327062
0.819181 0.258213 0.405219
0.850614 0.319234 0.481636
0.878782 0.383337 0.556985
0.903807 0.453330 0.626703
0.926101 0.528984 0.691997
0.945449 0.607660 0.754284
0.961730 0.681773 0.809583
0.973602 0.743374 0.854292
0.981292 0.796460 0.890166
0.014191 0.061860 0.062364
0.032853 0.054765 0.053620
0.037491 0.053117 0.052216
0.038209 0.051789 0.051224
0.038697 0.050538 0.050416
0.039170 0.050614 0.050858
0.043046 0.053330 0.049699
0.050050 0.055406 0.045930
0.068666 0.059373 0.045853
0.088304 0.064912 0.045548
0.107347 0.071183 0.045075
0.144335 0.076982 0.041062
0.192157 0.082124 0.034134
0.244434 0.091173 0.010956
0.304707 0.101030 0.000229
0.374777 0.109468 0.000000
0.445579 0.116884 0.000000
0.508797 0.123354 0.000000
0.567224 0.127474 0.000000
0.627100 0.124437 0.000000
0.666545 0.092821 0.032990
0.708446 0.107042 0.136721
0.749340 0.148425 0.229679
0.785718 0.199939 0.318257
0.819409 0.259159 0.399008
0.850874 0.320119 0.477272
0.879026 0.384054 0.553964
0.904005 0.453925 0.624598
0.926207 0.529397 0.690410
0.945510 0.607874 0.753216
0.961852 0.682231 0.808850
0.973648 0.743557 0.853758
0.981323 0.796643 0.889967
0.002579 0.073671 0.067170
0.020691 0.066499 0.056397
0.033326 0.063569 0.054734
0.037293 0.060990 0.053437
0.040558 0.058732 0.052338
0.042969 0.057618 0.051453
0.047578 0.060197 0.054688
0.055940 0.064088 0.052552
0.071534 0.067948 0.047807
0.089509 0.074617 0.047562
0.109392 0.082078 0.046311
0.146395 0.088548 0.042649
0.195346 0.093996 0.034302
0.243778 0.098543 0.013642
0.299428 0.103365 0.000595
0.370092 0.112596 0.000000
0.443412 0.120394 0.000000
0.508385 0.127214 0.000000
0.564706 0.132570 0.000000
0.626688 0.130831 0.000000
0.669734 0.108385 0.010712
0.707851 0.108507 0.117433
0.749264 0.149828 0.216373
0.785794 0.201114 0.309590
0.819501 0.259892 0.393133
0.851041 0.320760 0.473045
0.879271 0.384787 0.551125
0.904173 0.454505 0.622675
0.926390 0.530083 0.689036
0.945632 0.608331 0.752194
0.961913 0.682445 0.808194
0.973709 0.743740 0.853346
0.981369 0.796841 0.889754
0.000000 0.085939 0.073609
0.005722 0.078782 0.060334
0.018708 0.076631 0.057771
0.029374 0.074739 0.055894
0.038575 0.073014 0.054581
0.042939 0.071336 0.053773
0.051911 0.072755 0.054307
0.064012 0.076692 0.057206
0.076448 0.080766 0.054887
0.091478 0.085359 0.049668
0.112001 0.093019 0.048417
0.149111 0.100099 0.044511
0.199176 0.106386 0.035264
0.249714 0.112413 0.014344
0.305394 0.117678 0.000702
0.368505 0.119219 0.000000
0.440665 0.124285 0.000000
0.507744 0.131533 0.000000
0.565240 0.137346 0.000000
0.625818 0.141009 0.000000
0.676204 0.132525 0.000946
0.708690 0.115969 0.094102
0.748989 0.151217 0.198962
0.785855 0.202365 0.298650
0.819776 0.260975 0.385916
0.851301 0.321798 0.467887
0.879515 0.385473 0.547509
0.904356 0.455055 0.620203
0.926528 0.530510 0.687282
0.945754 0.608804 0.750851
0.962020 0.682857 0.807309
0.973754 0.743923 0.852811
0.981414 0.797040 0.889464
0.000000 0.098055 0.082780
0.000259 0.091264 0.065263
0.002930 0.089845 0.061860
0.015259 0.088655 0.059266
0.033234 0.087434 0.057679
0.047425 0.086503 0.056367
0.057328 0.085496 0.055161
0.071840 0.089509 0.056809
0.084413 0.094667 0.059587
0.097688 0.099458 0.057114
0.115496 0.104494 0.050935
0.152728 0.112169 0.046815
0.203510 0.119265 0.036728
0.255741 0.126467 0.015473
0.313451 0.133562 0.000778
0.378668 0.137652 0.000000
0.445441 0.137728 0.000000
0.506539 0.136828 0.000000
0.565621 0.142901 0.000000
0.619699 0.147768 0.000000
0.679454 0.147585 0.000000
0.710399 0.125460 0.058015
0.748531 0.152880 0.174289
0.785901 0.203784 0.283070
0.820066 0.262303 0.375906
0.851652 0.322881 0.460899
0.879896 0.386557 0.542855
0.904677 0.456046 0.617166
0.926772 0.531411 0.685115
0.945937 0.609506 0.749233
0.962142 0.683299 0.806287
0.973846 0.744320 0.852201
0.981445 0.797223 0.889097
0.000000 0.117357 0.094041
0.000000 0.108553 0.072404
0.000000 0.106264 0.066957
0.005188 0.104417 0.063813
0.017594 0.102724 0.061891
0.044541 0.101503 0.060227
0.065415 0.100908 0.058320
0.076066 0.101946 0.057328
0.090913 0.107271 0.059052
0.105287 0.113893 0.061479
0.123766 0.120348 0.058747
0.157000 0.126131 0.048875
0.208026 0.134798 0.036927
0.261692 0.143450 0.014115
0.321340 0.152010 0.000656
0.388968 0.157778 0.000000
0.459068 0.159258 0.000000
0.519295 0.157000 0.000000
0.565820 0.149386 0.000000
0.621134 0.154528 0.000000
0.678553 0.160281 0.000000
0.716152 0.146441 0.000885
0.749233 0.159182 0.144808
0.785855 0.205692 0.260014
0.820356 0.263767 0.362081
0.851972 0.323980 0.451484
0.880278 0.387762 0.536477
0.904982 0.456947 0.612894
0.927016 0.532265 0.682094
0.946197 0.610468 0.747204
0.962295 0.683925 0.804898
0.973953 0.744686 0.851362
0.981521 0.797604 0.888640
0.000000 0.143847 0.112154
0.000000 0.134463 0.083635
0.000000 0.131014 0.073915
0.001556 0.129213 0.070146
0.012406 0.127260 0.066362
0.038010 0.125734 0.064210
0.058885 0.124376 0.062211
0.073091 0.123735 0.059602
0.090608 0.126192 0.058839
0.107805 0.134142 0.060182
0.132601 0.143099 0.062226
0.166323 0.151568 0.058045
0.212100 0.156924 0.033219
0.267597 0.168338 0.007324
0.329519 0.179614 0.000000
0.399283 0.187366 0.000000
0.472358 0.190707 0.000000
0.536950 0.190188 0.000000
0.585916 0.183185 0.000000
0.625086 0.166506 0.000000
0.672877 0.171572 0.000000
0.726772 0.179660 0.000000
0.751125 0.170901 0.097459
0.785595 0.207553 0.225818
0.820630 0.265293 0.341909
0.852491 0.325719 0.438560
0.880751 0.389197 0.527199
0.905470 0.458488 0.607370
0.927382 0.533593 0.678172
0.946456 0.611368 0.744350
0.962478 0.684535 0.803082
0.974105 0.745251 0.850217
0.981613 0.797971 0.887831
0.000000 0.174319 0.135027
0.000000 0.165103 0.095094
0.000000 0.160937 0.084214
0.000000 0.161303 0.079500
0.001801 0.160586 0.074586
0.012665 0.159609 0.069398
0.033021 0.158999 0.065415
0.056931 0.158389 0.062898
0.080079 0.157183 0.059541
0.100679 0.162234 0.058076
0.132738 0.172808 0.057130
0.174548 0.184466 0.057832
0.223407 0.194934 0.047807
0.273243 0.201022 0.002655
0.337209 0.215427 0.000000
0.409476 0.226261 0.000000
0.485924 0.233112 0.000000
0.554711 0.235340 0.000000
0.607370 0.230579 0.000000
0.649897 0.216739 0.000000
0.681941 0.193591 0.000000
0.721660 0.196597 0.000000
0.758328 0.194385 0.009445
0.787518 0.218051 0.180072
0.820935 0.266728 0.311604
0.853086 0.327672 0.420188
0.881392 0.391043 0.514534
0.906035 0.460075 0.599710
0.927871 0.535332 0.672801
0.946822 0.612757 0.740795
0.962768 0.685618 0.800656
0.974304 0.746014 0.848768
0.981750 0.798520 0.886854
0.000000 0.207416 0.161883
0.000000 0.199191 0.118807
0.000000 0.195010 0.098375
0.000000 0.193500 0.090364
0.000046 0.195010 0.086061
0.000015 0.195621 0.080171
0.005020 0.195834 0.074220
0.024185 0.196185 0.068864
0.051377 0.195987 0.062745
0.082200 0.195834 0.057710
0.122408 0.204089 0.052995
0.173800 0.217411 0.047654
0.231052 0.231418 0.045106
0.287236 0.244785 0.024720
0.344656 0.252247 0.000000
0.418860 0.266011 0.000000
0.498604 0.276005 0.000000
0.571710 0.281498 0.000000
0.628901 0.281392 0.000000
0.675135 0.273518 0.000000
0.711025 0.257877 0.000000
0.733150 0.232776 0.000000
0.770397 0.232929 0.000000
0.790372 0.232227 0.105974
0.821637 0.269718 0.263874
0.853681 0.329030 0.392401
0.882185 0.393210 0.496773
0.906752 0.462181 0.588067
0.928435 0.537224 0.665599
0.947326 0.614603 0.735897
0.963119 0.686885 0.797589
0.974517 0.746731 0.846754
0.981888 0.799054 0.885588
0.000000 0.246021 0.193454
0.000000 0.238621 0.154253
0.000000 0.235035 0.130327
0.000000 0.231785 0.109117
0.000000 0.229892 0.097032
0.000000 0.232563 0.093126
0.000015 0.234333 0.088228
0.000015 0.235966 0.083406
0.000031 0.237354 0.075502
0.038361 0.238743 0.063676
0.094835 0.239139 0.050050
0.158892 0.251469 0.036332
0.229496 0.267750 0.024277
0.294881 0.285069 0.012573
0.360250 0.302525 0.000000
0.432547 0.313344 0.000000
0.509194 0.320134 0.000000
0.587350 0.328984 0.000000
0.649348 0.332265 0.000000
0.699550 0.328756 0.000000
0.739452 0.318563 0.000000
0.765988 0.301625 0.000000
0.778500 0.275395 0.000000
0.807843 0.268788 0.000000
0.825818 0.283253 0.194675
0.854322 0.329946 0.348287
0.883085 0.395468 0.470573
0.907668 0.464698 0.571588
0.929213 0.539528 0.655421
0.947982 0.616892 0.729320
0.963577 0.688563 0.793332
0.974823 0.747845 0.844236
0.982101 0.799985 0.884001
0.000000 0.290944 0.232883
0.000000 0.285969 0.194797
0.000000 0.283131 0.176120
0.000000 0.280262 0.157229
0.000000 0.277226 0.136995
0.000000 0.274693 0.117479
0.000000 0.274647 0.105318
0.000000 0.277653 0.098665
0.000031 0.281025 0.089983
0.000076 0.284764 0.080034
0.000000 0.288029 0.066087
0.107134 0.290150 0.028244
0.209445 0.307622 0.012024
0.291402 0.328969 0.000031
0.365896 0.350423 0.001968
0.440848 0.368032 0.000000
0.527245 0.381262 0.000000
0.600717 0.382971 0.000000
0.667201 0.388235 0.000000
0.721813 0.388220 0.000000
0.765743 0.381521 0.000000
0.796796 0.369192 0.000000
0.818784 0.352651 0.000000
0.831769 0.328023 0.000000
0.830304 0.296437 0.016892
0.858778 0.340490 0.282872
0.884199 0.397604 0.429786
0.908873 0.467781 0.547280
0.930266 0.542550 0.641047
0.948775 0.619486 0.719860
0.964126 0.690410 0.787594
0.975235 0.749325 0.840757
0.982376 0.801083 0.881865
0.000000 0.342153 0.283360
0.000000 0.340185 0.245899
0.000000 0.338537 0.227741
0.000000 0.336583 0.211200
0.000000 0.334539 0.196597
0.000000 0.332662 0.182498
0.000000 0.330404 0.166705
0.000000 0.327993 0.148730
0.000000 0.324987 0.124422
0.000000 0.331472 0.108980
0.000000 0.338567 0.087892
0.027848 0.345129 0.053452
0.132387 0.351247 0.011719
0.264927 0.376364 0.000031
0.357168 0.402365 0.000198
0.441505 0.423484 0.004273
0.526772 0.439582 0.004669
0.620920 0.457450 0.000000
0.692775 0.463447 0.000000
0.746700 0.460777 0.000000
0.792889 0.455009 0.000000
0.831189 0.449531 0.000000
0.858000 0.438743 0.000000
0.871748 0.415961 0.000000
0.871992 0.379629 0.000000
0.863645 0.352209 0.146349
0.887877 0.405570 0.366995
0.910384 0.470603 0.507881
0.931624 0.546059 0.619959
0.949844 0.622538 0.706157
0.964920 0.693080 0.779919
0.975769 0.751171 0.836225
0.982727 0.802548 0.878904
0.000000 0.396811 0.341253
0.000000 0.397086 0.308904
0.000000 0.396719 0.292424
0.000000 0.396109 0.277943
0.000000 0.395270 0.263752
0.000000 0.394339 0.249897
0.000000 0.393240 0.237980
0.000000 0.391928 0.225544
0.000000 0.389990 0.208835
0.000000 0.387366 0.186206
0.000000 0.383749 0.148486
0.000000 0.396078 0.121828
0.013092 0.406683 0.060823
0.195087 0.419623 0.002258
0.324773 0.451972 0.000000
0.427543 0.478706 0.004654
0.522576 0.497368 0.007446
0.613443 0.514153 0.014130
0.705776 0.536339 0.000000
0.771984 0.542763 0.000000
0.824994 0.541344 0.000000
0.864240 0.536034 0.000000
0.890700 0.526696 0.000000
0.905852 0.508904 0.000000
0.907103 0.476432 0.000000
0.894148 0.427268 0.013428
0.894316 0.418219 0.246128
0.913664 0.477989 0.446220
0.933486 0.549538 0.583764
0.951156 0.625895 0.686107
0.965911 0.695888 0.767117
0.976471 0.753536 0.829938
0.983200 0.804364 0.875044
0.000000 0.451255 0.402121
0.000000 0.453040 0.376242
0.000000 0.453895 0.363073
0.000000 0.454124 0.351614
0.000000 0.454170 0.341039
0.000000 0.453971 0.330770
0.000000 0.454108 0.320745
0.000000 0.453849 0.310643
0.000000 0.453483 0.297765
0.000000 0.452689 0.279500
0.000000 0.450797 0.252171
0.000000 0.447211 0.212802
0.000000 0.452689 0.168551
0.040314 0.468055 0.110582
0.236667 0.486427 0.018540
0.387274 0.521767 0.002319
0.502770 0.548745 0.022614
0.606729 0.568048 0.013977
0.692042 0.584985 0.045441
0.773724 0.602090 0.000000
0.839307 0.611643 0.000000
0.887648 0.613153 0.000000
0.916365 0.606577 0.000000
0.931487 0.591592 0.000000
0.935363 0.568170 0.000137
0.928756 0.534813 0.003006
0.919966 0.496834 0.141253
0.921141 0.494087 0.337774
0.936690 0.554696 0.522164
0.953017 0.629313 0.654459
0.967132 0.698970 0.748531
0.977356 0.756130 0.819547
0.983810 0.806714 0.869810
0.000000 0.504265 0.463600
0.000000 0.508278 0.443259
0.000000 0.509834 0.433707
0.000000 0.511223 0.425650
0.000000 0.512291 0.418143
0.000000 0.512871 0.411002
0.000000 0.513390 0.404242
0.000000 0.513832 0.397436
0.000000 0.514046 0.388907
0.000000 0.514458 0.376745
0.000000 0.514565 0.358999
0.000000 0.514031 0.331838
0.000000 0.511803 0.288914
0.000000 0.506767 0.218204
0.054444 0.527672 0.166796
0.297871 0.548302 0.058930
0.454032 0.584848 0.042695
0.583154 0.614160 0.060410
0.684321 0.634058 0.076722
0.758144 0.648814 0.090608
0.830045 0.657420 0.000000
0.888548 0.665125 0.000000
0.925643 0.665293 0.000000
0.945663 0.657008 0.000000
0.954452 0.642664 0.000000
0.955077 0.623713 0.033570
0.952010 0.603387 0.161105
0.947478 0.577020 0.267872
0.945235 0.573770 0.422080
0.955917 0.632181 0.597147
0.968872 0.701991 0.718837
0.978500 0.759136 0.803555
0.984573 0.809293 0.861555
0.000000 0.557763 0.524224
0.000000 0.563607 0.508965
0.000000 0.565820 0.501900
0.000000 0.567407 0.496117
0.000000 0.568887 0.490944
0.000000 0.570291 0.486320
0.000000 0.571420 0.481788
0.000000 0.572366 0.477348
0.000000 0.573388 0.471717
0.000000 0.574670 0.464088
0.000000 0.575936 0.453391
0.000000 0.577203 0.437797
0.000000 0.577646 0.412512
0.000000 0.576349 0.371176
0.000031 0.570748 0.294835
0.096742 0.588983 0.221164
0.356664 0.612863 0.123720
0.528115 0.651194 0.120546
0.660136 0.680400 0.121187
0.750118 0.700298 0.177539
0.817334 0.711788 0.198352
0.876783 0.711879 0.071595
0.922499 0.716060 0.017945
0.949874 0.713863 0.007416
0.963806 0.705058 0.014710
0.968887 0.692103 0.051316
0.974136 0.685359 0.194125
0.974609 0.674617 0.293736
0.969650 0.653590 0.370275
0.964660 0.650355 0.502113
0.971496 0.703944 0.667140
0.980072 0.762295 0.777203
0.985534 0.812192 0.848569
0.000000 0.610254 0.585672
0.000000 0.617121 0.574533
0.000000 0.619715 0.569406
0.000000 0.621698 0.565301
0.000000 0.623255 0.561486
0.000000 0.624582 0.558221
0.000000 0.625742 0.554894
0.000000 0.626947 0.551858
0.000000 0.628229 0.547799
0.000000 0.629618 0.542321
0.000000 0.631464 0.535073
0.000000 0.633570 0.524987
0.000000 0.636011 0.510414
0.000000 0.637903 0.487419
0.000015 0.638102 0.449454
0.000000 0.634012 0.378958
0.152667 0.649180 0.287098
0.422324 0.677607 0.199664
0.608194 0.717266 0.206668
0.727565 0.744121 0.224445
0.808881 0.762097 0.267063
0.869230 0.772290 0.293263
0.916487 0.769268 0.206226
0.948333 0.766995 0.127932
0.968704 0.764218 0.124605
0.981582 0.760311 0.183902
0.988602 0.756664 0.259388
0.991089 0.751644 0.328405
0.990616 0.742321 0.396216
0.985122 0.722713 0.460777
0.979187 0.718425 0.579568
0.982574 0.764935 0.729198
0.986969 0.815473 0.826978
0.000000 0.660365 0.647410
0.000000 0.666590 0.639063
0.000000 0.669001 0.635233
0.000000 0.670787 0.632059
0.000000 0.672221 0.629389
0.000000 0.673518 0.626917
0.000000 0.674617 0.624582
0.000000 0.675639 0.622415
0.000000 0.676844 0.619730
0.000000 0.678340 0.616098
0.000000 0.680217 0.610941
0.000000 0.682338 0.603632
0.000000 0.684901 0.593347
0.000000 0.687770 0.578378
0.000000 0.690929 0.556634
0.000000 0.693278 0.520989
0.000000 0.692561 0.457252
0.233234 0.705196 0.361242
0.496941 0.735759 0.281987
0.682353 0.775723 0.292485
0.786084 0.799008 0.317617
0.859953 0.814206 0.352346
0.909438 0.823575 0.377172
0.946883 0.820493 0.323857
0.971588 0.817502 0.293126
0.987991 0.816541 0.295491
0.996597 0.815412 0.326543
0.998444 0.813184 0.370764
0.999268 0.810162 0.425254
0.999207 0.803922 0.484108
0.995132 0.785855 0.542687
0.989273 0.778683 0.650248
0.989288 0.818128 0.784909
0.000000 0.703639 0.701503
0.000000 0.709194 0.695552
0.000000 0.711376 0.692805
0.000000 0.712947 0.690684
0.000000 0.714336 0.688746
0.000000 0.715541 0.687083
0.000000 0.716609 0.685450
0.000000 0.717479 0.683955
0.000000 0.718624 0.682139
0.000000 0.720043 0.679637
0.000000 0.721798 0.676463
0.000000 0.724086 0.672099
0.000000 0.726894 0.665919
0.000015 0.730114 0.656413
0.000046 0.733959 0.642603
0.000153 0.738170 0.622248
0.003922 0.742000 0.588800
0.056291 0.743893 0.529961
0.319326 0.754223 0.436469
0.576410 0.786328 0.365728
0.742641 0.823026 0.379599
0.837201 0.842329 0.403342
0.900313 0.855436 0.434241
0.938628 0.863340 0.457633
0.968322 0.860243 0.416907
0.988739 0.858778 0.399084
0.998764 0.858427 0.404273
0.999893 0.857282 0.426871
0.999985 0.856687 0.464759
1.000000 0.856138 0.511803
0.999969 0.853254 0.564279
0.999634 0.839384 0.618036
0.995010 0.830686 0.711147
0.000000 0.743343 0.751766
0.000000 0.747967 0.747066
0.000000 0.749889 0.744945
0.000000 0.751354 0.743343
0.000000 0.752514 0.741863
0.000000 0.753643 0.740566
0.000000 0.754574 0.739391
0.000000 0.755444 0.738262
0.000000 0.756436 0.736919
0.000000 0.757778 0.735119
0.000000 0.759350 0.732631
0.000000 0.761501 0.729458
0.000000 0.764050 0.725261
0.000000 0.767224 0.719524
0.000000 0.771145 0.711192
0.000000 0.775525 0.699229
0.000000 0.780621 0.681514
0.053513 0.785641 0.653101
0.197177 0.789441 0.602106
0.406638 0.796567 0.508446
0.650111 0.829633 0.445930
0.795407 0.860594 0.460945
0.879820 0.876768 0.482719
0.929595 0.887861 0.511193
0.959457 0.893980 0.533364
0.983734 0.891966 0.500786
0.998398 0.891249 0.488945
0.999985 0.889570 0.493492
1.000000 0.889418 0.514672
1.000000 0.890440 0.549966
1.000000 0.891554 0.593378
1.000000 0.890394 0.639567
1.000000 0.880186 0.684733
0.000000 0.781262 0.797009
0.000000 0.785306 0.793622
0.000000 0.786908 0.792035
0.000000 0.788128 0.790829
0.000000 0.789151 0.789944
0.000000 0.790036 0.789029
0.000000 0.790860 0.788144
0.000000 0.791531 0.787411
0.000000 0.792447 0.786511
0.000000 0.793561 0.785153
0.000000 0.794980 0.783658
0.000000 0.796735 0.781399
0.000000 0.798993 0.778668
0.000000 0.801877 0.774884
0.000000 0.805310 0.769665
0.018952 0.809277 0.762356
0.060716 0.813794 0.751553
0.124575 0.818982 0.735821
0.228611 0.824872 0.712428
0.351827 0.830045 0.671199
0.495216 0.834730 0.578958
0.712291 0.866133 0.522911
0.842969 0.891493 0.537713
0.912505 0.905211 0.558648
0.950957 0.913985 0.585367
0.974868 0.919341 0.607065
0.994293 0.918044 0.579614
0.999924 0.915953 0.569314
1.000000 0.914748 0.575448
1.000000 0.915633 0.596613
1.000000 0.917525 0.629343
1.000000 0.918959 0.667185
1.000000 0.918059 0.705318
0.000015 0.817426 0.836805
0.000061 0.820706 0.834470
0.000076 0.822003 0.833494
0.000351 0.822950 0.832700
0.000702 0.823621 0.832044
0.001053 0.824308 0.831373
0.001343 0.824918 0.830839
0.001602 0.825422 0.830289
0.001892 0.826017 0.829618
0.002289 0.826856 0.828824
0.002777 0.827893 0.827726
0.003387 0.829236 0.826261
0.004120 0.830930 0.824369
0.004959 0.832975 0.821942
0.005982 0.835676 0.818570
0.007065 0.838865 0.813962
0.042847 0.842985 0.808682
0.153048 0.848081 0.801678
