luts/apple-log/33x/Apple_LOG_to_Fujifilm_3513DI_D55_Rec709_G2-4.cube
TITLE "Apple LOG to Fujifilm 3513DI D55 Rec709 G2-4"
#  
# Apple LOG to Rec.709 Hybrid LUT
#  
# This hybrid LUT converts Apple LOG to Rec.709 Gamma 2.4
#  
# Based on an original creative LUT included in DaVinci Resolve, adapted for a different color space.  
#  
# Created by Tobia Montanari | tobiamontanari.com
#  
# 
LUT_3D_SIZE 9
0.031678 0.035981 0.033539
0.072053 0.044236 0.038376
0.147234 0.054475 0.037858
0.269017 0.059266 0.010407
0.456123 0.003159 0.080964
0.652491 0.050690 0.209873
0.797086 0.252415 0.418662
0.892882 0.508934 0.657542
0.964843 0.769085 0.813382
0.031251 0.041245 0.035203
0.031678 0.035981 0.033539
0.060944 0.052552 0.039033
0.194232 0.080354 0.016175
0.404944 0.110887 0.000000
0.643885 0.087923 0.050874
0.799374 0.262669 0.376074
0.894057 0.513283 0.647501
0.965194 0.770443 0.812253
0.000000 0.099626 0.055711
0.014679 0.077012 0.040147
0.061494 0.084169 0.040223
0.185611 0.112352 0.015427
0.398978 0.129732 0.000000
0.656809 0.161944 0.000000
0.800381 0.266026 0.352148
0.894545 0.515053 0.642435
0.965347 0.771038 0.811749
0.000000 0.198352 0.125307
0.001068 0.168139 0.039261
0.065354 0.163485 0.029954
0.224506 0.207385 0.000229
0.440604 0.233845 0.000000
0.616876 0.203586 0.000000
0.802563 0.270375 0.282185
0.895644 0.518883 0.631006
0.965652 0.772168 0.810315
0.000000 0.367529 0.292576
0.000000 0.347509 0.196933
0.000000 0.326604 0.093660
0.185992 0.349294 0.000000
0.518715 0.427955 0.000000
0.701671 0.402625 0.000000
0.842435 0.368627 0.000000
0.898451 0.526543 0.587518
0.966506 0.775174 0.805844
0.000000 0.566522 0.532662
0.000000 0.576455 0.501305
0.000000 0.580331 0.482506
0.000000 0.583230 0.425422
0.402029 0.592569 0.139422
0.784665 0.664149 0.218570
0.931258 0.648081 0.053117
0.938659 0.614710 0.373953
0.968719 0.781842 0.787472
0.000000 0.733867 0.720195
0.000000 0.741039 0.711513
0.000000 0.743877 0.707195
0.000000 0.749432 0.697459
0.154711 0.761517 0.663630
0.644846 0.786618 0.466499
0.935729 0.840360 0.536049
0.990295 0.843442 0.540383
0.987060 0.840024 0.682322
0.404334 0.834195 0.806470
0.426703 0.837263 0.806943
0.435172 0.838529 0.807050
0.451026 0.841077 0.807279
0.493660 0.847868 0.807584
0.587579 0.862867 0.803677
0.842176 0.889082 0.710506
0.988342 0.923537 0.769741
1.000000 0.926909 0.782132
0.734478 0.903807 0.854597
0.738506 0.904570 0.854902
0.740414 0.904936 0.855039
0.744015 0.905608 0.855314
0.753429 0.907362 0.856031
0.778164 0.911955 0.857771
0.832380 0.921981 0.860822
0.952651 0.939818 0.847669
1.000000 0.951324 0.867460
0.031235 0.036133 0.035493
0.064775 0.040482 0.066194
0.140185 0.045197 0.104601
0.267460 0.027588 0.130709
0.457847 0.000183 0.182788
0.648859 0.015168 0.282368
0.794263 0.242008 0.450797
0.891905 0.505180 0.665766
0.964569 0.768093 0.814481
0.031037 0.040024 0.036393
0.031303 0.039457 0.035853
0.081153 0.049734 0.040318
0.227422 0.063586 0.026669
0.436923 0.030240 0.074920
0.644212 0.072329 0.211246
0.793257 0.256735 0.420671
0.892487 0.512055 0.653571
0.964920 0.769451 0.813413
0.000000 0.104112 0.093492
0.009734 0.085810 0.053610
0.061933 0.086756 0.045664
0.216570 0.104923 0.016551
0.420140 0.087831 0.000731
0.641518 0.089442 0.149210
0.794500 0.262304 0.400403
0.893068 0.514204 0.648508
0.965072 0.770047 0.812894
0.000000 0.215351 0.199207
0.000000 0.190819 0.126567
0.000002 0.173454 0.063827
0.230004 0.215174 0.019571
0.481227 0.237786 0.000364
0.647568 0.175445 0.010902
0.796606 0.270629 0.352080
0.894131 0.517966 0.638419
0.965393 0.771237 0.811841
0.000000 0.376944 0.352972
0.000000 0.370233 0.300679
0.000000 0.362978 0.256275
0.004832 0.347543 0.086975
0.512329 0.428160 0.043817
0.744779 0.429109 0.020493
0.822994 0.349333 0.139062
0.896988 0.526667 0.600412
0.966247 0.774304 0.807675
0.000000 0.565652 0.557504
0.000000 0.575955 0.532464
0.000000 0.579992 0.516469
0.000014 0.586280 0.476265
0.304312 0.591318 0.237157
0.777523 0.666039 0.255767
0.919358 0.658424 0.233985
0.931109 0.614294 0.432018
0.968521 0.781491 0.790829
0.000000 0.731472 0.726513
0.014644 0.735473 0.713039
0.023494 0.739101 0.708856
0.050507 0.745125 0.700888
0.153921 0.758273 0.672597
0.611154 0.782294 0.486456
0.931185 0.837954 0.542767
0.986938 0.842825 0.565166
0.986603 0.841443 0.696162
0.396994 0.833234 0.806638
0.383513 0.834870 0.804603
0.397608 0.836349 0.804551
0.419153 0.838941 0.804702
0.472479 0.845629 0.804722
0.574936 0.860549 0.800446
0.829523 0.886797 0.710737
0.986728 0.921452 0.764920
0.999985 0.927886 0.787625
0.733013 0.903532 0.854520
0.737057 0.904311 0.854826
0.738949 0.904662 0.854963
0.742672 0.905364 0.855253
0.752285 0.907164 0.855985
0.777020 0.911757 0.857755
0.831601 0.921874 0.860914
0.951583 0.939727 0.848157
1.000000 0.951354 0.867628
0.025421 0.038361 0.089555
0.068437 0.043168 0.092226
0.142611 0.045762 0.132448
0.271504 0.020264 0.165454
0.461143 0.000061 0.219028
0.649149 0.011063 0.307256
0.792966 0.236927 0.462684
0.891493 0.503609 0.669230
0.964446 0.767651 0.814939
0.022248 0.053849 0.051957
0.023909 0.042013 0.072801
0.081855 0.051121 0.085091
0.234433 0.061755 0.106298
0.442635 0.024896 0.146278
0.644582 0.065383 0.254254
0.791852 0.251845 0.437366
0.892000 0.510324 0.658081
0.964813 0.769024 0.813901
0.000000 0.107454 0.113390
0.005290 0.092761 0.092900
0.049736 0.094045 0.089550
0.242346 0.101398 0.078048
0.430142 0.047968 0.078653
0.643144 0.081292 0.211600
0.793172 0.258094 0.420244
0.892575 0.512532 0.653488
0.964920 0.769436 0.813367
0.000000 0.219989 0.224903
0.000000 0.201755 0.178931
0.000000 0.190180 0.133969
0.230214 0.219399 0.060570
0.494082 0.227958 0.049202
0.644724 0.131567 0.072753
0.795439 0.267650 0.379631
0.893657 0.516428 0.644163
0.965270 0.770809 0.812329
0.000000 0.380957 0.375113
0.000000 0.375441 0.334518
0.000000 0.371444 0.302968
0.000010 0.350481 0.167785
0.509760 0.428833 0.076851
0.742328 0.423066 0.084415
0.819106 0.341468 0.209322
0.896554 0.525711 0.609395
0.966125 0.773907 0.808392
0.000000 0.565042 0.567315
0.000000 0.575897 0.546254
0.000000 0.580528 0.533069
0.000012 0.588381 0.499448
0.207765 0.588915 0.275956
0.776738 0.668359 0.274866
0.917335 0.662794 0.297780
0.929522 0.614813 0.459059
0.968414 0.781262 0.792203
0.000000 0.730312 0.729000
0.011958 0.734510 0.716654
0.020049 0.738271 0.712827
0.045550 0.744522 0.705216
0.147290 0.758284 0.679283
0.593003 0.781677 0.498560
0.930860 0.838810 0.547989
0.986333 0.845209 0.580258
0.986435 0.842145 0.702022
0.393576 0.832792 0.806699
0.378403 0.834387 0.804896
0.392067 0.835879 0.804863
0.414400 0.838514 0.805054
0.468811 0.845252 0.805147
0.572615 0.860331 0.801372
0.825550 0.886669 0.713529
0.986692 0.921647 0.766023
0.999985 0.928267 0.789792
0.732296 0.903410 0.854475
0.736553 0.904219 0.854810
0.738460 0.904585 0.854948
0.742214 0.905287 0.855238
0.751614 0.907042 0.855955
0.776577 0.911681 0.857740
0.831220 0.921813 0.860945
0.951049 0.939696 0.848417
1.000000 0.951354 0.867689
0.000992 0.021393 0.183017
0.091737 0.000961 0.181811
0.157519 0.018540 0.194186
0.278965 0.017807 0.226581
0.467720 0.000031 0.276799
0.652415 0.017533 0.351812
0.794018 0.239506 0.488502
0.890547 0.499916 0.676143
0.964187 0.766644 0.815946
0.000000 0.073671 0.161456
0.004539 0.030423 0.169282
0.084020 0.036484 0.178402
0.239933 0.052015 0.199530
0.450250 0.018082 0.236996
0.647856 0.067311 0.317418
0.792538 0.253378 0.467675
0.891049 0.506935 0.665468
0.964538 0.768002 0.814923
0.000000 0.142412 0.209216
0.000000 0.113781 0.209093
0.006612 0.097712 0.212685
0.245292 0.104104 0.211761
0.441715 0.042639 0.206258
0.647325 0.084174 0.291415
0.793657 0.259347 0.454071
0.891647 0.509261 0.661296
0.964691 0.768612 0.814450
0.000000 0.226932 0.271733
0.000000 0.218104 0.258449
0.000000 0.213102 0.250731
0.211256 0.247011 0.248729
0.510491 0.227985 0.221451
0.652730 0.131312 0.227781
0.795597 0.268976 0.423475
0.892758 0.513451 0.653356
0.964996 0.769802 0.813382
0.000000 0.390631 0.415595
0.000000 0.388866 0.392509
0.000000 0.388137 0.375338
0.000000 0.386614 0.316672
0.508820 0.446888 0.211365
0.744806 0.429837 0.243576
0.815107 0.332967 0.303387
0.895710 0.523595 0.623514
0.965911 0.773175 0.810010
0.000000 0.566033 0.586709
0.000000 0.577076 0.569031
0.000000 0.582400 0.559238
0.000003 0.592081 0.534878
0.068511 0.590129 0.361712
0.775087 0.672670 0.306745
0.915155 0.670620 0.374453
0.926987 0.614359 0.498433
0.968170 0.780682 0.795132
0.000000 0.727810 0.734066
0.007582 0.732447 0.722304
0.011114 0.736456 0.718919
0.033833 0.743128 0.712342
0.131907 0.757785 0.689299
0.554742 0.779461 0.518890
0.930336 0.840286 0.556688
0.985570 0.849051 0.603901
0.986007 0.843046 0.712978
0.386236 0.831830 0.806851
0.369921 0.833516 0.805276
0.383495 0.835021 0.805253
0.406699 0.837714 0.805512
0.463025 0.844568 0.805766
0.568639 0.859915 0.802796
0.818092 0.886293 0.718122
0.986618 0.921967 0.767827
0.999969 0.929061 0.794415
0.731060 0.903181 0.854429
0.735103 0.903960 0.854734
0.736996 0.904311 0.854887
0.740780 0.905028 0.855177
0.750484 0.906844 0.855909
0.775433 0.911482 0.857725
0.830442 0.921691 0.860990
0.949981 0.939605 0.848859
1.000000 0.951385 0.867796
0.000000 0.000000 0.323110
0.106416 0.000000 0.305715
0.187411 0.000000 0.316304
0.299443 0.000000 0.332662
0.478889 0.000427 0.374289
0.659236 0.032441 0.434897
0.797162 0.248249 0.539666
0.891905 0.504860 0.696040
0.963546 0.764202 0.818586
0.000000 0.073320 0.328603
0.000000 0.000276 0.315150
0.068303 0.000032 0.307549
0.248249 0.001946 0.333622
0.459278 0.010056 0.363633
0.654080 0.072206 0.419379
0.795688 0.261435 0.527999
0.892241 0.511431 0.686509
0.963851 0.765408 0.817609
0.000000 0.163424 0.370748
0.000000 0.110536 0.359345
0.000005 0.058461 0.337370
0.227222 0.089972 0.359255
0.449526 0.022675 0.357205
0.653368 0.087309 0.409120
0.796726 0.267540 0.520534
0.892758 0.513576 0.683551
0.964004 0.766018 0.817182
0.000000 0.273701 0.419272
0.000000 0.256041 0.419479
0.000000 0.229704 0.405114
0.125204 0.257852 0.426846
0.505920 0.236646 0.416095
0.657605 0.131482 0.390770
0.798608 0.278101 0.504831
0.893765 0.517544 0.677887
0.964309 0.767224 0.816205
0.000000 0.409155 0.491264
0.000000 0.412505 0.489342
0.000000 0.413816 0.487266
0.000000 0.418747 0.481681
0.482143 0.486059 0.471419
0.747251 0.437529 0.445519
0.816624 0.348545 0.460532
0.896436 0.527674 0.657659
0.965209 0.770703 0.813489
0.000000 0.581231 0.631571
0.000000 0.592856 0.619923
0.000000 0.598498 0.615152
0.000000 0.609338 0.603876
0.025191 0.627460 0.542745
0.767844 0.698414 0.458242
0.911993 0.686324 0.509371
0.921771 0.609605 0.576559
0.967590 0.779126 0.801602
0.000000 0.726314 0.746990
0.001729 0.731112 0.735861
0.003298 0.735319 0.733365
0.018831 0.742429 0.728540
0.108424 0.758436 0.712393
0.440804 0.776840 0.590989
0.929054 0.844594 0.581198
0.984248 0.857203 0.654495
0.984878 0.844327 0.737743
0.365728 0.829129 0.807111
0.345769 0.831020 0.806197
0.359789 0.832580 0.806221
0.383344 0.835393 0.806466
0.444155 0.842523 0.807248
0.557528 0.858630 0.805904
0.794556 0.884560 0.729861
0.986462 0.922765 0.772366
0.999939 0.931060 0.805997
0.727413 0.902525 0.854246
0.731670 0.903334 0.854566
0.733349 0.903655 0.854704
0.737362 0.904418 0.855009
0.747326 0.906294 0.855772
0.772488 0.910979 0.857664
0.828305 0.921340 0.861067
0.946944 0.939345 0.850156
1.000000 0.951446 0.868101
0.000000 0.000000 0.455802
0.073014 0.000000 0.419638
0.171298 0.000000 0.425238
0.306447 0.000000 0.449210
0.491188 0.000000 0.488472
0.668894 0.045884 0.540246
0.804471 0.269413 0.616602
0.894759 0.515969 0.730663
0.964141 0.767819 0.826688
0.000000 0.075944 0.476829
0.000000 0.000354 0.452717
0.002835 0.000000 0.428814
0.230725 0.000381 0.462067
0.468067 0.005032 0.495417
0.664274 0.092714 0.538689
0.802453 0.279652 0.612058
0.895240 0.522437 0.723829
0.964462 0.769085 0.826139
0.000000 0.176928 0.515282
0.000000 0.099212 0.486944
0.000000 0.036311 0.467628
0.173076 0.053062 0.479769
0.453340 0.018607 0.498968
0.662762 0.102746 0.537504
0.803315 0.285369 0.610256
0.895774 0.524687 0.722591
0.964614 0.769726 0.825895
0.000000 0.304494 0.564477
0.000000 0.275083 0.555029
0.000000 0.252625 0.548901
0.009934 0.247422 0.548760
0.479895 0.250543 0.560127
0.661618 0.128001 0.537029
0.804910 0.295359 0.606553
0.896795 0.528883 0.720468
0.964889 0.770825 0.825299
0.000000 0.451774 0.619547
0.000000 0.439128 0.614574
0.000000 0.433809 0.614071
0.000000 0.421415 0.612958
0.421936 0.500999 0.635531
0.740439 0.454185 0.626293
0.820159 0.362856 0.606402
0.899491 0.539930 0.712754
0.965682 0.773938 0.823590
0.000000 0.614969 0.696864
0.000000 0.622556 0.691607
0.000000 0.626785 0.691124
0.000000 0.634919 0.689805
0.012791 0.653217 0.682928
0.743386 0.735939 0.687812
0.909453 0.699959 0.679913
0.923193 0.628075 0.697646
0.967865 0.782300 0.816373
0.000000 0.739818 0.770062
0.004144 0.743404 0.760767
0.008911 0.747061 0.759675
0.026902 0.753206 0.757439
0.110197 0.767810 0.750754
0.389593 0.797409 0.722647
0.924771 0.866843 0.698144
0.982776 0.871475 0.742953
0.982208 0.841917 0.783398
0.345449 0.826902 0.809537
0.319463 0.828941 0.809479
0.332893 0.830527 0.809625
0.356059 0.833371 0.810076
0.418679 0.840686 0.811327
0.541578 0.857406 0.813157
0.729398 0.880954 0.769611
0.986053 0.925068 0.785214
0.999496 0.934798 0.828275
0.716945 0.900618 0.853697
0.721218 0.901442 0.854032
0.723110 0.901793 0.854170
0.727138 0.902556 0.854490
0.738048 0.904631 0.855344
0.764126 0.909514 0.857328
0.822507 0.920378 0.861250
0.937545 0.938277 0.852522
1.000000 0.951598 0.868910
0.000000 0.078004 0.560128
0.000000 0.000061 0.537163
0.061723 0.006989 0.538140
0.255436 0.000000 0.537636
0.484520 0.000015 0.580072
0.674540 0.036332 0.625360
0.816449 0.317571 0.692592
0.900374 0.539010 0.769818
0.965560 0.775998 0.840452
0.000000 0.175998 0.590784
0.000000 0.089374 0.562163
0.000000 0.050636 0.546953
0.067904 0.030092 0.538533
0.449247 0.040385 0.590306
0.670229 0.107913 0.630487
0.813867 0.323820 0.691770
0.900960 0.544923 0.767066
0.965881 0.777340 0.840284
0.000000 0.234882 0.612085
0.000000 0.160067 0.584022
0.000000 0.107569 0.568143
0.000000 0.020256 0.538777
0.426254 0.073565 0.595973
0.668389 0.130315 0.633410
0.814130 0.326989 0.692037
0.901442 0.546967 0.767073
0.966003 0.777844 0.840208
0.000000 0.342306 0.654612
0.000000 0.310050 0.640331
0.000000 0.288536 0.632458
0.000000 0.221886 0.607167
0.414457 0.260690 0.641262
0.665850 0.170816 0.639702
0.814679 0.332692 0.692543
0.902322 0.550635 0.767127
0.966278 0.779004 0.840009
0.000000 0.480751 0.702983
0.000000 0.464954 0.695734
0.000000 0.458786 0.694092
0.000000 0.445831 0.690486
0.253883 0.500398 0.707037
0.720925 0.480208 0.720446
0.822927 0.375280 0.701306
0.904755 0.560720 0.767056
0.967025 0.782162 0.839475
0.000000 0.576944 0.735500
0.000000 0.571557 0.731912
0.000000 0.570626 0.731792
0.000000 0.569011 0.731589
0.000000 0.626942 0.757856
0.702964 0.747590 0.785919
0.906499 0.715089 0.789770
0.925585 0.642496 0.779658
0.968963 0.790417 0.837537
0.000000 0.765667 0.791150
0.069256 0.767846 0.788535
0.076312 0.769986 0.788357
0.097234 0.773868 0.788196
0.158009 0.783898 0.788156
0.353077 0.807541 0.790917
0.914168 0.888948 0.824386
0.981170 0.880634 0.827816
0.982025 0.851667 0.836271
0.406516 0.836835 0.819196
0.379936 0.838239 0.818867
0.392976 0.839587 0.819258
0.413119 0.841954 0.820000
0.463182 0.848141 0.821934
0.557777 0.862655 0.826279
0.716599 0.889664 0.828268
0.984841 0.934644 0.837056
0.998856 0.939437 0.856367
0.707057 0.899001 0.853742
0.711559 0.899870 0.854124
0.713451 0.900236 0.854276
0.717479 0.900999 0.854597
0.728145 0.903044 0.855482
0.755337 0.908186 0.857664
0.814969 0.919341 0.862165
0.908614 0.935073 0.859648
1.000000 0.952041 0.871275
0.000000 0.312535 0.670161
0.000000 0.278676 0.656123
0.000000 0.257252 0.647883
0.000000 0.184726 0.631342
0.386603 0.138567 0.642985
0.674540 0.178897 0.684642
0.821485 0.345174 0.736660
0.914199 0.593729 0.805646
0.969055 0.793057 0.854200
0.000000 0.341634 0.679530
0.000000 0.308763 0.665546
0.000000 0.289414 0.658503
0.000000 0.246637 0.643349
0.300267 0.188615 0.646969
0.666733 0.224403 0.692122
0.820406 0.357766 0.738706
0.912944 0.593754 0.803918
0.969268 0.794156 0.854276
0.000000 0.353048 0.682918
0.000000 0.325054 0.671533
0.000000 0.309029 0.665622
0.000000 0.272718 0.652481
0.214635 0.209508 0.644782
0.663023 0.246079 0.696137
0.821242 0.364806 0.740327
0.913176 0.594861 0.804122
0.969329 0.794461 0.854276
0.000000 0.407858 0.702144
0.000000 0.386001 0.693321
0.000000 0.371730 0.688172
0.000000 0.342223 0.677680
0.000932 0.249110 0.656321
0.654427 0.279478 0.702963
0.822860 0.377378 0.743326
0.913637 0.596945 0.804503
0.969512 0.795392 0.854337
0.000000 0.515129 0.738201
0.000000 0.497892 0.731829
0.000000 0.492209 0.729959
0.000000 0.481710 0.726509
0.000000 0.440585 0.721008
0.669525 0.503687 0.759935
0.826469 0.410820 0.751258
0.914858 0.602526 0.805519
0.970016 0.797864 0.854490
0.000000 0.588388 0.760708
0.000000 0.581845 0.757553
0.000000 0.580818 0.757256
0.000000 0.579097 0.756800
0.000000 0.573700 0.755466
0.598839 0.743328 0.810898
0.898538 0.735171 0.829321
0.927542 0.654778 0.816856
0.971405 0.804685 0.854871
0.000000 0.618540 0.771740
0.000000 0.615886 0.769134
0.000000 0.615810 0.769123
0.000000 0.615691 0.769101
0.000000 0.615306 0.768999
0.072594 0.770375 0.808816
0.895198 0.892800 0.857835
0.979807 0.885996 0.863281
0.982071 0.858122 0.861463
0.526802 0.858442 0.834043
0.519105 0.858434 0.833673
0.524052 0.859231 0.834002
0.532245 0.860617 0.834594
0.553969 0.864342 0.836182
0.606211 0.873625 0.840182
0.714197 0.893411 0.848814
0.981974 0.940890 0.872835
0.998230 0.941939 0.875761
0.737408 0.905257 0.857954
0.740764 0.905898 0.858244
0.742290 0.906188 0.858381
0.745342 0.906767 0.858640
0.753613 0.908324 0.859358
0.775616 0.912474 0.861265
0.824338 0.921782 0.865522
0.904646 0.936690 0.871183
1.000000 0.953719 0.879927
0.000000 0.501259 0.739345
0.000000 0.490486 0.735988
0.000000 0.485359 0.734386
0.000000 0.474250 0.730938
0.000000 0.433112 0.717723
0.590112 0.390448 0.739590
0.835584 0.453361 0.777768
0.922835 0.631205 0.824903
0.975738 0.826581 0.865354
0.000000 0.511116 0.742489
0.000000 0.501411 0.739391
0.000000 0.496605 0.737896
0.000000 0.486336 0.734691
0.000000 0.450645 0.723369
0.553246 0.408270 0.741131
0.836667 0.467613 0.781201
0.923934 0.636011 0.825986
0.975845 0.827054 0.865431
0.000000 0.514565 0.743832
0.000000 0.506050 0.740826
0.000000 0.501411 0.739391
0.000000 0.491310 0.736248
0.000000 0.458045 0.725765
0.531518 0.415518 0.741299
0.836851 0.473777 0.782650
0.924468 0.638193 0.826474
0.975906 0.827375 0.865476
0.000000 0.521706 0.746609
0.000000 0.514290 0.743709
0.000000 0.510857 0.742382
0.000000 0.501579 0.739437
0.000000 0.471931 0.730190
0.472557 0.429297 0.740246
0.837140 0.486992 0.785550
0.925505 0.642756 0.827512
0.975998 0.827863 0.865553
0.000000 0.556542 0.757519
0.000000 0.553170 0.756954
0.000000 0.551537 0.756680
0.000000 0.548089 0.756100
0.000000 0.531426 0.750469
0.215305 0.518669 0.750439
0.836942 0.521859 0.792996
0.928328 0.655039 0.830289
0.976287 0.829297 0.865766
0.000000 0.599405 0.767529
0.000000 0.598459 0.767117
0.000000 0.598001 0.766918
0.000000 0.596857 0.766659
0.000000 0.593057 0.766339
0.000000 0.640467 0.796460
0.878416 0.757916 0.846006
0.935729 0.688014 0.837736
0.977050 0.833112 0.866361
0.000000 0.620844 0.776608
0.000000 0.620752 0.776577
0.000000 0.620691 0.776562
0.000000 0.620600 0.776532
0.000000 0.620325 0.776455
0.000000 0.619455 0.776196
0.845258 0.891661 0.863615
0.980667 0.899626 0.875196
0.983352 0.865507 0.871138
0.000000 0.626719 0.779278
0.000000 0.626688 0.779263
0.000000 0.626673 0.779248
0.000000 0.626642 0.779232
0.000000 0.626566 0.779187
0.000000 0.626322 0.779049
0.541894 0.862409 0.839765
0.978576 0.942580 0.880201
0.998032 0.943023 0.882307
0.802487 0.917845 0.865080
0.804303 0.918196 0.865248
0.805035 0.918349 0.865309
0.806485 0.918624 0.865446
0.810834 0.919463 0.865873
0.822431 0.921721 0.866972
0.849653 0.927016 0.869596
0.903349 0.937179 0.874708
1.000000 0.954604 0.884871
