luts/apple-log/33x/Apple_LOG_to_Kodak_2383_D65_Rec709_G2-4.cube
TITLE "Apple LOG to Kodak 2383 D65 Rec709 G2-4"
#  
# Apple LOG to Rec.709 Hybrid LUT
#  
# This hybrid LUT converts Apple LOG to Rec.709 Gamma 2.4
#  
# Based on an original creative LUT included in DaVinci Resolve, adapted for a different color space.  
#  
# Created by Tobia Montanari | tobiamontanari.com
#  
#  
# 
LUT_3D_SIZE 9
0.030106 0.038559 0.046921
0.087724 0.051759 0.052354
0.158602 0.061524 0.053452
0.271885 0.069779 0.050629
0.470253 0.014389 0.099611
0.669841 0.041459 0.233143
0.816739 0.244923 0.456626
0.924514 0.523003 0.706584
0.980911 0.794537 0.892668
0.029221 0.042100 0.049104
0.030106 0.038559 0.046921
0.076722 0.055558 0.043214
0.209293 0.080415 0.030549
0.450034 0.107836 0.000000
0.663584 0.070069 0.091371
0.818936 0.256916 0.411429
0.925902 0.528283 0.693706
0.981247 0.796262 0.890471
0.000000 0.085939 0.073609
0.038575 0.073014 0.054581
0.076448 0.080766 0.054887
0.199176 0.106386 0.035264
0.440665 0.124285 0.000000
0.676204 0.132525 0.000946
0.819776 0.260975 0.385916
0.926528 0.530510 0.687282
0.981414 0.797040 0.889464
0.000000 0.174319 0.135027
0.001801 0.160586 0.074586
0.080079 0.157183 0.059541
0.223407 0.194934 0.047807
0.485924 0.233112 0.000000
0.681941 0.193591 0.000000
0.820935 0.266728 0.311604
0.927871 0.535332 0.672801
0.981750 0.798520 0.886854
0.000000 0.342153 0.283360
0.000000 0.334539 0.196597
0.000000 0.324987 0.124422
0.132387 0.351247 0.011719
0.526772 0.439582 0.004669
0.792889 0.455009 0.000000
0.871992 0.379629 0.000000
0.931624 0.546059 0.619959
0.982727 0.802548 0.878904
0.000000 0.557763 0.524224
0.000000 0.568887 0.490944
0.000000 0.573388 0.471717
0.000000 0.577646 0.412512
0.356664 0.612863 0.123720
0.817334 0.711788 0.198352
0.963806 0.705058 0.014710
0.969650 0.653590 0.370275
0.985534 0.812192 0.848569
0.000000 0.743343 0.751766
0.000000 0.752514 0.741863
0.000000 0.756436 0.736919
0.000000 0.764050 0.725261
0.000000 0.780621 0.681514
0.650111 0.829633 0.445930
0.959457 0.893980 0.533364
1.000000 0.889418 0.514672
1.000000 0.880186 0.684733
0.260990 0.875471 0.896254
0.320699 0.879210 0.895781
0.338399 0.880796 0.895537
0.363684 0.884001 0.895186
0.431006 0.892576 0.893629
0.565682 0.911040 0.881315
0.858427 0.940291 0.734234
0.997086 0.969268 0.797925
1.000000 0.967193 0.798093
0.727626 0.956024 0.971984
0.732082 0.956771 0.972152
0.734188 0.957137 0.972244
0.738048 0.957763 0.972366
0.747921 0.959350 0.972641
0.773907 0.963470 0.972992
0.830503 0.972229 0.971283
0.953811 0.985122 0.918044
1.000000 0.994263 0.944976
0.030060 0.038605 0.048920
0.078263 0.048768 0.076906
0.145342 0.057160 0.107424
0.261357 0.060090 0.137255
0.466361 0.002411 0.196017
0.668574 0.012665 0.309850
0.814237 0.232792 0.490700
0.923308 0.518364 0.717449
0.980636 0.793210 0.894789
0.029435 0.041184 0.050156
0.030423 0.039090 0.047528
0.090846 0.054331 0.054493
0.227250 0.071934 0.054777
0.448533 0.039585 0.096992
0.663740 0.054377 0.231547
0.816236 0.247919 0.456825
0.923946 0.524825 0.705727
0.980972 0.794934 0.892653
0.000015 0.087053 0.099779
0.005493 0.074498 0.068501
0.072389 0.079222 0.062144
0.220008 0.097441 0.045600
0.440830 0.074382 0.001758
0.662068 0.070384 0.176599
0.817307 0.253812 0.437190
0.924602 0.527318 0.700038
0.981125 0.795697 0.891661
0.000000 0.180621 0.187472
0.000000 0.167389 0.134893
0.000070 0.158618 0.088338
0.220041 0.198007 0.070793
0.501314 0.220410 0.000613
0.674870 0.146038 0.013971
0.819159 0.263584 0.386575
0.925890 0.532116 0.687190
0.981430 0.797238 0.889586
0.000000 0.345663 0.340856
0.000000 0.347204 0.290159
0.000000 0.344820 0.250437
0.000455 0.342827 0.120592
0.517684 0.436780 0.060545
0.790591 0.447547 0.012076
0.849390 0.349163 0.166857
0.929537 0.543923 0.641083
0.982391 0.801297 0.882094
0.000000 0.555642 0.551827
0.000000 0.568389 0.527852
0.000000 0.573583 0.513082
0.000000 0.582382 0.472785
0.218625 0.603235 0.223444
0.813413 0.714790 0.253126
0.953558 0.707375 0.239716
0.964718 0.652857 0.441532
0.985199 0.811460 0.853788
0.000000 0.740673 0.760800
0.000000 0.749957 0.751171
0.000000 0.754085 0.746657
0.000000 0.762066 0.736675
0.025629 0.779660 0.698573
0.609033 0.825251 0.473787
0.957452 0.894145 0.545055
0.999951 0.892876 0.554162
1.000000 0.881254 0.703609
0.241474 0.874327 0.897261
0.262495 0.877806 0.896275
0.278865 0.879466 0.895946
0.314852 0.882707 0.895546
0.404538 0.891072 0.893837
0.554696 0.909547 0.882441
0.848978 0.939379 0.739889
0.996408 0.968985 0.798969
1.000000 0.968307 0.807065
0.726009 0.955749 0.972015
0.730465 0.956512 0.972183
0.732555 0.956863 0.972259
0.736614 0.957549 0.972412
0.746715 0.959167 0.972717
0.772702 0.963302 0.973129
0.829664 0.972137 0.971649
0.952697 0.985092 0.919219
1.000000 0.994308 0.945388
0.019120 0.041184 0.092851
0.080079 0.051194 0.097810
0.146044 0.058122 0.132342
0.263554 0.057816 0.172198
0.470054 0.000992 0.235080
0.669886 0.009140 0.336599
0.813016 0.226917 0.503365
0.922820 0.516411 0.722026
0.980514 0.792645 0.895659
0.005753 0.047746 0.061662
0.025394 0.041315 0.077510
0.088173 0.055396 0.089796
0.227283 0.072392 0.111818
0.450712 0.037119 0.153979
0.664653 0.047437 0.275089
0.815088 0.242744 0.473637
0.923382 0.522744 0.710979
0.980850 0.794369 0.893614
0.000000 0.090806 0.117403
0.001767 0.079173 0.098656
0.062800 0.082780 0.094917
0.235721 0.094902 0.090181
0.441294 0.054643 0.100343
0.663008 0.063233 0.232166
0.816251 0.249287 0.456510
0.924041 0.525335 0.705641
0.980972 0.794934 0.892576
0.000000 0.184924 0.211032
0.000000 0.174008 0.173635
0.000000 0.167340 0.139864
0.218549 0.201096 0.091676
0.504360 0.209824 0.085576
0.665135 0.106819 0.103075
0.818378 0.260383 0.412747
0.925325 0.530224 0.693577
0.981308 0.796658 0.890532
0.000000 0.346639 0.361395
0.000000 0.350170 0.323534
0.000000 0.349450 0.292790
0.000000 0.338296 0.172668
0.514788 0.437476 0.099861
0.783923 0.439051 0.107399
0.847312 0.344375 0.236216
0.928969 0.542492 0.650517
0.982254 0.800748 0.883360
0.000000 0.554284 0.562676
0.000000 0.567779 0.542312
0.000000 0.573361 0.529537
0.000000 0.583511 0.495216
0.117543 0.596219 0.257584
0.812470 0.716454 0.271693
0.952605 0.711540 0.304247
0.963321 0.652403 0.468400
0.985061 0.811063 0.855924
0.000000 0.739376 0.764431
0.000000 0.748855 0.755612
0.000000 0.753118 0.751388
0.000000 0.761263 0.741906
0.021485 0.779513 0.706417
0.588113 0.823304 0.485987
0.957076 0.894783 0.550561
0.999905 0.894868 0.570617
1.000000 0.881788 0.711559
0.232441 0.873793 0.897688
0.256882 0.877253 0.896828
0.272468 0.878956 0.896556
0.308623 0.882246 0.896217
0.399661 0.890660 0.894594
0.552120 0.909349 0.883915
0.845213 0.939223 0.743154
0.996338 0.969143 0.800333
1.000000 0.968750 0.810697
0.725216 0.955612 0.972000
0.729915 0.956420 0.972213
0.732021 0.956771 0.972290
0.736141 0.957473 0.972457
0.746014 0.959060 0.972732
0.772229 0.963226 0.973190
0.829252 0.972091 0.971801
0.952132 0.985077 0.919799
1.000000 0.994324 0.945571
0.000000 0.022660 0.174548
0.098405 0.034134 0.176318
0.157443 0.048310 0.194156
0.268589 0.050019 0.235569
0.477958 0.000031 0.297704
0.674464 0.014145 0.384771
0.814603 0.229465 0.531456
0.921691 0.511955 0.731182
0.980240 0.791302 0.897612
0.000000 0.059174 0.141009
0.000220 0.031278 0.159735
0.086631 0.049424 0.174209
0.228736 0.067976 0.201587
0.457777 0.023645 0.251454
0.669786 0.049158 0.344005
0.816364 0.244108 0.507780
0.922255 0.518456 0.720937
0.980575 0.793027 0.895567
0.000000 0.105852 0.180392
0.000000 0.085017 0.182519
0.014106 0.084416 0.205038
0.232737 0.095650 0.211637
0.448612 0.047163 0.219528
0.668833 0.065482 0.318523
0.817411 0.250315 0.494118
0.922905 0.521092 0.716057
0.980728 0.793805 0.894652
0.000000 0.194400 0.261265
0.000000 0.187234 0.248924
0.000000 0.183700 0.242222
0.193890 0.219059 0.246964
0.518529 0.207398 0.236970
0.672895 0.114015 0.250327
0.819431 0.261527 0.460465
0.924209 0.526308 0.705516
0.981033 0.795331 0.892561
0.000000 0.358282 0.406302
0.000000 0.363751 0.385431
0.000000 0.365386 0.369980
0.000000 0.365038 0.308202
0.511553 0.452357 0.221955
0.786822 0.444147 0.270094
0.842750 0.333571 0.332769
0.927825 0.539287 0.667668
0.981964 0.799680 0.886183
0.000000 0.554131 0.584527
0.000000 0.568664 0.569442
0.000000 0.574600 0.559832
0.000000 0.586343 0.534936
0.004712 0.591205 0.349313
0.810556 0.720104 0.308034
0.950210 0.717430 0.388733
0.960476 0.649696 0.513497
0.984726 0.810117 0.860517
0.000000 0.736584 0.771817
0.000000 0.746447 0.763812
0.000000 0.750860 0.760143
0.000000 0.759402 0.751952
0.011695 0.778878 0.720564
0.537792 0.817929 0.509126
0.956298 0.895998 0.561114
0.999832 0.898430 0.600699
0.999924 0.882414 0.726925
0.213123 0.872633 0.898634
0.245679 0.876188 0.897896
0.261375 0.877885 0.897642
0.296599 0.881257 0.897356
0.390695 0.889836 0.896034
0.546835 0.908882 0.886656
0.837201 0.938830 0.749609
0.996201 0.969454 0.803009
1.000000 0.969711 0.818448
0.723857 0.955398 0.972045
0.728313 0.956161 0.972213
0.730388 0.956512 0.972320
0.734585 0.957229 0.972488
0.744808 0.958877 0.972793
0.771023 0.963058 0.973312
0.828428 0.971984 0.972061
0.951003 0.985046 0.920882
1.000000 0.994354 0.945907
0.000000 0.000000 0.303410
0.110994 0.000000 0.303960
0.180804 0.000000 0.317891
0.286687 0.000137 0.346212
0.491600 0.000397 0.403342
0.683009 0.020249 0.474525
0.818677 0.237888 0.588968
0.922423 0.515831 0.756786
0.979583 0.788067 0.902617
0.000000 0.023056 0.295140
0.000000 0.000003 0.296706
0.069151 0.000724 0.308644
0.232944 0.010230 0.342339
0.469459 0.008694 0.389108
0.678865 0.046732 0.456770
0.820478 0.251951 0.576047
0.922844 0.521914 0.748769
0.979889 0.789593 0.900710
0.000000 0.108400 0.333501
0.000000 0.046442 0.322994
0.000009 0.030936 0.332506
0.214750 0.080437 0.365237
0.458622 0.019303 0.381823
0.678175 0.064057 0.446641
0.821604 0.258210 0.568710
0.923394 0.524279 0.745220
0.980026 0.790372 0.899870
0.000000 0.217624 0.388800
0.000000 0.197745 0.388250
0.000000 0.187158 0.393439
0.100826 0.229664 0.434095
0.516008 0.215296 0.446119
0.681529 0.111647 0.426343
0.823923 0.270341 0.551528
0.924520 0.529067 0.737435
0.980331 0.791913 0.897948
0.000000 0.382361 0.492851
0.000000 0.386429 0.490736
0.000000 0.389361 0.490138
0.000000 0.395450 0.486747
0.480174 0.486952 0.503527
0.789438 0.447349 0.490413
0.846580 0.348785 0.503502
0.927700 0.541753 0.710243
0.981186 0.796323 0.892576
0.000000 0.570443 0.638270
0.000000 0.584942 0.632251
0.000000 0.591162 0.628406
0.000000 0.603354 0.618128
0.000015 0.626636 0.552685
0.801755 0.743462 0.481093
0.945421 0.728402 0.540651
0.953918 0.639762 0.606064
0.983902 0.807553 0.871122
0.000000 0.735225 0.791638
0.000000 0.745189 0.784851
0.000000 0.749740 0.782281
0.000006 0.758593 0.776257
0.002402 0.779736 0.754253
0.380630 0.807944 0.594086
0.954232 0.899559 0.591141
0.999377 0.905611 0.665818
0.999390 0.882963 0.762875
0.159792 0.869413 0.900984
0.214050 0.873085 0.900633
0.230130 0.874855 0.900444
0.263337 0.878376 0.900163
0.359243 0.887312 0.899571
0.531969 0.907396 0.892805
0.811679 0.937008 0.766204
0.995825 0.970221 0.809854
1.000000 0.972061 0.837858
0.719799 0.954726 0.972107
0.724514 0.955535 0.972305
0.726345 0.955840 0.972381
0.730785 0.956603 0.972580
0.741466 0.958358 0.972946
0.767895 0.962600 0.973602
0.826154 0.971679 0.972625
0.947799 0.984939 0.923949
1.000000 0.994446 0.946868
0.000000 0.000000 0.449516
0.074968 0.000000 0.438102
0.167376 0.000000 0.444465
0.294682 0.000000 0.476844
0.506310 0.000000 0.531121
0.695644 0.022950 0.595422
0.826429 0.256947 0.681025
0.924254 0.525292 0.803037
0.979538 0.790509 0.916030
0.000000 0.000015 0.462730
0.000000 0.000000 0.447279
0.000015 0.000000 0.446564
0.215915 0.000000 0.484843
0.479176 0.000598 0.536330
0.691740 0.060917 0.593295
0.828073 0.268397 0.677152
0.924599 0.531023 0.798740
0.979812 0.792050 0.914885
0.000000 0.068894 0.490654
0.000000 0.001730 0.471696
0.000000 0.000000 0.463307
0.160345 0.029590 0.497459
0.462471 0.006470 0.538360
0.690562 0.071980 0.592166
0.829059 0.274022 0.675279
0.925121 0.533404 0.797208
0.979950 0.792813 0.914366
0.000000 0.230320 0.551598
0.000000 0.193787 0.539977
0.000000 0.168929 0.532277
0.000674 0.210571 0.570391
0.487599 0.228729 0.608179
0.688728 0.097716 0.590817
0.831079 0.285289 0.670744
0.926162 0.538207 0.793982
0.980194 0.794156 0.913176
0.000000 0.391165 0.618036
0.000000 0.378286 0.615647
0.000000 0.372711 0.615216
0.000000 0.389548 0.637900
0.409320 0.496867 0.694621
0.781851 0.459199 0.698396
0.850202 0.359667 0.670900
0.928969 0.551089 0.782760
0.980880 0.797971 0.909773
0.000000 0.605676 0.728008
0.000000 0.616425 0.729253
0.000000 0.621207 0.729976
0.000000 0.630384 0.730525
0.000006 0.652229 0.727614
0.772219 0.772903 0.752636
0.937487 0.731643 0.741076
0.951290 0.651756 0.754849
0.983032 0.808698 0.895598
0.000000 0.751873 0.831388
0.000000 0.760827 0.827857
0.000000 0.764803 0.826792
0.000003 0.772778 0.824531
0.001389 0.792441 0.815613
0.304244 0.830903 0.770596
0.944359 0.917137 0.736193
0.996692 0.916930 0.783356
0.996063 0.878096 0.832074
0.109514 0.866880 0.908766
0.182507 0.870604 0.908653
0.198483 0.872413 0.908656
0.231623 0.875981 0.908742
0.323223 0.885103 0.908919
0.509404 0.906072 0.907436
0.738601 0.933001 0.826151
0.994751 0.972442 0.829648
1.000000 0.976699 0.876783
0.708202 0.952819 0.972198
0.712917 0.953628 0.972427
0.715007 0.953979 0.972503
0.719463 0.954742 0.972717
0.731502 0.956786 0.973236
0.759030 0.961242 0.974105
0.820005 0.970871 0.974121
0.938064 0.984314 0.930861
1.000000 0.994705 0.949325
0.000000 0.000000 0.581323
0.000000 0.000015 0.575723
0.015518 0.003265 0.575906
0.245533 0.000000 0.587060
0.500816 0.000015 0.643290
0.704036 0.025895 0.700313
0.842176 0.308583 0.778637
0.928847 0.547234 0.861082
0.979751 0.796780 0.937835
0.000000 0.023560 0.596490
0.000000 0.001288 0.580389
0.000000 0.000000 0.570935
0.020026 0.007953 0.576474
0.456336 0.018811 0.652659
0.700072 0.074946 0.706636
0.842243 0.315200 0.778845
0.928951 0.552044 0.859761
0.979995 0.798337 0.937407
0.000000 0.097856 0.616053
0.000000 0.020346 0.593548
0.000000 0.005069 0.583862
0.000000 0.000033 0.576449
0.429673 0.049934 0.656590
0.698720 0.097444 0.710100
0.842624 0.318215 0.779178
0.929335 0.554076 0.859617
0.980102 0.798932 0.937240
0.000000 0.246693 0.671092
0.000000 0.206876 0.654218
0.000000 0.178937 0.644547
0.000000 0.117485 0.629798
0.411249 0.240781 0.710204
0.696541 0.144482 0.717830
0.843385 0.324163 0.779755
0.930077 0.558007 0.859303
0.980316 0.800290 0.936767
0.000000 0.414603 0.738323
0.000000 0.397259 0.730800
0.000000 0.390067 0.728487
0.000000 0.373590 0.723348
0.213577 0.487312 0.785550
0.761013 0.483232 0.818915
0.853147 0.369067 0.790457
0.932183 0.569027 0.858186
0.980926 0.803998 0.935500
0.000000 0.536278 0.781888
0.000000 0.532601 0.780310
0.000000 0.531374 0.780206
0.000000 0.528841 0.779980
0.000000 0.618619 0.830741
0.725069 0.776425 0.887935
0.929183 0.736416 0.885835
0.949901 0.658915 0.868250
0.982483 0.813809 0.931304
0.000000 0.787869 0.882506
0.000546 0.793127 0.881334
0.000720 0.795731 0.881340
0.001425 0.800842 0.881224
0.018183 0.814002 0.880839
0.231812 0.843992 0.882795
0.926479 0.933876 0.916322
0.990787 0.921617 0.911543
0.991928 0.883391 0.919493
0.263798 0.879255 0.926406
0.269691 0.882435 0.927156
0.285920 0.883928 0.927501
0.315789 0.886845 0.928179
0.391073 0.894502 0.929964
0.528441 0.912532 0.933870
0.719951 0.942678 0.926015
0.989758 0.981506 0.913597
1.000000 0.982467 0.934401
0.697063 0.951141 0.973648
0.702022 0.951995 0.973922
0.704128 0.952346 0.974029
0.708568 0.953109 0.974273
0.720348 0.955123 0.974899
0.749538 0.959976 0.976226
0.811765 0.969955 0.977752
0.908492 0.982666 0.954162
1.000000 0.995422 0.956603
0.000000 0.217121 0.704295
0.000000 0.162722 0.682658
0.000000 0.129168 0.672740
0.000000 0.123049 0.683085
0.391241 0.152071 0.723934
0.710704 0.188128 0.781445
0.852003 0.349981 0.838193
0.939727 0.604486 0.909728
0.981720 0.813458 0.958755
0.000000 0.249928 0.718425
0.000000 0.210758 0.702159
0.000000 0.187124 0.693855
0.000000 0.128438 0.675126
0.284428 0.192596 0.722069
0.704686 0.232651 0.791247
0.853373 0.363445 0.841681
0.939245 0.606122 0.909389
0.981872 0.814664 0.958785
0.000000 0.261234 0.723445
0.000000 0.229566 0.709706
0.000000 0.211093 0.702242
0.000000 0.160073 0.684578
0.196661 0.203445 0.715175
0.701228 0.250514 0.795560
0.854267 0.369592 0.843427
0.939394 0.607074 0.909538
0.981918 0.815015 0.958785
0.000000 0.329885 0.751110
0.000000 0.301381 0.739702
0.000000 0.286574 0.733538
0.000000 0.252381 0.719423
0.000015 0.222431 0.723742
0.692180 0.283293 0.803589
0.856046 0.381878 0.846922
0.939736 0.609219 0.909914
0.982055 0.816052 0.958816
0.000000 0.448890 0.798718
0.000000 0.435901 0.793414
0.000000 0.429990 0.791071
0.000000 0.417652 0.786185
0.000000 0.401080 0.792599
0.707408 0.512111 0.871476
0.860163 0.414853 0.856251
0.940609 0.614765 0.910866
0.982406 0.818830 0.958877
0.000000 0.550805 0.832990
0.000000 0.545867 0.830790
0.000000 0.544439 0.830344
0.000000 0.541601 0.829487
0.000000 0.532601 0.826746
0.610401 0.766366 0.925902
0.919021 0.753756 0.939623
0.950289 0.669090 0.922572
0.983413 0.826474 0.958968
0.000000 0.603952 0.853376
0.000000 0.602191 0.851231
0.000000 0.602097 0.851228
0.000000 0.601877 0.851209
0.000000 0.601187 0.851136
0.000687 0.797638 0.922832
0.905446 0.934389 0.971737
0.986813 0.922423 0.971969
0.990921 0.887083 0.965560
0.477241 0.906584 0.951629
0.473826 0.907546 0.951595
0.479963 0.908400 0.951952
0.491875 0.910103 0.952666
0.522295 0.914583 0.954522
0.590149 0.925411 0.958920
0.714543 0.946407 0.966989
0.983472 0.987088 0.982620
1.000000 0.985138 0.981048
0.729473 0.957153 0.979767
0.733059 0.957748 0.979980
0.734661 0.958022 0.980072
0.737865 0.958541 0.980255
0.746578 0.959960 0.980758
0.769711 0.963729 0.982055
0.820340 0.972030 0.984710
0.901793 0.984970 0.984955
1.000000 0.998398 0.983383
0.000000 0.448417 0.809598
0.000000 0.438651 0.806180
0.000000 0.433982 0.804532
0.000000 0.423865 0.800992
0.000000 0.387579 0.787457
0.632334 0.452720 0.862364
0.877394 0.509972 0.897978
0.949630 0.664240 0.937560
0.986068 0.853605 0.975143
0.000000 0.457298 0.812726
0.000000 0.448539 0.809628
0.000000 0.444144 0.808072
0.000000 0.434836 0.804807
0.000000 0.402869 0.793210
0.588617 0.466011 0.862577
0.877958 0.522286 0.901228
0.950179 0.668345 0.938445
0.986130 0.854109 0.975235
0.000000 0.460349 0.813947
0.000000 0.452674 0.811048
0.000000 0.448493 0.809598
0.000000 0.439338 0.806394
0.000000 0.409354 0.795651
0.561547 0.470787 0.861830
0.877989 0.527611 0.902602
0.950454 0.670222 0.938857
0.986175 0.854444 0.975280
0.000000 0.466773 0.816541
0.000000 0.460060 0.813825
0.000000 0.456962 0.812573
0.000000 0.448600 0.809613
0.000000 0.421622 0.800153
0.486870 0.478676 0.858152
0.877714 0.539162 0.905348
0.950957 0.674113 0.939712
0.986236 0.854948 0.975372
0.000000 0.512184 0.833646
0.000000 0.505516 0.831342
0.000000 0.502327 0.830243
0.000000 0.495552 0.827909
0.000000 0.476280 0.820539
0.134249 0.542702 0.858335
0.876020 0.569619 0.912337
0.952361 0.684657 0.942016
0.986435 0.856458 0.975616
0.000000 0.572534 0.853117
0.000000 0.571069 0.852705
0.000000 0.570352 0.852522
0.000000 0.568475 0.851942
0.000000 0.562020 0.849851
0.000000 0.642710 0.897261
0.895811 0.784421 0.959335
0.955978 0.713054 0.948211
0.986938 0.860471 0.976287
0.000000 0.605997 0.862593
0.000000 0.605753 0.862501
0.000000 0.605631 0.862455
0.000000 0.605371 0.862364
0.000000 0.604700 0.862119
0.000000 0.602579 0.861357
0.852445 0.930709 0.981994
0.983307 0.930678 0.987640
0.991150 0.895018 0.981903
0.000000 0.629206 0.876066
0.000000 0.629129 0.876036
0.000000 0.629114 0.876036
0.000000 0.629053 0.876005
0.000000 0.628916 0.875959
0.000000 0.628443 0.875776
0.505455 0.912123 0.963729
0.976883 0.987137 0.996735
0.998947 0.984527 0.995361
0.796231 0.968399 0.987732
0.798123 0.968704 0.987854
0.798871 0.968826 0.987900
0.800381 0.969085 0.988006
0.804913 0.969833 0.988312
0.816983 0.971817 0.989136
0.845029 0.976516 0.991058
0.898116 0.985260 0.994537
1.000000 1.000000 0.999969
