luts/apple-log/33x/Apple_LOG_to_Kodak_2383_D55_Rec709_G2-4.cube
TITLE "Apple LOG to Kodak 2383 D55 Rec709 G2-4"
#  
# Apple LOG to Rec.709 Hybrid LUT
#  
# This hybrid LUT converts Apple LOG to Rec.709 Gamma 2.4
#  
# Based on an original creative LUT included in DaVinci Resolve, adapted for a different color space.  
#  
# Created by Tobia Montanari | tobiamontanari.com
#  
#  
# 
LUT_3D_SIZE 33
0.031342 0.037629 0.042359
0.031342 0.037629 0.042359
0.037919 0.038850 0.043107
0.064485 0.044388 0.045670
0.086320 0.049653 0.046479
0.100801 0.053559 0.047044
0.117525 0.055573 0.047425
0.134630 0.056977 0.046983
0.155154 0.058549 0.045838
0.177661 0.060365 0.044343
0.202564 0.062409 0.042374
0.230854 0.064332 0.040314
0.265339 0.064469 0.038468
0.306340 0.061433 0.036301
0.353964 0.050629 0.045716
0.405890 0.028077 0.056809
0.459373 0.006287 0.082231
0.510063 0.005173 0.101869
0.560845 0.008682 0.129152
0.608911 0.011475 0.162554
0.654124 0.032517 0.203861
0.693278 0.059129 0.248966
0.730220 0.112642 0.298177
0.764828 0.168276 0.349706
0.797894 0.230106 0.403845
0.829252 0.292485 0.461173
0.857954 0.356756 0.518532
0.884230 0.425010 0.572900
0.908110 0.498283 0.626413
0.929488 0.574594 0.677623
0.948074 0.646983 0.723095
0.962051 0.706813 0.760342
0.971939 0.758267 0.790921
0.031342 0.037629 0.042359
0.031342 0.037629 0.042359
0.031342 0.037629 0.042359
0.034974 0.038529 0.041703
0.045304 0.043122 0.039826
0.067384 0.047364 0.038025
0.082399 0.051667 0.036515
0.092851 0.055436 0.036118
0.109270 0.058747 0.034775
0.133318 0.061601 0.032303
0.164858 0.064027 0.027283
0.197757 0.067140 0.010605
0.235325 0.072755 0.000946
0.282551 0.076661 0.000183
0.339040 0.077607 0.000031
0.398444 0.072633 0.000000
0.456733 0.067521 0.000000
0.506554 0.041062 0.006897
0.555047 0.024140 0.049485
0.604517 0.023957 0.097597
0.651301 0.046204 0.147204
0.693202 0.074464 0.205921
0.730953 0.122362 0.265827
0.765957 0.176287 0.325277
0.798886 0.236255 0.384771
0.830457 0.297093 0.446632
0.859083 0.360235 0.507958
0.885115 0.427985 0.565438
0.908858 0.500954 0.620813
0.930037 0.576669 0.673991
0.948470 0.648463 0.720821
0.962356 0.707973 0.758892
0.972122 0.758984 0.789853
0.031342 0.037629 0.042359
0.031342 0.037629 0.042359
0.031342 0.037629 0.042359
0.031342 0.037629 0.042359
0.038651 0.040757 0.039612
0.046738 0.044602 0.037491
0.067506 0.049180 0.037797
0.081178 0.052949 0.037156
0.093889 0.057237 0.036942
0.114809 0.061311 0.035141
0.146685 0.064698 0.031907
0.183932 0.068055 0.019943
0.223911 0.073915 0.005097
0.270451 0.080354 0.000031
0.325292 0.084794 0.000000
0.386816 0.087312 0.000000
0.452644 0.086580 0.000000
0.509026 0.081834 0.000000
0.557534 0.058793 0.006226
0.602564 0.030167 0.054795
0.649866 0.050919 0.117891
0.692836 0.079851 0.183047
0.731121 0.126101 0.249943
0.766323 0.179461 0.313680
0.799390 0.238483 0.375982
0.830869 0.298695 0.439796
0.859464 0.361425 0.503136
0.885496 0.429129 0.562112
0.909087 0.501778 0.618235
0.930297 0.577569 0.672129
0.948638 0.649104 0.719814
0.962463 0.708339 0.758175
0.972198 0.759350 0.789471
0.031342 0.037629 0.042359
0.031342 0.037629 0.042359
0.031342 0.037629 0.042359
0.031342 0.037629 0.042359
0.034287 0.038850 0.040742
0.039628 0.042847 0.037400
0.050965 0.046845 0.038041
0.069810 0.050782 0.038224
0.085100 0.055070 0.037537
0.100954 0.060349 0.037385
0.130556 0.064881 0.034089
0.171649 0.069413 0.027588
0.213886 0.075135 0.008331
0.261570 0.082277 0.000031
0.317906 0.087648 0.000000
0.380896 0.093187 0.000000
0.443381 0.099184 0.000000
0.507744 0.098772 0.000000
0.561318 0.094392 0.000000
0.604379 0.052048 0.010498
0.648524 0.054093 0.090394
0.692546 0.083879 0.162829
0.731243 0.128695 0.235676
0.766552 0.181674 0.304051
0.799725 0.240116 0.369009
0.831205 0.299931 0.434501
0.859831 0.362478 0.499290
0.885725 0.429847 0.559319
0.909346 0.502647 0.616434
0.930480 0.578241 0.670680
0.948760 0.649500 0.718883
0.962554 0.708721 0.757733
0.972274 0.759716 0.789166
0.030716 0.040970 0.044205
0.031342 0.037629 0.042359
0.031342 0.037629 0.042359
0.031342 0.037629 0.042359
0.031342 0.037629 0.042359
0.038224 0.041260 0.037858
0.042954 0.045258 0.038025
0.056703 0.048875 0.038621
0.075990 0.053315 0.038376
0.093187 0.058732 0.038025
0.118883 0.064942 0.035904
0.159899 0.070252 0.031678
0.204501 0.076005 0.011612
0.253361 0.083635 0.000000
0.311376 0.091493 0.000000
0.376440 0.098329 0.000000
0.441291 0.104860 0.000000
0.501671 0.109804 0.000000
0.561532 0.106126 0.000000
0.609583 0.086397 0.000855
0.647837 0.057313 0.059190
0.692042 0.086793 0.143633
0.731197 0.130556 0.222416
0.766705 0.183261 0.295033
0.800015 0.241566 0.362692
0.831449 0.300984 0.429862
0.860121 0.363333 0.495903
0.885969 0.430594 0.557137
0.909529 0.503273 0.614725
0.930602 0.578683 0.669459
0.948882 0.649912 0.718074
0.962615 0.708904 0.757244
0.972320 0.759899 0.788891
0.029740 0.049134 0.050950
0.033158 0.045258 0.045014
0.034348 0.044053 0.043961
0.034592 0.042771 0.043336
0.034455 0.041398 0.042969
0.037201 0.042420 0.040543
0.039536 0.044694 0.038148
0.046860 0.047440 0.038819
0.066697 0.051637 0.039109
0.086381 0.057237 0.038331
0.108690 0.064622 0.037614
0.148470 0.070726 0.033204
0.196094 0.076890 0.016846
0.246281 0.085786 0.001114
0.304952 0.095033 0.000000
0.372015 0.102510 0.000000
0.439124 0.109499 0.000000
0.499092 0.115618 0.000000
0.560861 0.117311 0.000000
0.613947 0.111116 0.000015
0.649638 0.069917 0.033784
0.691463 0.088243 0.125383
0.731090 0.132204 0.209674
0.766827 0.184588 0.286549
0.800259 0.242802 0.357046
0.831754 0.301991 0.425589
0.860334 0.363989 0.492988
0.886213 0.431373 0.555123
0.909712 0.503929 0.613184
0.930785 0.579370 0.668437
0.948989 0.650324 0.717403
0.962707 0.709300 0.756954
0.972366 0.760082 0.788632
0.019883 0.059556 0.055711
0.035172 0.052766 0.047944
0.038956 0.051072 0.046616
0.039475 0.049699 0.045685
0.039780 0.048417 0.044923
0.040208 0.048508 0.045335
0.044205 0.051133 0.044236
0.050904 0.053193 0.040955
0.068620 0.056977 0.040604
0.086885 0.061952 0.039795
0.105791 0.068071 0.039277
0.141497 0.073167 0.034607
0.187945 0.077897 0.021759
0.239948 0.087709 0.002960
0.299351 0.097810 0.000000
0.367788 0.105974 0.000000
0.436973 0.113298 0.000000
0.498802 0.119692 0.000000
0.556085 0.124285 0.000000
0.615259 0.122576 0.000000
0.653437 0.089448 0.012924
0.690898 0.089540 0.106874
0.731014 0.133608 0.197467
0.766964 0.185931 0.278431
0.800458 0.243702 0.351370
0.831983 0.302800 0.421622
0.860563 0.364675 0.490242
0.886397 0.431922 0.553231
0.909834 0.504326 0.611734
0.930846 0.579568 0.667460
0.949096 0.650752 0.716731
0.962768 0.709468 0.756481
0.972412 0.760266 0.788434
0.005676 0.070558 0.059541
0.026886 0.063935 0.050309
0.037049 0.061112 0.048829
0.039612 0.058671 0.047669
0.042359 0.056504 0.046677
0.044480 0.055390 0.045853
0.048691 0.058061 0.048966
0.056931 0.061555 0.046632
0.071580 0.065049 0.041871
0.088930 0.071275 0.041215
0.108019 0.078370 0.039582
0.143938 0.084443 0.035615
0.191257 0.089403 0.021805
0.239338 0.094698 0.003662
0.294209 0.100008 0.000000
0.363226 0.108873 0.000000
0.434882 0.116655 0.000000
0.498421 0.123354 0.000000
0.553552 0.129030 0.000000
0.614755 0.128466 0.000000
0.657572 0.107805 0.000000
0.690440 0.091585 0.086152
0.730938 0.134966 0.184649
0.767025 0.187030 0.270451
0.800549 0.244404 0.345998
0.832135 0.303395 0.417792
0.860807 0.365362 0.487663
0.886580 0.432486 0.551476
0.910018 0.504982 0.610498
0.930968 0.580011 0.666529
0.949172 0.650950 0.716136
0.962814 0.709651 0.756100
0.972457 0.760449 0.788251
0.000000 0.082032 0.064912
0.011887 0.075471 0.053391
0.028519 0.073442 0.051255
0.035355 0.071702 0.049714
0.041581 0.070085 0.048570
0.045594 0.068483 0.047822
0.053864 0.069856 0.048264
0.065080 0.073564 0.050843
0.076783 0.077348 0.048325
0.091356 0.081559 0.042527
0.110903 0.088777 0.040589
0.146899 0.095491 0.036500
0.195392 0.101381 0.022675
0.245365 0.108019 0.003799
0.300237 0.113787 0.000000
0.361776 0.115312 0.000000
0.432227 0.120363 0.000000
0.497810 0.127413 0.000000
0.554086 0.133547 0.000000
0.613611 0.137789 0.000000
0.663737 0.130663 0.000015
0.691722 0.102144 0.059770
0.730648 0.136309 0.167865
0.767086 0.188205 0.260380
0.800809 0.245441 0.339391
0.832395 0.304341 0.413092
0.861021 0.365988 0.484398
0.886748 0.432990 0.549249
0.910140 0.505379 0.608896
0.931105 0.580453 0.665324
0.949279 0.651347 0.715328
0.962860 0.709819 0.755611
0.972503 0.760632 0.787991
0.000000 0.093873 0.072984
0.001328 0.087144 0.057420
0.012924 0.085847 0.054444
0.027558 0.084871 0.052461
0.038529 0.083848 0.051301
0.049638 0.082933 0.050004
0.059159 0.081926 0.048691
0.072969 0.085710 0.050172
0.084535 0.090516 0.052476
0.097383 0.095064 0.049851
0.114824 0.099733 0.042283
0.150561 0.106935 0.037430
0.199924 0.113710 0.023743
0.251530 0.121538 0.004166
0.308354 0.129122 0.000000
0.371923 0.133181 0.000000
0.437003 0.133242 0.000000
0.496651 0.132387 0.000000
0.554498 0.138811 0.000000
0.607431 0.143923 0.000000
0.666560 0.144396 0.000000
0.694606 0.115007 0.025238
0.730175 0.137865 0.143999
0.767102 0.189502 0.245930
0.801083 0.246708 0.330251
0.832715 0.305364 0.406729
0.861387 0.366995 0.480186
0.887053 0.433936 0.546487
0.910399 0.506233 0.606928
0.931289 0.581109 0.663859
0.949401 0.651759 0.714412
0.962966 0.710185 0.755062
0.972549 0.760800 0.787640
0.000000 0.112093 0.083024
0.000000 0.103639 0.063417
0.000534 0.101427 0.058640
0.013977 0.099687 0.055894
0.035676 0.098176 0.054337
0.054963 0.097078 0.053025
0.067765 0.096529 0.051224
0.077165 0.097490 0.050156
0.091630 0.102602 0.051881
0.105379 0.108827 0.053666
0.123110 0.114916 0.050462
0.155093 0.120195 0.037766
0.204654 0.128542 0.022675
0.257755 0.137942 0.003510
0.316396 0.146853 0.000000
0.382208 0.152331 0.000000
0.450553 0.153933 0.000000
0.509316 0.152041 0.000000
0.554726 0.145022 0.000000
0.608850 0.150332 0.000000
0.665354 0.156359 0.000000
0.703868 0.145251 0.000000
0.730861 0.144305 0.111788
0.767010 0.191211 0.224384
0.801343 0.248112 0.317601
0.833005 0.306386 0.398154
0.861738 0.368124 0.474403
0.887343 0.434775 0.542611
0.910643 0.507042 0.604196
0.931548 0.582040 0.662013
0.949569 0.652354 0.713130
0.963073 0.710536 0.754299
0.972625 0.761166 0.787228
0.000000 0.137438 0.098726
0.000000 0.128023 0.072373
0.000000 0.124941 0.063874
0.002426 0.123293 0.060716
0.015793 0.121508 0.057527
0.044923 0.120104 0.055589
0.066148 0.118853 0.053895
0.077867 0.118242 0.051530
0.093126 0.120592 0.050721
0.109331 0.128161 0.051713
0.133028 0.136614 0.052628
0.164981 0.144533 0.046662
0.209430 0.149950 0.016434
0.264256 0.162066 0.000931
0.324773 0.173236 0.000000
0.392615 0.180560 0.000000
0.463859 0.184070 0.000000
0.526833 0.183871 0.000000
0.574548 0.177218 0.000000
0.612772 0.161654 0.000000
0.659556 0.166873 0.000000
0.713039 0.175067 0.000000
0.733394 0.157641 0.052461
0.766705 0.192798 0.192050
0.801572 0.249561 0.299046
0.833494 0.308019 0.386374
0.862211 0.369451 0.465965
0.887831 0.436225 0.537606
0.911025 0.508293 0.600626
0.931807 0.582879 0.659419
0.949752 0.652934 0.711482
0.963226 0.711070 0.753262
0.972717 0.761517 0.786496
0.000000 0.166430 0.118593
0.000000 0.157488 0.082979
0.000000 0.153231 0.072190
0.000000 0.153536 0.067445
0.003479 0.152972 0.062959
0.021134 0.152224 0.058549
0.043061 0.151766 0.055192
0.065995 0.151247 0.053071
0.087465 0.150134 0.049500
0.105486 0.154940 0.047166
0.135286 0.164965 0.044511
0.174838 0.175998 0.042618
0.221622 0.186053 0.025605
0.270756 0.193713 0.000000
0.332845 0.207431 0.000000
0.403098 0.217777 0.000000
0.477546 0.224475 0.000000
0.544488 0.226688 0.000000
0.595789 0.222187 0.000000
0.637186 0.209064 0.000000
0.668498 0.187671 0.000000
0.707424 0.190677 0.000000
0.744869 0.189334 0.000687
0.768597 0.202838 0.147173
0.801816 0.250874 0.271077
0.834043 0.309834 0.369635
0.862821 0.371176 0.454429
0.888365 0.437720 0.530663
0.911528 0.509957 0.595758
0.932174 0.584192 0.656184
0.950042 0.653941 0.709285
0.963439 0.711788 0.751949
0.972854 0.762036 0.785611
0.000000 0.198215 0.142473
0.000000 0.189853 0.103151
0.000000 0.185946 0.084917
0.000000 0.184421 0.077546
0.000000 0.185748 0.072664
0.002029 0.186328 0.066407
0.011917 0.186587 0.060487
0.038407 0.187121 0.055970
0.067765 0.187106 0.050553
0.092744 0.186969 0.043397
0.128603 0.194827 0.034775
0.176303 0.207721 0.026108
0.230808 0.221256 0.019852
0.285435 0.235050 0.002625
0.341024 0.242725 0.000000
0.413016 0.255833 0.000000
0.490532 0.265400 0.000000
0.561715 0.270848 0.000000
0.617243 0.270726 0.000000
0.662165 0.263111 0.000000
0.697124 0.248402 0.000000
0.718639 0.224735 0.000000
0.755673 0.225498 0.000000
0.772274 0.217975 0.063111
0.802426 0.253483 0.226337
0.834592 0.311147 0.344167
0.863569 0.373175 0.438270
0.889052 0.439673 0.520088
0.912093 0.511742 0.589227
0.932692 0.585931 0.651743
0.950393 0.655161 0.706493
0.963653 0.712474 0.750103
0.972992 0.762554 0.784451
0.000000 0.234394 0.169741
0.000000 0.227512 0.134768
0.000000 0.224155 0.113176
0.000000 0.220768 0.092699
0.000000 0.219165 0.082109
0.000015 0.221576 0.077760
0.000015 0.223163 0.072145
0.004959 0.224704 0.066545
0.018494 0.226108 0.058335
0.064134 0.227756 0.045747
0.109545 0.228382 0.027100
0.165408 0.240787 0.008225
0.232166 0.257160 0.005295
0.295445 0.274464 0.000046
0.358480 0.291600 0.000000
0.427573 0.301274 0.000000
0.501610 0.307561 0.000000
0.577569 0.316060 0.000000
0.637888 0.319310 0.000000
0.686580 0.315984 0.000000
0.725292 0.306233 0.000000
0.751019 0.290166 0.000000
0.763134 0.265370 0.000000
0.793210 0.260243 0.000000
0.806531 0.266361 0.158648
0.835142 0.311940 0.303548
0.864393 0.375204 0.414389
0.889891 0.441993 0.505135
0.912840 0.513893 0.579980
0.933333 0.588098 0.645762
0.950881 0.656748 0.702632
0.963958 0.713527 0.747814
0.973220 0.763424 0.783017
0.000000 0.277455 0.204669
0.000000 0.272770 0.170275
0.000000 0.269734 0.153231
0.000000 0.267063 0.136324
0.000000 0.264454 0.118334
0.000000 0.261723 0.098634
0.000000 0.261601 0.086778
0.000000 0.264469 0.080003
0.000031 0.267659 0.070176
0.008652 0.271214 0.057267
0.053986 0.274723 0.039399
0.133074 0.278538 0.005341
0.216876 0.296178 0.000992
0.294469 0.317113 0.000015
0.366049 0.337545 0.000000
0.438544 0.354589 0.000000
0.521157 0.366445 0.000000
0.591592 0.367605 0.000000
0.655924 0.372534 0.000000
0.709026 0.372656 0.000000
0.751583 0.366308 0.000000
0.781704 0.354665 0.000000
0.803006 0.338918 0.000000
0.816022 0.316060 0.000000
0.816999 0.287572 0.000961
0.839460 0.321813 0.242023
0.865354 0.377081 0.377142
0.891005 0.444816 0.483040
0.913802 0.516716 0.566934
0.934127 0.590539 0.637186
0.951431 0.658473 0.697414
0.964385 0.714931 0.744656
0.973495 0.764462 0.781064
0.000000 0.326421 0.249622
0.000000 0.324193 0.215793
0.000000 0.322499 0.199039
0.000000 0.320638 0.183963
0.000000 0.318669 0.170565
0.000000 0.316793 0.157366
0.000000 0.314641 0.142733
0.000000 0.312505 0.126192
0.000000 0.309636 0.102632
0.000046 0.315694 0.085847
0.000076 0.322454 0.059083
0.050294 0.329976 0.019242
0.168383 0.338216 0.000046
0.273320 0.362570 0.000015
0.360098 0.387411 0.000000
0.441413 0.407691 0.000717
0.523812 0.423362 0.000046
0.613809 0.439521 0.000000
0.682841 0.444800 0.000000
0.734493 0.441901 0.000000
0.779156 0.436469 0.000000
0.816327 0.431357 0.000000
0.842405 0.421241 0.000000
0.855940 0.399878 0.000000
0.856580 0.365866 0.000000
0.844327 0.333181 0.087816
0.868925 0.384649 0.319112
0.892348 0.447349 0.447150
0.915038 0.519982 0.547799
0.935149 0.593393 0.624750
0.952224 0.661006 0.690440
0.964920 0.716670 0.740536
0.973877 0.765850 0.778378
0.000000 0.378729 0.300847
0.000000 0.378515 0.271305
0.000000 0.377935 0.256214
0.000000 0.377356 0.243091
0.000000 0.376623 0.230320
0.000000 0.375784 0.217807
0.000000 0.374716 0.206851
0.000000 0.373419 0.195377
0.000000 0.371466 0.179904
0.000000 0.368917 0.158511
0.000000 0.365469 0.122210
0.000000 0.377142 0.093507
0.036561 0.389013 0.027756
0.219654 0.404120 0.000000
0.334066 0.435187 0.000000
0.431266 0.460761 0.000153
0.522606 0.479255 0.000809
0.610178 0.495109 0.000122
0.698146 0.515282 0.000000
0.761578 0.520882 0.000000
0.812512 0.519371 0.000000
0.850431 0.514305 0.000000
0.876036 0.505547 0.000000
0.890776 0.488930 0.000000
0.892546 0.458808 0.000000
0.880537 0.412573 0.000031
0.875105 0.396429 0.203540
0.895491 0.454261 0.390646
0.916793 0.523171 0.514870
0.936400 0.596521 0.606531
0.953185 0.663645 0.678828
0.965621 0.718898 0.734829
0.974350 0.767575 0.774853
0.000000 0.430838 0.355215
0.000000 0.432456 0.331701
0.000000 0.432990 0.319585
0.000000 0.432990 0.308949
0.000000 0.432853 0.299092
0.000000 0.432517 0.289540
0.000000 0.432609 0.280369
0.000000 0.432334 0.271138
0.000000 0.432013 0.259464
0.000000 0.431296 0.242893
0.000000 0.429496 0.217884
0.000000 0.425803 0.180819
0.000534 0.431083 0.137667
0.082460 0.446860 0.072236
0.265888 0.467796 0.003967
0.397528 0.502739 0.000000
0.506447 0.527962 0.000259
0.606912 0.547570 0.004532
0.688090 0.562356 0.000015
0.766903 0.579355 0.000015
0.829252 0.587503 0.000000
0.875441 0.588556 0.000000
0.903136 0.582361 0.000000
0.918105 0.568627 0.000000
0.922454 0.547158 0.000000
0.916945 0.516472 0.000000
0.902434 0.473091 0.078630
0.902831 0.469474 0.289158
0.919783 0.527916 0.458640
0.938109 0.599664 0.577768
0.954360 0.666514 0.661952
0.966506 0.721340 0.725399
0.974975 0.769802 0.770092
0.000000 0.480812 0.408637
0.000000 0.485054 0.390875
0.000000 0.486427 0.382101
0.000000 0.487556 0.374578
0.000000 0.488441 0.367651
0.000000 0.488884 0.361105
0.000000 0.489296 0.354910
0.000000 0.489616 0.348684
0.000000 0.489738 0.340856
0.000000 0.490089 0.329809
0.000000 0.490196 0.313664
0.000000 0.489555 0.288701
0.000000 0.487388 0.249271
0.000000 0.482582 0.182559
0.082399 0.502998 0.125780
0.320439 0.526024 0.024277
0.463401 0.562600 0.000000
0.585367 0.589548 0.012940
0.683055 0.609400 0.017365
0.753048 0.621866 0.047974
0.824369 0.633646 0.000015
0.879957 0.640192 0.000000
0.915358 0.640040 0.000000
0.934752 0.632380 0.000000
0.943725 0.619348 0.000000
0.943816 0.600565 0.004868
0.936507 0.575738 0.059892
0.930083 0.548730 0.218631
0.928206 0.545922 0.365835
0.940703 0.602228 0.525582
0.955947 0.669322 0.635004
0.967620 0.724178 0.710872
0.975723 0.772213 0.762585
0.000000 0.531807 0.461921
0.000000 0.537820 0.448844
0.000000 0.540017 0.442634
0.000000 0.541543 0.437476
0.000000 0.542855 0.432715
0.000000 0.544076 0.428443
0.000000 0.545037 0.424201
0.000000 0.545830 0.420050
0.000000 0.546700 0.414771
0.000000 0.547768 0.407660
0.000000 0.548806 0.397711
0.000000 0.549844 0.383276
0.000000 0.550195 0.360281
0.000015 0.548898 0.322698
0.002762 0.543420 0.252079
0.164523 0.561791 0.180529
0.376287 0.586114 0.071183
0.534707 0.622690 0.035843
0.660761 0.651301 0.068208
0.745357 0.667735 0.079957
0.810620 0.679561 0.115602
0.870848 0.684489 0.013184
0.915679 0.689952 0.004028
0.941955 0.688014 0.002411
0.955306 0.679484 0.006439
0.959686 0.666392 0.015168
0.960052 0.653941 0.128786
0.958999 0.642054 0.235828
0.953902 0.622232 0.314015
0.949310 0.619364 0.437995
0.958267 0.671031 0.587991
0.969116 0.727092 0.686931
0.976699 0.774929 0.750790
0.000000 0.582544 0.516915
0.000000 0.589090 0.506996
0.000000 0.591531 0.502403
0.000000 0.593378 0.498726
0.000000 0.594827 0.495293
0.000000 0.596063 0.492332
0.000000 0.597131 0.489342
0.000000 0.598184 0.486503
0.000000 0.599298 0.482719
0.000000 0.600488 0.477562
0.000000 0.602060 0.470710
0.000000 0.603815 0.461204
0.000000 0.605829 0.447501
0.000000 0.607431 0.426383
0.000000 0.607675 0.392081
0.000000 0.603693 0.327565
0.208148 0.619364 0.242115
0.439780 0.646662 0.145357
0.612314 0.683772 0.139193
0.726467 0.709941 0.148333
0.803754 0.726177 0.206088
0.861723 0.735866 0.228397
0.907103 0.733577 0.132631
0.939635 0.734401 0.076081
0.959106 0.731762 0.069978
0.969451 0.725338 0.101442
0.974960 0.720287 0.174090
0.977874 0.716091 0.269245
0.976928 0.707103 0.335317
0.971160 0.688487 0.397467
0.965789 0.684627 0.507652
0.971359 0.729473 0.643320
0.978042 0.777981 0.731182
0.000000 0.630030 0.571267
0.000000 0.635935 0.563668
0.000000 0.638239 0.560204
0.000000 0.639918 0.557336
0.000000 0.641276 0.554910
0.000000 0.642496 0.552651
0.000000 0.643519 0.550515
0.000000 0.644480 0.548547
0.000000 0.645594 0.546090
0.000000 0.646967 0.542763
0.000000 0.648676 0.537987
0.000000 0.650584 0.531212
0.000015 0.652888 0.521706
0.000061 0.655467 0.507942
0.000137 0.658274 0.488106
0.000336 0.660273 0.455329
0.039536 0.659586 0.397421
0.297642 0.673198 0.310658
0.512047 0.702037 0.230777
0.685557 0.739834 0.238148
0.784360 0.761791 0.257359
0.855100 0.776272 0.291569
0.902632 0.785122 0.314611
0.937957 0.781994 0.262150
0.961257 0.778897 0.212360
0.976928 0.777981 0.217166
0.986130 0.777325 0.265965
0.990188 0.776074 0.309239
0.991379 0.773434 0.361761
0.989425 0.766796 0.417319
0.983673 0.749142 0.472175
0.977890 0.742382 0.571084
0.980072 0.780392 0.692988
0.000000 0.672190 0.620020
0.000000 0.677180 0.614328
0.000000 0.679088 0.611612
0.000000 0.680461 0.609537
0.000000 0.681666 0.607645
0.000000 0.682734 0.606043
0.000000 0.683680 0.604471
0.000000 0.684443 0.603037
0.000000 0.685466 0.601297
0.000000 0.686732 0.598917
0.000000 0.688319 0.595911
0.000000 0.690394 0.591791
0.000000 0.692973 0.586069
0.000000 0.695949 0.577310
0.000000 0.699474 0.564584
0.000000 0.703243 0.545830
0.050278 0.707088 0.516075
0.157198 0.709758 0.464363
0.364309 0.720012 0.378927
0.588830 0.750301 0.309545
0.745113 0.785046 0.319265
0.835187 0.803281 0.340215
0.895582 0.815656 0.368688
0.932357 0.823148 0.390188
0.960372 0.820050 0.350851
0.979629 0.818540 0.333394
0.991150 0.818921 0.339025
0.996674 0.819501 0.362417
0.998337 0.819501 0.399359
0.998520 0.819013 0.443809
0.997467 0.815976 0.492561
0.992569 0.801266 0.541115
0.985611 0.792172 0.625605
0.000000 0.709102 0.662821
0.000000 0.713390 0.658473
0.000000 0.715206 0.656535
0.000015 0.716579 0.655039
0.000015 0.717678 0.653681
0.000015 0.718730 0.652476
0.000015 0.719600 0.651408
0.000015 0.720424 0.650355
0.000015 0.721355 0.649134
0.000015 0.722622 0.647486
0.000015 0.724102 0.645197
0.000015 0.726101 0.642298
0.000015 0.728496 0.638483
0.000076 0.731472 0.633249
0.003372 0.735042 0.625498
0.019165 0.739071 0.614466
0.061128 0.743908 0.598489
0.161868 0.749264 0.574121
0.287770 0.753704 0.529686
0.441459 0.760479 0.443992
0.659861 0.791608 0.383444
0.797040 0.820890 0.394949
0.877455 0.836164 0.414115
0.925109 0.846677 0.440070
0.953796 0.852461 0.460365
0.976623 0.850416 0.429587
0.991150 0.849912 0.418509
0.998108 0.850263 0.424735
0.999847 0.850690 0.445121
0.999985 0.851621 0.478141
0.999969 0.852674 0.518395
0.999832 0.851621 0.561151
0.997009 0.841047 0.602075
0.000000 0.745418 0.703136
0.000000 0.749142 0.699855
0.000000 0.750607 0.698314
0.000000 0.751720 0.697139
0.000000 0.752667 0.696254
0.000000 0.753475 0.695369
0.000000 0.754238 0.694499
0.000000 0.754833 0.693782
0.000000 0.755688 0.692912
0.000000 0.756710 0.691600
0.000000 0.758007 0.690135
0.000000 0.759609 0.687968
0.000000 0.761685 0.685328
0.000000 0.764309 0.681682
0.000000 0.767437 0.676722
0.041581 0.771466 0.670771
0.120226 0.776333 0.662440
0.220264 0.781979 0.649897
0.325383 0.788052 0.629831
0.406424 0.792782 0.592065
0.521828 0.796918 0.507439
0.720211 0.826444 0.453666
0.843671 0.850401 0.465629
0.910033 0.863371 0.484154
0.946899 0.871687 0.508339
0.969894 0.876768 0.528130
0.987854 0.875334 0.502388
0.997391 0.874800 0.494301
0.999893 0.874418 0.500694
1.000000 0.875212 0.520180
1.000000 0.876982 0.550393
1.000000 0.878309 0.585153
1.000000 0.877577 0.620295
0.000000 0.779324 0.737087
0.000000 0.782345 0.734798
0.000000 0.783536 0.733837
0.006622 0.784466 0.733211
0.015152 0.785168 0.732754
0.023697 0.785885 0.732296
0.031327 0.786511 0.731929
0.038025 0.787030 0.731548
0.045701 0.787655 0.731075
0.056291 0.788525 0.730541
0.069825 0.789593 0.729778
0.087358 0.790997 0.728771
0.109926 0.792767 0.727459
0.137728 0.794919 0.725765
0.174990 0.797772 0.723415
0.221363 0.801175 0.720165
0.272190 0.805402 0.716152
0.320638 0.810300 0.709911
