luts/apple-log/33x/Apple_LOG_to_Fujifilm_3513DI_D65_Rec709_G2-4.cube
TITLE "Apple LOG to Fujifilm 3513DI D65 Rec709 G2-4"
#  
# Apple LOG to Rec.709 Hybrid LUT
#  
# This hybrid LUT converts Apple LOG to Rec.709 Gamma 2.4
#  
# Based on an original creative LUT included in DaVinci Resolve, adapted for a different color space.  
#  
# Created by Tobia Montanari | tobiamontanari.com
#  
#  
# 
LUT_3D_SIZE 9
0.029648 0.037140 0.037064
0.073320 0.046372 0.043046
0.150530 0.057527 0.044495
0.274739 0.062394 0.020401
0.466819 0.010910 0.098695
0.668345 0.061357 0.239994
0.815595 0.267582 0.473152
0.908171 0.533837 0.741085
0.972854 0.805768 0.917662
0.029191 0.042741 0.039078
0.029648 0.037140 0.037064
0.060441 0.054780 0.043931
0.198642 0.084810 0.032456
0.412772 0.114122 0.000000
0.659373 0.100053 0.081361
0.817945 0.278294 0.426322
0.909331 0.538445 0.730022
0.973190 0.807187 0.916442
0.000000 0.104463 0.063386
0.005112 0.080690 0.046876
0.058930 0.088075 0.046677
0.188602 0.117693 0.028855
0.406546 0.134051 0.000000
0.669566 0.166278 0.000031
0.819013 0.281880 0.400107
0.909834 0.540322 0.724422
0.973327 0.807813 0.915877
0.000000 0.208377 0.143664
0.000076 0.176577 0.052644
0.049104 0.171267 0.043610
0.224308 0.215228 0.000046
0.448203 0.243458 0.000000
0.629282 0.211124 0.000000
0.821424 0.286870 0.323934
0.910933 0.544396 0.711818
0.973617 0.809003 0.914305
0.000000 0.385183 0.332158
0.000000 0.364889 0.226505
0.000000 0.343038 0.118822
0.163531 0.363272 0.000000
0.521691 0.444633 0.000015
0.714290 0.420264 0.000000
0.858122 0.383062 0.000000
0.914000 0.552651 0.663783
0.974441 0.812177 0.909407
0.000000 0.593194 0.602426
0.000000 0.604059 0.568109
0.000000 0.608392 0.547692
0.000000 0.612085 0.485069
0.385504 0.620600 0.184360
0.791638 0.696895 0.272648
0.941756 0.675288 0.085954
0.953933 0.645563 0.432883
0.976577 0.819226 0.889189
0.000000 0.768597 0.815595
0.000000 0.776562 0.806760
0.000000 0.779767 0.802258
0.000000 0.785962 0.791928
0.000168 0.797833 0.751659
0.633799 0.824231 0.534813
0.940658 0.881117 0.614221
0.997574 0.884382 0.619394
0.993942 0.880568 0.774395
0.333761 0.872786 0.909010
0.369116 0.876051 0.909636
0.380652 0.877394 0.909804
0.399451 0.880079 0.910124
0.450004 0.887251 0.910689
0.558282 0.903136 0.906844
0.837171 0.931441 0.805493
0.990372 0.967742 0.872236
1.000000 0.970520 0.885161
0.717906 0.946166 0.964416
0.722301 0.946975 0.964782
0.724376 0.947356 0.964950
0.728267 0.948074 0.965270
0.738354 0.949935 0.966125
0.764874 0.954787 0.968215
0.822782 0.965408 0.971984
0.950835 0.984436 0.958312
1.000000 0.996475 0.980529
0.029328 0.037262 0.039292
0.065263 0.041993 0.074067
0.143145 0.047364 0.117403
0.273869 0.032212 0.147555
0.468528 0.000320 0.205844
0.664179 0.020829 0.318486
0.812634 0.256641 0.508644
0.907195 0.529870 0.750179
0.972610 0.804715 0.918868
0.029007 0.041428 0.040391
0.028558 0.040840 0.039816
0.082380 0.052118 0.045667
0.232629 0.067577 0.036605
0.447330 0.039677 0.092899
0.659943 0.083906 0.241927
0.811425 0.272458 0.475517
0.907471 0.537221 0.736773
0.972930 0.806149 0.917693
0.000000 0.108293 0.105135
0.005734 0.089857 0.061214
0.058412 0.090713 0.052367
0.220335 0.109448 0.024060
0.428209 0.089816 0.002962
0.657189 0.102636 0.178407
0.812716 0.278250 0.453264
0.908058 0.539501 0.731187
0.973068 0.806775 0.917144
0.000000 0.225040 0.225116
0.000000 0.200222 0.144740
0.000007 0.182093 0.076166
0.230138 0.224391 0.032631
0.489140 0.246840 0.001170
0.660656 0.182225 0.025500
0.814939 0.286958 0.400344
0.909131 0.543499 0.720053
0.973373 0.808026 0.915984
0.000000 0.394369 0.398581
0.000000 0.388361 0.341473
0.000000 0.381070 0.292337
0.000972 0.364847 0.118100
0.515965 0.447176 0.074445
0.756403 0.447156 0.046011
0.839909 0.366779 0.172819
0.912096 0.552773 0.678099
0.974182 0.811246 0.911406
0.000000 0.592065 0.630106
0.000000 0.603162 0.602674
0.000000 0.607828 0.585314
0.000000 0.615040 0.541415
0.259665 0.619488 0.281670
0.783888 0.698678 0.312495
0.931597 0.690094 0.293609
0.945668 0.645016 0.495806
0.976379 0.818860 0.892897
0.000000 0.765988 0.822461
0.000251 0.770730 0.808255
0.003820 0.774618 0.803689
0.016044 0.781060 0.794754
0.089397 0.794585 0.761966
0.596735 0.819591 0.556420
0.935929 0.878552 0.621722
0.993715 0.883613 0.646591
0.993255 0.882002 0.789609
0.322072 0.871778 0.909148
0.318959 0.873922 0.908170
0.331865 0.875422 0.907948
0.355276 0.878082 0.907958
0.415654 0.884984 0.907671
0.541319 0.900706 0.903207
0.823714 0.929003 0.805670
0.988791 0.965572 0.866941
1.000000 0.971557 0.891264
0.716320 0.945891 0.964324
0.720714 0.946700 0.964691
0.722774 0.947082 0.964858
0.726818 0.947829 0.965194
0.737133 0.949722 0.966079
0.763653 0.954574 0.968200
0.821942 0.965286 0.972076
0.949706 0.984344 0.958846
1.000000 0.996506 0.980713
0.019364 0.038697 0.100114
0.068925 0.044236 0.103197
0.145342 0.047394 0.148547
0.277928 0.024598 0.186069
0.472145 0.000183 0.245975
0.664302 0.014786 0.345693
0.811292 0.251286 0.521752
0.906798 0.528206 0.754009
0.972503 0.804257 0.919356
0.011109 0.055894 0.058152
0.020264 0.043141 0.081412
0.082623 0.053071 0.095333
0.239994 0.065992 0.120346
0.453237 0.032252 0.166849
0.660192 0.074906 0.288384
0.809957 0.267375 0.493909
0.906979 0.535376 0.741753
0.972824 0.805692 0.918242
0.000000 0.112367 0.128511
0.002757 0.097051 0.105311
0.043378 0.098223 0.100855
0.247611 0.106886 0.090612
0.440618 0.059234 0.096866
0.658888 0.093433 0.242473
0.811329 0.273847 0.475054
0.907554 0.537724 0.736690
0.972930 0.806134 0.917647
0.000000 0.229618 0.253635
0.000000 0.211538 0.202787
0.000000 0.199425 0.152706
0.230666 0.229948 0.080517
0.503688 0.238793 0.069481
0.659737 0.142463 0.099575
0.813687 0.283828 0.430425
0.908637 0.541856 0.726399
0.973251 0.807568 0.916518
0.000000 0.397757 0.422171
0.000000 0.393398 0.378971
0.000000 0.389802 0.344242
0.000000 0.368059 0.195522
0.513717 0.448803 0.111516
0.755150 0.443049 0.126001
0.837276 0.360700 0.251740
0.911618 0.551732 0.688021
0.974075 0.810834 0.912200
0.000000 0.591287 0.641077
0.000000 0.602872 0.617845
0.000000 0.608148 0.603664
0.000000 0.617073 0.567171
0.165465 0.617351 0.321572
0.782915 0.701093 0.330622
0.930058 0.695769 0.357844
0.943913 0.645487 0.524863
0.976272 0.818616 0.894408
0.000000 0.764767 0.825223
0.000000 0.769665 0.812227
0.002599 0.773702 0.808102
0.013601 0.780379 0.799610
0.084362 0.794605 0.769497
0.576467 0.818886 0.569402
0.935520 0.879435 0.627366
0.992991 0.886102 0.662984
0.992996 0.882704 0.796063
0.316625 0.871305 0.909209
0.314873 0.873428 0.908537
0.326687 0.874957 0.908366
0.350552 0.877657 0.908402
0.411309 0.884594 0.908161
0.538418 0.900474 0.904223
0.819419 0.928849 0.808711
0.988739 0.965772 0.868155
1.000000 0.971954 0.893675
0.715526 0.945754 0.964263
0.720180 0.946609 0.964660
0.722240 0.946990 0.964828
0.726329 0.947738 0.965179
0.736416 0.949599 0.966033
0.763165 0.954498 0.968185
0.821530 0.965225 0.972122
0.949126 0.984298 0.959121
1.000000 0.996521 0.980774
0.000000 0.009735 0.206119
0.091325 0.000000 0.203662
0.160174 0.016953 0.217594
0.285267 0.019272 0.254139
0.478386 0.000015 0.309773
0.667628 0.020706 0.395163
0.812207 0.253773 0.550423
0.905852 0.524300 0.761639
0.972244 0.803189 0.920470
0.000000 0.074205 0.181659
0.000521 0.021315 0.190304
0.083014 0.035547 0.199776
0.245143 0.054741 0.223967
0.460895 0.024130 0.266641
0.663420 0.076972 0.358039
0.810493 0.268710 0.527482
0.906023 0.531775 0.749905
0.972564 0.804623 0.919341
0.000000 0.150332 0.237125
0.000000 0.116396 0.235225
0.001417 0.099002 0.239077
0.249895 0.108846 0.237854
0.452388 0.051096 0.233019
0.662986 0.094870 0.329646
0.811648 0.274959 0.512474
0.906618 0.534244 0.745307
0.972717 0.805264 0.918837
0.000000 0.237308 0.306386
0.000000 0.227212 0.291169
0.000000 0.222268 0.282770
0.206799 0.258510 0.280402
0.521428 0.240214 0.252601
0.668683 0.144735 0.260853
0.813665 0.285018 0.478737
0.907724 0.538686 0.736553
0.973007 0.806516 0.917678
0.000000 0.406073 0.466026
0.000000 0.406851 0.443244
0.000000 0.406811 0.424925
0.000000 0.405239 0.359265
0.512300 0.468723 0.248698
0.758692 0.451935 0.286315
0.833210 0.351822 0.348747
0.910714 0.549454 0.703614
0.973846 0.810056 0.913985
0.000000 0.592004 0.662699
0.000000 0.603801 0.643037
0.000000 0.609737 0.632573
0.000000 0.620661 0.606524
0.034024 0.619184 0.414969
0.780882 0.705562 0.362683
0.927321 0.703868 0.435725
0.941103 0.644895 0.567692
0.976043 0.817990 0.897642
0.000000 0.762097 0.830884
0.000000 0.767427 0.818428
0.000000 0.771735 0.814869
0.008788 0.778856 0.807629
0.071533 0.794120 0.780863
0.533318 0.816463 0.591272
0.934844 0.880961 0.636832
0.992064 0.890123 0.688841
0.992432 0.883619 0.808133
0.304860 0.870283 0.909331
0.307273 0.872531 0.909014
0.318853 0.874072 0.908870
0.342504 0.876834 0.908975
0.404366 0.883877 0.908866
0.533618 0.900026 0.905781
0.811373 0.928425 0.813713
0.988634 0.966101 0.870144
1.000000 0.972824 0.898833
0.714199 0.945510 0.964202
0.718593 0.946334 0.964569
0.720653 0.946715 0.964752
0.724788 0.947478 0.965087
0.735195 0.949386 0.965972
0.761944 0.954284 0.968154
0.820691 0.965087 0.972168
0.947997 0.984207 0.959609
1.000000 0.996536 0.980896
0.000000 0.000000 0.365591
0.098192 0.000000 0.341604
0.187289 0.000000 0.353353
0.304814 0.000000 0.371771
0.489677 0.000473 0.418723
0.674693 0.036408 0.488060
0.815061 0.262257 0.607340
0.906981 0.529366 0.783780
0.971649 0.800626 0.923354
0.000000 0.042817 0.366262
0.000000 0.000014 0.356725
0.048217 0.000010 0.344610
0.252281 0.001731 0.373734
0.469695 0.011151 0.407602
0.669458 0.079779 0.471314
0.813299 0.276419 0.594493
0.906993 0.536353 0.773319
0.971923 0.801892 0.922286
0.000000 0.163470 0.417044
0.000000 0.095374 0.400315
0.000003 0.037779 0.378485
0.229004 0.090023 0.402559
0.459710 0.024635 0.400627
0.668776 0.095940 0.460136
0.814347 0.282821 0.586240
0.907495 0.538616 0.770057
0.972076 0.802533 0.921828
0.000000 0.283925 0.472511
0.000000 0.262901 0.471002
0.000000 0.234645 0.454517
0.101533 0.268170 0.479576
0.515418 0.248108 0.467833
0.673087 0.142321 0.440128
0.816237 0.293919 0.568897
0.908470 0.542804 0.763821
0.972351 0.803800 0.920760
0.000000 0.426535 0.554086
0.000000 0.429464 0.550396
0.000000 0.431371 0.548746
0.000000 0.437720 0.544091
0.480098 0.508990 0.532094
0.760262 0.459404 0.504502
0.833902 0.367232 0.520634
0.911111 0.553550 0.741505
0.973190 0.807462 0.917800
0.000000 0.607172 0.712505
0.000000 0.619877 0.700126
0.000000 0.626105 0.695301
0.000000 0.638225 0.683638
0.005873 0.657938 0.616237
0.771293 0.732218 0.524339
0.922845 0.719978 0.581072
0.935444 0.639663 0.653222
0.975464 0.816327 0.904768
0.000000 0.760571 0.845792
0.000000 0.765862 0.833497
0.000000 0.770438 0.830939
0.005163 0.778007 0.825705
0.055690 0.794756 0.806958
0.395780 0.813450 0.669944
0.933140 0.885415 0.663554
0.990217 0.898597 0.744313
0.991119 0.884916 0.835431
0.271733 0.867430 0.909514
0.285742 0.869959 0.910216
0.297617 0.871558 0.910106
0.319907 0.874456 0.910214
0.383153 0.881771 0.910626
0.519975 0.898653 0.909171
0.785985 0.926519 0.826485
0.988381 0.966925 0.875154
1.000000 0.974960 0.911727
0.710201 0.944823 0.963973
0.714855 0.945678 0.964370
0.716670 0.946014 0.964523
0.721050 0.946822 0.964889
0.731807 0.948806 0.965805
0.758785 0.953750 0.968063
0.818433 0.964721 0.972229
0.944732 0.983932 0.961013
1.000000 0.996597 0.981247
0.000000 0.000000 0.515511
0.008499 0.000000 0.469444
0.163348 0.000000 0.474662
0.308522 0.000000 0.501457
0.501396 0.000000 0.546685
0.684138 0.051072 0.606363
0.821836 0.283543 0.693111
0.909377 0.540795 0.822400
0.972045 0.804379 0.932403
0.000000 0.031067 0.532815
0.000000 0.000012 0.512150
0.000036 0.000000 0.484628
0.228931 0.000342 0.517086
0.477421 0.004323 0.554536
0.679191 0.098446 0.604573
0.819443 0.294265 0.688127
0.909518 0.547633 0.814905
0.972335 0.805722 0.931792
0.000000 0.164416 0.575204
0.000000 0.055197 0.542545
0.000000 0.009549 0.526316
0.161729 0.050368 0.537494
0.462391 0.017162 0.559033
0.677626 0.108985 0.603350
0.820279 0.300257 0.686156
0.910023 0.550003 0.813553
0.972473 0.806394 0.931533
0.000000 0.306920 0.631937
0.000000 0.274506 0.620966
0.000000 0.248980 0.613503
0.002384 0.248022 0.615932
0.486478 0.260938 0.628441
0.676334 0.135331 0.602960
0.821808 0.310743 0.682104
0.910979 0.554418 0.811242
0.972717 0.807553 0.930892
0.000000 0.470649 0.698100
0.000000 0.455748 0.691296
0.000000 0.450063 0.690645
0.000000 0.436271 0.689036
0.410378 0.523739 0.714431
0.751478 0.475887 0.704908
0.836428 0.381243 0.682487
0.913531 0.566054 0.802799
0.973419 0.810819 0.929061
0.000000 0.641917 0.786252
0.000000 0.650489 0.780953
0.000000 0.655158 0.780668
0.000000 0.664076 0.779687
0.000037 0.684087 0.773046
0.741498 0.770803 0.776979
0.918617 0.733694 0.768593
0.935510 0.658481 0.787255
0.975448 0.819593 0.921172
0.000000 0.774624 0.871519
0.002036 0.778636 0.861506
0.004406 0.782523 0.860349
0.013282 0.789066 0.857818
0.063683 0.804361 0.849688
0.317294 0.834712 0.816007
0.926657 0.908402 0.791953
0.987396 0.913301 0.841717
0.988022 0.882216 0.885756
0.237537 0.865049 0.912123
0.263968 0.867831 0.914070
0.275641 0.869454 0.914097
0.297729 0.872375 0.914421
0.358548 0.879883 0.915329
0.499102 0.897320 0.917147
0.714811 0.922479 0.869978
0.987716 0.969294 0.889340
1.000000 0.979049 0.936660
0.698787 0.942809 0.963302
0.703441 0.943664 0.963699
0.705516 0.944045 0.963867
0.709895 0.944854 0.964248
0.721782 0.947051 0.965255
0.749798 0.952209 0.967651
0.812222 0.963699 0.972396
0.934676 0.982788 0.963592
1.000000 0.996765 0.982132
0.000000 0.022324 0.627771
0.000000 0.000031 0.607721
0.000000 0.001373 0.606271
0.251499 0.000000 0.601068
0.492775 0.000015 0.648585
0.689372 0.036255 0.701320
0.832853 0.332815 0.778088
0.914214 0.564706 0.866163
0.973129 0.812924 0.947768
0.000000 0.133440 0.653620
0.000000 0.051820 0.629192
0.000000 0.021269 0.614616
0.012109 0.020179 0.605529
0.456455 0.039173 0.661248
0.684499 0.111235 0.707198
0.829942 0.339373 0.777230
0.914460 0.570937 0.863233
0.973404 0.814343 0.947616
0.000000 0.216098 0.680827
0.000000 0.119085 0.650241
0.000000 0.073165 0.635258
0.000000 0.004988 0.608113
0.432381 0.071126 0.667865
0.682446 0.134656 0.710587
0.830164 0.342696 0.777542
0.914902 0.573080 0.863264
0.973510 0.814862 0.947540
0.000000 0.344579 0.732357
0.000000 0.307222 0.715534
0.000000 0.281341 0.705877
0.000000 0.202987 0.677339
0.416047 0.270012 0.718973
0.679467 0.177206 0.717762
0.830638 0.348675 0.778141
0.915708 0.576920 0.863364
0.973754 0.816083 0.947341
0.000000 0.497154 0.789670
0.000000 0.479205 0.780936
0.000000 0.472085 0.778936
0.000000 0.457428 0.774383
0.217775 0.522254 0.794815
0.729332 0.502386 0.809849
0.838292 0.393259 0.788215
0.917939 0.587498 0.863398
0.974411 0.819409 0.946792
0.000000 0.600366 0.828794
0.000000 0.594476 0.823565
0.000000 0.593471 0.823458
0.000000 0.591747 0.823324
0.000000 0.653900 0.854607
0.696228 0.782527 0.885705
0.914007 0.749076 0.890438
0.936868 0.673184 0.878406
0.976074 0.828077 0.944778
0.000000 0.802045 0.896284
0.030014 0.804015 0.891961
0.034850 0.806297 0.891737
0.051636 0.810381 0.891407
0.108434 0.820898 0.891003
0.289703 0.845278 0.892602
0.913052 0.931128 0.931484
0.984602 0.922616 0.935493
0.986816 0.892226 0.944366
0.336645 0.875547 0.923201
0.320373 0.877387 0.924029
0.331833 0.878750 0.924322
0.351280 0.881180 0.924987
0.402240 0.887566 0.926830
0.518174 0.902804 0.931826
0.699184 0.931395 0.934963
0.985431 0.979158 0.946680
0.999863 0.984161 0.968154
0.687984 0.941085 0.963302
0.692882 0.942000 0.963745
0.694942 0.942382 0.963928
0.699336 0.943206 0.964324
0.710933 0.945357 0.965362
0.740291 0.950805 0.967971
0.804120 0.962600 0.973373
0.904005 0.979339 0.971252
1.000000 0.997238 0.984771
0.000000 0.306371 0.745235
0.000000 0.261448 0.728069
0.000000 0.236393 0.718639
0.000000 0.154116 0.701991
0.389593 0.134463 0.720455
0.687999 0.184833 0.767987
0.837171 0.361105 0.827375
0.926558 0.621851 0.906645
0.975937 0.830732 0.963256
0.000000 0.342351 0.760235
0.000000 0.303663 0.743640
0.000000 0.278099 0.735034
0.000000 0.222705 0.716777
0.296062 0.190896 0.724892
0.679204 0.232471 0.776493
0.835660 0.374417 0.829784
0.925073 0.621912 0.904775
0.976120 0.831876 0.963348
0.000000 0.356176 0.766140
0.000000 0.323764 0.751292
0.000000 0.303994 0.743743
0.000000 0.257269 0.727470
0.190822 0.213111 0.722433
0.675056 0.255583 0.781028
0.836393 0.381793 0.831632
0.925278 0.623070 0.905011
0.976165 0.832197 0.963363
0.000000 0.421256 0.789776
0.000000 0.392462 0.776913
0.000000 0.376959 0.771210
0.000000 0.343389 0.758694
0.000071 0.236784 0.736231
0.665536 0.290907 0.788747
0.837800 0.394948 0.835057
0.925683 0.625249 0.905455
0.976318 0.833173 0.963455
0.000000 0.529885 0.827695
0.000000 0.514061 0.821860
0.000000 0.507868 0.819732
0.000000 0.496389 0.815827
0.000000 0.451202 0.808601
0.674110 0.526552 0.853856
0.840765 0.429953 0.844129
0.926765 0.631100 0.906649
0.976715 0.835767 0.963653
0.000000 0.610101 0.855650
0.000000 0.604169 0.852360
0.000000 0.603137 0.852050
0.000000 0.601356 0.851518
0.000000 0.595516 0.849763
0.582205 0.777713 0.913061
0.904416 0.769897 0.934552
0.938123 0.685856 0.919878
0.977829 0.842908 0.964187
0.000000 0.644663 0.867445
0.000000 0.641040 0.864217
0.000000 0.640959 0.864203
0.000000 0.640838 0.864190
0.000000 0.640435 0.864120
0.017897 0.806526 0.914697
0.892237 0.934993 0.968465
0.982489 0.928077 0.974789
0.986389 0.898894 0.972351
0.487922 0.898314 0.940291
0.461886 0.898300 0.939864
0.469678 0.899141 0.940256
0.481407 0.900603 0.940956
0.511494 0.904540 0.942831
0.576065 0.914336 0.947561
0.695689 0.935246 0.957780
0.981759 0.985567 0.986279
0.998917 0.986725 0.989624
0.720928 0.947707 0.968185
0.724544 0.948379 0.968521
0.726177 0.948684 0.968688
0.729442 0.949294 0.968994
0.738293 0.950942 0.969848
0.761852 0.955322 0.972107
0.813977 0.965164 0.977157
0.899443 0.980972 0.984009
1.000000 0.999039 0.994446
0.000000 0.515969 0.829709
0.000000 0.504646 0.825940
0.000000 0.499260 0.824125
0.000000 0.487587 0.820233
0.000000 0.445640 0.805447
0.595132 0.407263 0.829969
0.849165 0.474510 0.873960
0.934203 0.661082 0.928481
0.981201 0.865812 0.976150
0.000000 0.526314 0.833265
0.000000 0.516136 0.829770
0.000000 0.511086 0.828077
0.000000 0.500298 0.824475
0.000000 0.463401 0.811765
0.555611 0.425864 0.831678
0.849897 0.489433 0.877897
0.935180 0.666117 0.929732
0.981277 0.866316 0.976242
0.000000 0.529809 0.834806
0.000000 0.521019 0.831388
0.000000 0.516136 0.829770
0.000000 0.505516 0.826215
0.000000 0.470909 0.814435
0.532326 0.433433 0.831861
0.849912 0.495872 0.879561
0.935637 0.668406 0.930327
0.981323 0.866651 0.976303
0.000000 0.537102 0.838026
0.000000 0.529549 0.834684
0.000000 0.526040 0.833143
0.000000 0.516304 0.829816
0.000000 0.485145 0.819394
0.468727 0.447822 0.830655
0.849821 0.509728 0.882902
0.936553 0.673198 0.931517
0.981399 0.867155 0.976394
0.000000 0.577935 0.852461
0.000000 0.573022 0.851301
0.000000 0.570672 0.850736
0.000000 0.565667 0.849546
0.000000 0.546975 0.842435
0.146319 0.541344 0.842985
0.848447 0.546227 0.891493
0.939025 0.686061 0.934768
0.981628 0.868666 0.976654
0.000000 0.622278 0.864805
0.000000 0.621134 0.864363
0.000000 0.620584 0.864149
0.000000 0.619318 0.863767
0.000000 0.615290 0.862791
0.000000 0.667811 0.897765
0.881926 0.793606 0.953231
0.945510 0.720607 0.943465
0.982254 0.872663 0.977371
0.000000 0.644022 0.869505
0.000000 0.643961 0.869520
0.000000 0.643946 0.869520
0.000000 0.643885 0.869535
0.000000 0.643732 0.869566
0.000000 0.643229 0.869657
0.838758 0.933654 0.974624
0.982605 0.942306 0.988190
0.987320 0.906615 0.983185
0.000000 0.650813 0.874327
0.000000 0.650767 0.874296
0.000000 0.650752 0.874296
0.000000 0.650721 0.874266
0.000000 0.650629 0.874205
0.000000 0.650355 0.874022
0.504723 0.902464 0.946731
0.977966 0.987305 0.994461
0.998581 0.987808 0.996887
0.790539 0.960998 0.976516
0.792477 0.961364 0.976715
0.793256 0.961517 0.976806
0.794797 0.961822 0.976959
0.799466 0.962707 0.977447
0.811887 0.965072 0.978744
0.841016 0.970687 0.981842
0.897978 0.981460 0.987915
0.999985 1.000000 0.999969
