luts/apple-log/33x/Apple_LOG_to_Fujifilm_3513DI_D60_Rec709_G2-4.cube
TITLE "Apple LOG to Fujifilm 3513DI D60 Rec709 G2-4"
#  
# Apple LOG to Rec.709 Hybrid LUT
#  
# This hybrid LUT converts Apple LOG to Rec.709 Gamma 2.4
#  
# Based on an original creative LUT included in DaVinci Resolve, adapted for a different color space.  
#  
# Created by Tobia Montanari | tobiamontanari.com
#  
#  
# 
LUT_3D_SIZE 9
0.030533 0.036622 0.035416
0.072740 0.045396 0.040848
0.149020 0.056214 0.041321
0.272023 0.060853 0.015274
0.461784 0.004837 0.090333
0.661021 0.056748 0.225864
0.807050 0.260685 0.447562
0.901076 0.522484 0.701823
0.969131 0.789075 0.868650
0.030106 0.042054 0.037262
0.030533 0.036622 0.035416
0.060731 0.053757 0.041596
0.196597 0.082780 0.026520
0.409171 0.112688 0.000000
0.652216 0.095064 0.068742
0.809369 0.271199 0.402731
0.902235 0.526970 0.691234
0.969482 0.790463 0.867475
0.000000 0.102281 0.059815
0.009598 0.078981 0.043427
0.060075 0.086275 0.043641
0.187182 0.115221 0.023133
0.403052 0.132143 0.000000
0.663691 0.164416 0.000000
0.810407 0.274708 0.377600
0.902754 0.528817 0.685893
0.969635 0.791089 0.866941
0.000000 0.203845 0.135348
0.000504 0.172702 0.046754
0.057786 0.167712 0.037736
0.224399 0.211704 0.000046
0.444678 0.239094 0.000000
0.623590 0.207889 0.000000
0.812711 0.279469 0.304402
0.903868 0.532784 0.673838
0.969940 0.792248 0.865446
0.000000 0.378088 0.315190
0.000000 0.356588 0.212116
0.000000 0.335470 0.107759
0.175631 0.356954 0.000000
0.520241 0.437064 0.000046
0.708446 0.412253 0.000000
0.850889 0.376562 0.000000
0.906783 0.540795 0.627955
0.970794 0.795346 0.860746
0.000000 0.580728 0.569635
0.000000 0.591745 0.537148
0.000000 0.595651 0.517266
0.000000 0.598795 0.456947
0.393240 0.607797 0.164324
0.788373 0.681987 0.248447
0.936919 0.662974 0.072267
0.946838 0.631495 0.405341
0.972961 0.802213 0.841398
0.000000 0.753079 0.770901
0.000061 0.760601 0.762112
0.000076 0.763577 0.757733
0.000076 0.769406 0.747692
0.088060 0.781079 0.709789
0.638972 0.807050 0.502754
0.938323 0.862516 0.577569
0.994385 0.865766 0.582452
0.990707 0.862074 0.731167
0.370306 0.855192 0.860792
0.397391 0.858366 0.861341
0.407111 0.859678 0.861494
0.424445 0.862287 0.861769
0.471061 0.869291 0.862211
0.572274 0.884779 0.858366
0.839490 0.912123 0.760876
0.989395 0.947585 0.824094
1.000000 0.950637 0.836759
0.725689 0.926863 0.912795
0.729900 0.927657 0.913130
0.731884 0.928023 0.913298
0.735637 0.928725 0.913603
0.745403 0.930541 0.914397
0.771084 0.935271 0.916320
0.827298 0.945632 0.919753
0.951690 0.964096 0.906325
1.000000 0.975906 0.927413
0.030121 0.036759 0.037522
0.065049 0.041260 0.070359
0.141772 0.046433 0.111391
0.270878 0.030366 0.139666
0.463661 0.000259 0.195117
0.656916 0.017777 0.301350
0.804135 0.249943 0.481468
0.900099 0.518624 0.710506
0.968872 0.788037 0.869810
0.029877 0.040803 0.038529
0.030001 0.040215 0.037942
0.081817 0.051025 0.043144
0.230199 0.065773 0.032132
0.442430 0.034043 0.084350
0.652644 0.078289 0.227570
0.803020 0.265290 0.449761
0.900545 0.525811 0.697675
0.969207 0.789441 0.868681
0.000000 0.106615 0.100099
0.007387 0.088031 0.057681
0.060171 0.088901 0.049209
0.218565 0.107364 0.020150
0.424486 0.088887 0.002062
0.649892 0.095796 0.164760
0.804279 0.270968 0.428449
0.901123 0.528021 0.692332
0.969360 0.790066 0.868147
0.000000 0.220356 0.212634
0.000000 0.195866 0.136068
0.000007 0.178193 0.070719
0.230042 0.220161 0.026129
0.485495 0.242770 0.000732
0.654497 0.179029 0.018197
0.806439 0.279505 0.377710
0.902193 0.531901 0.681694
0.969665 0.791287 0.867033
0.000000 0.387823 0.378500
0.000000 0.380102 0.322287
0.000000 0.372522 0.275025
0.002207 0.356881 0.103972
0.514134 0.438414 0.060170
0.750903 0.438814 0.033443
0.832069 0.358847 0.157166
0.905096 0.540897 0.641601
0.970520 0.794446 0.862654
0.000000 0.579950 0.596017
0.000000 0.590892 0.569772
0.000000 0.595371 0.553172
0.000008 0.601806 0.510680
0.280847 0.606599 0.261031
0.780887 0.683782 0.286685
0.925787 0.675524 0.262374
0.938891 0.631013 0.465936
0.972747 0.801862 0.844938
0.000000 0.750546 0.777615
0.000353 0.754686 0.763324
0.005122 0.758382 0.758948
0.020966 0.764614 0.750520
0.116537 0.777979 0.719770
0.603466 0.802562 0.523615
0.933688 0.860029 0.584721
0.990755 0.865083 0.608513
0.990158 0.863508 0.745724
0.361395 0.854200 0.860960
0.346912 0.856109 0.859437
0.360730 0.857596 0.859295
0.384068 0.860227 0.859378
0.443278 0.867040 0.859264
0.557692 0.882406 0.854909
0.826418 0.909753 0.761088
0.987827 0.945456 0.819026
1.000000 0.951644 0.842588
0.724147 0.926589 0.912718
0.728374 0.927382 0.913054
0.730358 0.927749 0.913222
0.734234 0.928481 0.913527
0.744228 0.930327 0.914351
0.769909 0.935073 0.916304
0.826490 0.945510 0.919844
0.950576 0.964019 0.906844
1.000000 0.975937 0.927581
0.023179 0.038483 0.095155
0.068757 0.043778 0.098039
0.144030 0.046983 0.141009
0.274907 0.023316 0.176349
0.467201 0.000122 0.233494
0.657191 0.012665 0.327520
0.802808 0.244709 0.493996
0.899687 0.516991 0.714168
0.968750 0.787594 0.870283
0.016175 0.054978 0.055314
0.021761 0.042661 0.077328
0.082312 0.052189 0.090510
0.237425 0.064096 0.113758
0.448278 0.028041 0.157241
0.652962 0.070949 0.272348
0.801585 0.260324 0.467346
0.900054 0.524020 0.702427
0.969100 0.789014 0.869215
0.000000 0.110491 0.121981
0.003793 0.095306 0.099721
0.046444 0.096318 0.095527
0.245167 0.104384 0.084696
0.435698 0.053149 0.088253
0.651581 0.087436 0.228024
0.802930 0.266667 0.449314
0.900630 0.526295 0.697588
0.969207 0.789441 0.868635
0.000000 0.225071 0.239872
0.000000 0.207101 0.191547
0.000000 0.195317 0.143955
0.230406 0.225110 0.071629
0.499204 0.233840 0.059675
0.652713 0.136973 0.086897
0.805225 0.276431 0.406590
0.901710 0.530317 0.687756
0.969558 0.790845 0.867567
0.000000 0.391531 0.401160
0.000000 0.385541 0.358451
0.000000 0.381118 0.324425
0.000000 0.359960 0.182528
0.511788 0.439640 0.095691
0.749082 0.433823 0.106720
0.828835 0.351929 0.231942
0.904641 0.539891 0.651077
0.970397 0.794034 0.863416
0.000000 0.579309 0.606409
0.000000 0.590673 0.584366
0.000000 0.595699 0.570550
0.000002 0.603969 0.535368
0.184025 0.604327 0.300204
0.780011 0.686154 0.304963
0.924117 0.680713 0.329998
0.937202 0.631500 0.494024
0.972656 0.801617 0.846372
0.000000 0.749310 0.780240
0.000010 0.753706 0.767157
0.003511 0.757541 0.763143
0.017933 0.763965 0.755099
0.108534 0.778008 0.726902
0.584210 0.801902 0.536176
0.933316 0.860900 0.590161
0.990053 0.867513 0.624275
0.989944 0.864210 0.751904
0.357244 0.853742 0.861021
0.342706 0.855624 0.859778
0.355279 0.857131 0.859668
0.379229 0.859804 0.859778
0.439172 0.866653 0.859719
0.555111 0.882177 0.855884
0.822275 0.909609 0.764009
0.987783 0.945651 0.820186
1.000000 0.952041 0.844877
0.723400 0.926452 0.912673
0.727855 0.927291 0.913039
0.729839 0.927657 0.913191
0.733761 0.928405 0.913512
0.743526 0.930205 0.914305
0.769436 0.934997 0.916289
0.826078 0.945449 0.919890
0.950011 0.963973 0.907103
1.000000 0.975952 0.927642
0.000244 0.015946 0.195209
0.091646 0.000092 0.193454
0.158968 0.017975 0.206577
0.282414 0.018875 0.241230
0.473289 0.000015 0.294041
0.660563 0.019226 0.374823
0.803800 0.247257 0.521324
0.898756 0.513191 0.721447
0.968490 0.786557 0.871351
0.000000 0.073609 0.171923
0.001668 0.025696 0.180358
0.083477 0.036043 0.189721
0.242730 0.053645 0.212482
0.455948 0.020900 0.252691
0.656204 0.072865 0.338944
0.802196 0.261774 0.499382
0.899100 0.520517 0.710216
0.968826 0.787961 0.870268
0.000000 0.145312 0.222889
0.000002 0.115153 0.222899
0.003471 0.098806 0.226732
0.247798 0.106671 0.225579
0.447422 0.046821 0.220454
0.655729 0.090420 0.311679
0.803330 0.267875 0.485037
0.899696 0.522918 0.705825
0.968978 0.788586 0.869780
0.000000 0.232502 0.290181
0.000000 0.223026 0.275731
0.000000 0.217956 0.267448
0.208903 0.253264 0.265515
0.516347 0.234634 0.238008
0.661285 0.138023 0.245380
0.805298 0.277702 0.452784
0.900803 0.527243 0.697454
0.969284 0.789807 0.868666
0.000000 0.399725 0.443275
0.000000 0.399378 0.420172
0.000000 0.398125 0.401363
0.000000 0.396631 0.339133
0.510709 0.458762 0.231359
0.752260 0.441888 0.266531
0.824820 0.343292 0.327559
0.903771 0.537692 0.665977
0.970169 0.793271 0.865125
0.000000 0.579995 0.626810
0.000000 0.591758 0.608482
0.000000 0.597292 0.598199
0.000000 0.607679 0.572769
0.050896 0.605843 0.389843
0.778159 0.690549 0.336700
0.921628 0.688698 0.407162
0.934529 0.630972 0.535205
0.972412 0.801022 0.849485
0.000000 0.746578 0.785519
0.000003 0.751593 0.773239
0.000010 0.755715 0.769650
0.011839 0.762525 0.762671
0.090501 0.777537 0.737662
0.543464 0.799574 0.557314
0.932716 0.862403 0.599268
0.989131 0.871433 0.649054
0.989471 0.865141 0.763455
0.348302 0.852750 0.861143
0.335129 0.854739 0.860215
0.347383 0.856263 0.860121
0.371311 0.858985 0.860300
0.432770 0.865955 0.860382
0.550752 0.881746 0.857377
0.814506 0.909209 0.768816
0.987691 0.945978 0.822088
1.000000 0.952880 0.849790
0.722118 0.926223 0.912612
0.726329 0.927016 0.912947
0.728313 0.927382 0.913115
0.732280 0.928130 0.913436
0.742351 0.930007 0.914260
0.768261 0.934798 0.916274
0.825269 0.945327 0.919936
0.948913 0.963882 0.907576
1.000000 0.975967 0.927764
0.000000 0.000000 0.345632
0.102449 0.000000 0.324620
0.187396 0.000000 0.335882
0.302510 0.000000 0.353567
0.484627 0.000443 0.397711
0.667536 0.034791 0.463020
0.806790 0.255970 0.575525
0.900008 0.518212 0.742535
0.967849 0.784039 0.874113
0.000000 0.063020 0.349325
0.000000 0.000098 0.337177
0.059246 0.000020 0.327128
0.250456 0.001872 0.354854
0.464883 0.010663 0.386911
0.662333 0.076661 0.446871
0.805176 0.269690 0.563239
0.900184 0.525053 0.732513
0.968154 0.785275 0.873091
0.000000 0.167178 0.396811
0.000000 0.105436 0.381589
0.000008 0.046986 0.358974
0.228261 0.090126 0.382184
0.455007 0.023816 0.380194
0.661650 0.092212 0.436145
0.806217 0.275942 0.555362
0.900691 0.527259 0.729391
0.968307 0.785916 0.872648
0.000000 0.277714 0.445502
0.000000 0.259965 0.446326
0.000000 0.232910 0.431459
0.110899 0.263603 0.454695
0.511033 0.242942 0.443512
0.665931 0.137175 0.416924
0.808097 0.286761 0.538793
0.901676 0.531346 0.723430
0.968612 0.787152 0.871626
0.000000 0.418051 0.523537
0.000000 0.422592 0.522389
0.000000 0.424146 0.520492
0.000000 0.428539 0.514243
0.480970 0.498539 0.503585
0.754242 0.449473 0.476807
0.825901 0.358716 0.492407
0.904322 0.541812 0.702103
0.969482 0.790738 0.868772
0.000000 0.595621 0.674846
0.000000 0.607679 0.662462
0.000000 0.613691 0.657710
0.000000 0.625013 0.646116
0.016090 0.644000 0.581659
0.769660 0.716794 0.493356
0.917776 0.704626 0.547446
0.929098 0.625983 0.617229
0.971847 0.799405 0.856291
0.000000 0.744656 0.798840
0.000000 0.750142 0.787733
0.000000 0.754543 0.785178
0.007275 0.761895 0.779997
0.069596 0.778146 0.762361
0.415978 0.796731 0.632832
0.931211 0.866792 0.624935
0.987433 0.879723 0.702164
0.988220 0.866423 0.789548
0.323262 0.849958 0.861372
0.313512 0.852215 0.861304
0.326172 0.853795 0.861250
0.348787 0.856646 0.861411
0.412326 0.863874 0.862004
0.538503 0.880415 0.860638
0.790000 0.907380 0.781091
0.987479 0.946788 0.826876
1.000000 0.954955 0.862074
0.718303 0.925536 0.912398
0.722759 0.926375 0.912764
0.724498 0.926696 0.912902
0.728695 0.927489 0.913252
0.739071 0.929427 0.914092
0.765194 0.934264 0.916182
0.823072 0.944961 0.919997
0.945739 0.963607 0.908934
1.000000 0.976028 0.928084
0.000000 0.000046 0.487480
0.051667 0.000000 0.445609
0.167361 0.000000 0.451545
0.308049 0.000000 0.476997
0.496880 0.000000 0.519326
0.677134 0.049287 0.575280
0.813840 0.277241 0.657145
0.902678 0.529564 0.779278
0.968353 0.787732 0.882719
0.000000 0.051103 0.505974
0.000000 0.000015 0.484233
0.000459 0.000000 0.458351
0.230033 0.000358 0.491206
0.473237 0.004903 0.526772
0.672299 0.096059 0.573571
0.811609 0.287768 0.652367
0.902941 0.536204 0.772085
0.968643 0.789044 0.882139
0.000000 0.172793 0.547539
0.000000 0.081422 0.516370
0.000000 0.019993 0.498256
0.168041 0.051072 0.510313
0.458298 0.018355 0.530775
0.670765 0.106350 0.572368
0.812460 0.293621 0.650475
0.903460 0.538518 0.770791
0.968795 0.789715 0.881895
0.000000 0.307744 0.601953
0.000000 0.274773 0.589841
0.000000 0.250394 0.582874
0.006461 0.248186 0.584310
0.483463 0.256296 0.596312
0.669552 0.132196 0.571944
0.814021 0.303863 0.646586
0.904451 0.542833 0.768565
0.969055 0.790829 0.881270
0.000000 0.461646 0.660471
0.000000 0.449166 0.655773
0.000000 0.443683 0.655277
0.000000 0.429899 0.653540
0.415986 0.513405 0.677329
0.746399 0.466068 0.667950
0.828931 0.372973 0.646725
0.907069 0.554201 0.760471
0.969802 0.794034 0.879499
0.000000 0.629404 0.743877
0.000000 0.638063 0.739118
0.000000 0.642647 0.738781
0.000003 0.651182 0.737637
0.000098 0.669857 0.730466
0.742368 0.754916 0.735080
0.914370 0.718335 0.726931
0.929819 0.644661 0.745149
0.971939 0.802640 0.871931
0.000000 0.758648 0.823545
0.003252 0.762732 0.814216
0.007019 0.766457 0.813074
0.020863 0.772761 0.810719
0.083248 0.787757 0.803182
0.355766 0.817667 0.772028
0.925755 0.889445 0.747904
0.985234 0.894230 0.795329
0.985306 0.863844 0.837674
0.298070 0.847654 0.863890
0.292173 0.850104 0.864905
0.304704 0.851718 0.864988
0.327196 0.854607 0.865371
0.388881 0.862019 0.866436
0.520443 0.879128 0.868265
0.721676 0.903543 0.822812
0.986920 0.949126 0.840430
1.000000 0.958923 0.885801
0.707362 0.923568 0.911772
0.711818 0.924407 0.912154
0.713802 0.924788 0.912306
0.718013 0.925582 0.912657
0.729412 0.927718 0.913603
0.756512 0.932754 0.915816
0.817044 0.943984 0.920180
0.936019 0.962493 0.911391
1.000000 0.976181 0.928939
0.000000 0.031968 0.594797
0.000000 0.000015 0.574578
0.012085 0.005829 0.572839
0.253635 0.000000 0.571237
0.488899 0.000031 0.616098
0.682521 0.036576 0.665583
0.825330 0.326070 0.737896
0.907851 0.553109 0.820874
0.969665 0.796124 0.897337
0.000000 0.156497 0.624002
0.000000 0.064332 0.597267
0.000000 0.033156 0.582635
0.032405 0.027631 0.573151
0.453225 0.039921 0.627856
0.677963 0.110138 0.671137
0.822529 0.332416 0.737045
0.908214 0.559140 0.818023
0.969955 0.797498 0.897169
0.000000 0.226108 0.649912
0.000000 0.135442 0.618446
0.000000 0.084542 0.603177
0.000000 0.010719 0.575368
0.429675 0.072619 0.634051
0.676009 0.133069 0.674298
0.822775 0.335670 0.737335
0.908671 0.561239 0.818051
0.970062 0.798016 0.897093
0.000000 0.343160 0.695644
0.000000 0.310163 0.680176
0.000000 0.286051 0.671529
0.000000 0.214725 0.645121
0.415435 0.265900 0.682412
0.673220 0.174580 0.681051
0.823284 0.341531 0.737891
0.909512 0.565002 0.818126
0.970321 0.799207 0.896895
0.000000 0.491279 0.750393
0.000000 0.473391 0.741395
0.000000 0.466723 0.739549
0.000000 0.452981 0.735373
0.235593 0.512281 0.753453
0.725475 0.492332 0.767810
0.831220 0.385206 0.747350
0.911827 0.575350 0.818112
0.971023 0.802457 0.896345
0.000000 0.588586 0.784237
0.000000 0.584427 0.781250
0.000000 0.583471 0.781086
0.000000 0.581801 0.780808
0.000000 0.641762 0.809228
0.699431 0.766615 0.838799
0.910524 0.733608 0.843126
0.931619 0.659229 0.831990
0.972793 0.810941 0.894392
0.000000 0.785306 0.846494
0.054717 0.787520 0.843322
0.060784 0.789702 0.843080
0.079545 0.793708 0.842839
0.136953 0.804045 0.842644
0.317298 0.828073 0.844760
0.913585 0.911901 0.881159
0.983008 0.903483 0.884896
0.984619 0.873747 0.893568
0.372473 0.857893 0.874311
0.352584 0.859546 0.874605
0.364894 0.860904 0.874939
0.384665 0.863301 0.875639
0.434862 0.869596 0.877519
0.537899 0.884506 0.882212
0.707445 0.912386 0.884827
0.985151 0.958868 0.895181
0.999374 0.963821 0.915663
0.697047 0.921889 0.911803
0.701747 0.922789 0.912215
0.703716 0.923156 0.912383
0.707927 0.923964 0.912749
0.719051 0.926070 0.913710
0.747356 0.931380 0.916136
0.809216 0.942901 0.921126
0.906050 0.959152 0.918822
1.000000 0.976638 0.931441
0.000000 0.308339 0.710216
0.000000 0.265934 0.692805
0.000000 0.243015 0.683864
0.000000 0.168795 0.668147
0.388342 0.137392 0.684001
0.681849 0.182437 0.728786
0.829984 0.353902 0.784710
0.920897 0.609064 0.859144
0.972793 0.813535 0.911971
0.000000 0.342382 0.722896
0.000000 0.305274 0.706618
0.000000 0.284094 0.698926
0.000000 0.236572 0.682441
0.298222 0.190177 0.688233
0.673498 0.228999 0.736809
0.828655 0.366947 0.786954
0.919503 0.609127 0.857360
0.972992 0.814664 0.912062
0.000000 0.355535 0.727672
0.000000 0.323295 0.713346
0.000000 0.305550 0.706696
0.000000 0.265797 0.692226
0.204941 0.211851 0.685893
0.669551 0.251411 0.741102
0.829428 0.374163 0.788693
0.919721 0.610263 0.857574
0.973053 0.814969 0.912077
0.000000 0.412665 0.748470
0.000000 0.389787 0.738031
0.000000 0.374355 0.732318
0.000000 0.341977 0.720346
0.000363 0.243356 0.698536
0.660451 0.285825 0.748401
0.830938 0.387045 0.791919
0.920155 0.612401 0.857994
0.973220 0.815930 0.912139
0.000000 0.523262 0.785519
0.000000 0.507719 0.779829
0.000000 0.501700 0.777888
0.000000 0.490586 0.774246
0.000000 0.446998 0.767720
0.672038 0.516170 0.809686
0.834185 0.421330 0.800459
0.921306 0.618129 0.859103
0.973663 0.818479 0.912337
0.000000 0.600290 0.810117
0.000000 0.594729 0.807828
0.000000 0.593739 0.807587
0.000000 0.592048 0.807144
0.000000 0.586441 0.805561
0.590078 0.762051 0.865027
0.901720 0.754106 0.885086
0.933289 0.671729 0.871440
0.974899 0.825483 0.912795
0.000000 0.631586 0.823514
0.000000 0.629433 0.820861
0.000000 0.629357 0.820844
0.000000 0.629231 0.820820
0.000000 0.628857 0.820728
0.052581 0.790124 0.864815
0.893631 0.915763 0.916472
0.981243 0.908904 0.922389
0.984405 0.880339 0.920241
0.506661 0.880156 0.890349
0.493382 0.880125 0.889943
0.499201 0.880949 0.890308
0.508559 0.882377 0.890955
0.533130 0.886217 0.892697
0.590360 0.895783 0.897086
0.704511 0.916177 0.906564
0.981869 0.965211 0.932977
0.998642 0.966278 0.936095
0.728725 0.928374 0.916381
0.732219 0.929030 0.916701
0.733806 0.929320 0.916854
0.736965 0.929915 0.917144
0.745541 0.931533 0.917937
0.768383 0.935805 0.920027
0.818875 0.945403 0.924697
0.901839 0.960769 0.930968
1.000000 0.978393 0.940642
0.000000 0.510185 0.787442
0.000000 0.499352 0.784253
0.000000 0.494194 0.782742
0.000000 0.483024 0.779477
0.000000 0.442359 0.766445
0.592889 0.399756 0.787457
0.842939 0.465034 0.828733
0.929030 0.647547 0.879774
0.978683 0.847944 0.924086
0.000000 0.520104 0.790463
0.000000 0.510353 0.787488
0.000000 0.505516 0.786053
0.000000 0.495186 0.783017
0.000000 0.459632 0.772061
0.554589 0.418021 0.789090
0.843839 0.479652 0.832441
0.930068 0.652476 0.880964
0.978759 0.848447 0.924163
0.000000 0.523522 0.791867
0.000000 0.515023 0.788846
0.000000 0.510353 0.787472
0.000000 0.500175 0.784482
0.000000 0.466926 0.774441
0.532052 0.425406 0.789258
0.843931 0.485969 0.833997
0.930556 0.654719 0.881498
0.978821 0.848768 0.924224
0.000000 0.530632 0.794797
0.000000 0.523262 0.791760
0.000000 0.519844 0.790341
0.000000 0.510506 0.787518
0.000000 0.480674 0.778759
0.470695 0.439445 0.788128
0.844007 0.499519 0.837140
0.931533 0.659403 0.882628
0.978912 0.849256 0.924300
0.000000 0.569482 0.808942
0.000000 0.564965 0.807614
0.000000 0.562799 0.806973
0.000000 0.558175 0.805600
0.000000 0.540261 0.798810
0.180941 0.531060 0.799390
0.843168 0.535241 0.845182
0.934157 0.672007 0.885649
0.979156 0.850736 0.924544
0.000000 0.611032 0.818235
0.000000 0.609659 0.817517
0.000000 0.609003 0.817166
0.000000 0.607797 0.816785
0.000000 0.604837 0.816541
0.000000 0.654780 0.849805
0.880354 0.777371 0.902831
0.941070 0.705821 0.893767
0.979843 0.854658 0.925200
0.000000 0.633158 0.827863
0.000000 0.633097 0.827878
0.000000 0.633051 0.827878
0.000000 0.632990 0.827893
0.000000 0.632822 0.827939
0.000000 0.632273 0.828061
0.841794 0.914519 0.922454
0.981720 0.922866 0.935073
0.985504 0.887877 0.930510
0.000000 0.636561 0.827604
0.000000 0.636500 0.827573
0.000000 0.636484 0.827558
0.000000 0.636439 0.827527
0.000000 0.636316 0.827451
0.000000 0.635950 0.827222
0.522667 0.884215 0.896452
0.978195 0.966949 0.940795
0.998352 0.967391 0.943038
0.796246 0.941344 0.924147
0.798138 0.941711 0.924331
0.798886 0.941848 0.924407
0.800381 0.942138 0.924559
0.804898 0.943008 0.925017
0.816922 0.945327 0.926223
0.845121 0.950790 0.929091
0.900496 0.961242 0.934691
0.999969 0.979324 0.945891
