luts/apple-log/33x/Apple_LOG_to_Fujifilm_3513DI_D65_Rec709_G2-4.cube
TITLE "Apple LOG to Fujifilm 3513DI D65 Rec709 G2-4"
#  
# Apple LOG to Rec.709 Hybrid LUT
#  
# This hybrid LUT converts Apple LOG to Rec.709 Gamma 2.4
#  
# Based on an original creative LUT included in DaVinci Resolve, adapted for a different color space.  
#  
# Created by Tobia Montanari | tobiamontanari.com
#  
#  
# 
LUT_3D_SIZE 5
0.029648 0.037140 0.037064
0.150530 0.057527 0.044495
0.466819 0.010910 0.098695
0.815595 0.267582 0.473152
0.972854 0.805768 0.917662
0.000000 0.104463 0.063386
0.058930 0.088075 0.046677
0.406546 0.134051 0.000000
0.819013 0.281880 0.400107
0.973327 0.807813 0.915877
0.000000 0.385183 0.332158
0.000000 0.343038 0.118822
0.521691 0.444633 0.000015
0.858122 0.383062 0.000000
0.974441 0.812177 0.909407
0.000000 0.768597 0.815595
0.000000 0.779767 0.802258
0.000168 0.797833 0.751659
0.940658 0.881117 0.614221
0.993942 0.880568 0.774395
0.717906 0.946166 0.964416
0.724376 0.947356 0.964950
0.738354 0.949935 0.966125
0.822782 0.965408 0.971984
1.000000 0.996475 0.980529
0.019364 0.038697 0.100114
0.145342 0.047394 0.148547
0.472145 0.000183 0.245975
0.811292 0.251286 0.521752
0.972503 0.804257 0.919356
0.000000 0.112367 0.128511
0.043378 0.098223 0.100855
0.440618 0.059234 0.096866
0.811329 0.273847 0.475054
0.972930 0.806134 0.917647
0.000000 0.397757 0.422171
0.000000 0.389802 0.344242
0.513717 0.448803 0.111516
0.837276 0.360700 0.251740
0.974075 0.810834 0.912200
0.000000 0.764767 0.825223
0.002599 0.773702 0.808102
0.084362 0.794605 0.769497
0.935520 0.879435 0.627366
0.992996 0.882704 0.796063
0.715526 0.945754 0.964263
0.722240 0.946990 0.964828
0.736416 0.949599 0.966033
0.821530 0.965225 0.972122
1.000000 0.996521 0.980774
0.000000 0.000000 0.365591
0.187289 0.000000 0.353353
0.489677 0.000473 0.418723
0.815061 0.262257 0.607340
0.971649 0.800626 0.923354
0.000000 0.163470 0.417044
0.000003 0.037779 0.378485
0.459710 0.024635 0.400627
0.814347 0.282821 0.586240
0.972076 0.802533 0.921828
0.000000 0.426535 0.554086
0.000000 0.431371 0.548746
0.480098 0.508990 0.532094
0.833902 0.367232 0.520634
0.973190 0.807462 0.917800
0.000000 0.760571 0.845792
0.000000 0.770438 0.830939
0.055690 0.794756 0.806958
0.933140 0.885415 0.663554
0.991119 0.884916 0.835431
0.710201 0.944823 0.963973
0.716670 0.946014 0.964523
0.731807 0.948806 0.965805
0.818433 0.964721 0.972229
1.000000 0.996597 0.981247
0.000000 0.022324 0.627771
0.000000 0.001373 0.606271
0.492775 0.000015 0.648585
0.832853 0.332815 0.778088
0.973129 0.812924 0.947768
0.000000 0.216098 0.680827
0.000000 0.073165 0.635258
0.432381 0.071126 0.667865
0.830164 0.342696 0.777542
0.973510 0.814862 0.947540
0.000000 0.497154 0.789670
0.000000 0.472085 0.778936
0.217775 0.522254 0.794815
0.838292 0.393259 0.788215
0.974411 0.819409 0.946792
0.000000 0.802045 0.896284
0.034850 0.806297 0.891737
0.108434 0.820898 0.891003
0.913052 0.931128 0.931484
0.986816 0.892226 0.944366
0.687984 0.941085 0.963302
0.694942 0.942382 0.963928
0.710933 0.945357 0.965362
0.804120 0.962600 0.973373
1.000000 0.997238 0.984771
0.000000 0.515969 0.829709
0.000000 0.499260 0.824125
0.000000 0.445640 0.805447
0.849165 0.474510 0.873960
0.981201 0.865812 0.976150
0.000000 0.529809 0.834806
0.000000 0.516136 0.829770
0.000000 0.470909 0.814435
0.849912 0.495872 0.879561
0.981323 0.866651 0.976303
0.000000 0.577935 0.852461
0.000000 0.570672 0.850736
0.000000 0.546975 0.842435
0.848447 0.546227 0.891493
0.981628 0.868666 0.976654
0.000000 0.644022 0.869505
0.000000 0.643946 0.869520
0.000000 0.643732 0.869566
0.838758 0.933654 0.974624
0.987320 0.906615 0.983185
0.790539 0.960998 0.976516
0.793256 0.961517 0.976806
0.799466 0.962707 0.977447
0.841016 0.970687 0.981842
0.999985 1.000000 0.999969
