luts/Colorify_CL_iPhone_Old_Wine_LUT.cube
LUT_3D_SIZE 16
0.000000 0.000000 0.000000
0.061413 0.000000 0.000000
0.120877 0.000000 0.000000
0.180001 0.000000 0.000000
0.240703 0.000000 0.000000
0.307379 0.000000 0.000000
0.375796 0.000000 0.000000
0.452066 0.000000 0.000000
0.533035 0.000000 0.000000
0.610764 0.000000 0.000000
0.686297 0.000000 0.000000
0.759495 0.000000 0.000000
0.818391 0.000000 0.000000
0.864770 0.000000 0.000000
0.905651 0.000000 0.000000
0.921707 0.000000 0.000000
0.000000 0.054072 0.000000
0.058363 0.050236 0.000000
0.130194 0.048697 0.000000
0.183810 0.047485 0.000000
0.242729 0.043543 0.000000
0.306763 0.037920 0.000000
0.376437 0.030558 0.000000
0.452248 0.021914 0.000000
0.530912 0.012650 0.000000
0.607548 0.004531 0.000000
0.682842 0.002550 0.000000
0.755556 0.000973 0.000000
0.815005 0.000581 0.000000
0.861972 0.000633 0.000000
0.903333 0.000762 0.000000
0.926237 0.000602 0.000000
0.000000 0.104156 0.000000
0.049388 0.099277 0.000000
0.114831 0.094772 0.000000
0.216135 0.087054 0.000000
0.266158 0.087160 0.000000
0.327862 0.081804 0.000000
0.400116 0.073820 0.000000
0.475050 0.065456 0.000000
0.551771 0.057133 0.000000
0.626923 0.049301 0.000000
0.701327 0.041880 0.000000
0.770473 0.036073 0.000000
0.827024 0.034000 0.000000
0.873025 0.034993 0.000000
0.914258 0.036886 0.000000
0.941216 0.034720 0.000000
0.000000 0.151380 0.000000
0.040652 0.140831 0.000000
0.097014 0.145361 0.000000
0.156819 0.134600 0.000000
0.307955 0.124153 0.000000
0.384395 0.117621 0.000000
0.429306 0.120203 0.000000
0.504693 0.112230 0.000000
0.582813 0.104090 0.000000
0.657671 0.097492 0.000000
0.731214 0.091762 0.000000
0.796197 0.088784 0.000000
0.848844 0.089558 0.000000
0.893814 0.092836 0.000000
0.935519 0.096137 0.000000
0.965302 0.093489 0.000000
0.000000 0.196456 0.000000
0.033211 0.190353 0.000000
0.085280 0.186736 0.000000
0.147057 0.198546 0.000000
0.204505 0.179469 0.000000
0.400188 0.168336 0.000000
0.519579 0.150414 0.000000
0.563722 0.155782 0.000000
0.611886 0.159867 0.000000
0.690128 0.154145 0.000000
0.765085 0.149400 0.000000
0.826557 0.149085 0.000000
0.876285 0.152573 0.000000
0.921142 0.157887 0.000000
0.964194 0.162766 0.000000
0.996323 0.159956 0.000000
0.000000 0.241503 0.000000
0.021361 0.237815 0.000000
0.074065 0.234209 0.000000
0.133563 0.246027 0.000000
0.201283 0.257335 0.000000
0.275206 0.237308 0.000000
0.487810 0.223528 0.000000
0.637221 0.201985 0.000000
0.717198 0.198430 0.000000
0.747346 0.212236 0.000000
0.794870 0.219176 0.000000
0.853348 0.221334 0.000000
0.905089 0.226321 0.000000
0.952616 0.232564 0.000000
0.993905 0.238050 0.000000
1.011534 0.234816 0.000000
0.000000 0.297279 0.000000
0.008989 0.295996 0.000000
0.064102 0.295993 0.000000
0.121096 0.299497 0.000000
0.191800 0.319875 0.000000
0.265540 0.326045 0.000000
0.352363 0.304889 0.000000
0.580352 0.293247 0.000000
0.748275 0.271244 0.000000
0.839777 0.266401 0.000000
0.876982 0.278758 0.000000
0.896786 0.297640 0.000000
0.932522 0.310910 0.000000
0.980809 0.318129 0.000000
1.000032 0.322464 0.000000
1.011571 0.317262 0.000000
0.000000 0.361863 0.000000
0.003742 0.361475 0.000000
0.053486 0.364630 0.000000
0.112732 0.368743 0.000000
0.181035 0.384335 0.000000
0.264439 0.406780 0.000000
0.345910 0.409543 0.000000
0.445687 0.391460 0.000000
0.673465 0.378380 0.000000
0.843841 0.358370 0.000000
0.928643 0.356327 0.000000
0.978795 0.364918 0.000000
0.992326 0.383977 0.000000
1.000034 0.402426 0.000000
1.000020 0.411939 0.000000
1.011571 0.406068 0.000000
0.000000 0.438620 0.000000
0.001577 0.442707 0.000000
0.048026 0.453029 0.000000
0.112167 0.462208 0.000000
0.180914 0.470763 0.000000
0.260968 0.486055 0.000000
0.353804 0.505093 0.000000
0.443341 0.507641 0.000000
0.559027 0.497786 0.000000
0.769588 0.478154 0.000000
0.921652 0.459264 0.000000
0.995116 0.455619 0.000000
1.000020 0.457916 0.000000
1.000020 0.469113 0.000000
1.000020 0.485849 0.000000
1.011571 0.487975 0.000000
0.000000 0.523027 0.000000
0.000948 0.527402 0.000000
0.047576 0.540051 0.000000
0.115574 0.556050 0.000000
0.190339 0.573862 0.000000
0.271529 0.586982 0.000000
0.360795 0.598425 0.000000
0.452593 0.604627 0.000000
0.544723 0.606561 0.000000
0.664321 0.599273 0.000000
0.851015 0.578000 0.000000
0.985264 0.560882 0.000000
1.000020 0.552484 0.000000
1.000020 0.549153 0.000000
1.000020 0.551765 0.000000
1.011571 0.549753 0.000000
0.000000 0.612793 0.000000
0.002333 0.616821 0.000000
0.053681 0.629956 0.000000
0.122490 0.645584 0.000000
0.197249 0.662987 0.000000
0.280143 0.679177 0.000000
0.366778 0.687377 0.000000
0.459454 0.694924 0.000000
0.551312 0.698427 0.000000
0.642690 0.698921 0.000000
0.761718 0.691801 0.000000
0.916419 0.674794 0.000000
1.000020 0.656307 0.000000
1.000020 0.643438 0.000000
1.000020 0.634860 0.000000
1.011571 0.622052 0.000000
0.000000 0.705133 0.000000
0.004687 0.708830 0.000000
0.063053 0.721438 0.000000
0.131243 0.736067 0.000000
0.204780 0.751661 0.000000
0.286367 0.767134 0.000341
0.372942 0.776064 0.001186
0.463079 0.780655 0.002712
0.554926 0.784240 0.001404
0.642938 0.785298 0.000604
0.733056 0.785060 0.000000
0.844217 0.779890 0.000000
0.970947 0.768183 0.000000
1.000020 0.747640 0.000000
1.000020 0.729756 0.000000
1.011571 0.710618 0.000000
0.000000 0.796160 0.000000
0.014432 0.798478 0.000000
0.078405 0.809231 0.000000
0.145280 0.821727 0.000645
0.217090 0.834679 0.002842
0.296877 0.847049 0.008741
0.383936 0.856968 0.012882
0.472428 0.860003 0.015138
0.563643 0.862868 0.015947
0.653039 0.865264 0.013201
0.737817 0.865487 0.008759
0.824538 0.864736 0.003699
0.915592 0.863067 0.000719
0.996133 0.852817 0.000000
1.000020 0.829527 0.000000
1.011571 0.802787 0.000000
0.005076 0.885962 0.004190
0.049011 0.887887 0.004236
0.108018 0.894960 0.009238
0.170889 0.902816 0.016024
0.239545 0.911170 0.022519
0.316840 0.920591 0.028436
0.404108 0.930424 0.033317
0.493405 0.934749 0.035738
0.581542 0.935100 0.036627
0.668671 0.935399 0.035097
0.752738 0.934767 0.030417
0.831918 0.932676 0.023637
0.902851 0.931737 0.018012
0.976131 0.930863 0.005572
1.000020 0.917879 0.000000
1.011571 0.893098 0.000000
0.040002 0.964866 0.026812
0.089299 0.967462 0.030987
0.145732 0.973067 0.036950
0.207267 0.978781 0.043410
0.274456 0.984013 0.049162
0.347795 0.988421 0.053559
0.428003 0.991383 0.056266
0.514511 0.994148 0.057276
0.599251 0.992952 0.056107
0.682320 0.990828 0.053727
0.762409 0.988336 0.048398
0.839047 0.985160 0.040335
0.903863 0.983524 0.033073
0.960211 0.982896 0.027623
1.000020 0.980607 0.008445
1.011571 0.965343 0.040442
0.052647 0.999825 0.032615
0.107279 1.000020 0.040196
0.164687 1.000020 0.048002
0.225664 1.000020 0.055097
0.290987 1.000020 0.060741
0.361592 1.000020 0.064397
0.437624 1.000020 0.065893
0.518013 1.000020 0.065240
0.599079 1.000020 0.062845
0.679429 1.000020 0.061883
0.757557 1.000020 0.066663
0.833305 1.000020 0.068001
0.897446 1.000020 0.055856
0.949009 1.000020 0.036582
0.995196 1.000020 0.026864
1.011571 1.000020 0.180005
0.000000 0.001706 0.041199
0.060439 0.000182 0.046740
0.118582 0.000000 0.048495
0.176243 0.000000 0.047695
0.237601 0.000000 0.045229
0.302448 0.000000 0.040632
0.366813 0.000000 0.034704
0.444334 0.000000 0.027677
0.526017 0.000000 0.019728
0.603536 0.000000 0.011699
0.679884 0.000000 0.005124
0.754327 0.000000 0.003115
0.815029 0.000000 0.002101
0.862569 0.000000 0.001702
0.904348 0.000000 0.001210
0.920592 0.000000 0.000844
0.000000 0.052657 0.041461
0.047754 0.052361 0.038505
0.112809 0.047067 0.032084
0.165479 0.045345 0.033727
0.224536 0.041949 0.031550
0.285910 0.036271 0.027057
0.351894 0.029086 0.021579
0.430036 0.020812 0.014855
0.511240 0.011607 0.007327
0.588198 0.003372 0.002605
0.664957 0.001827 0.001539
0.740493 0.000913 0.000629
0.803949 0.000615 0.000000
0.853733 0.000621 0.000000
0.898238 0.000413 0.000000
0.929824 0.000000 0.000000
0.000000 0.104432 0.039164
0.046459 0.098356 0.034149
0.110966 0.089725 0.021966
0.183591 0.090656 0.011374
0.235120 0.089070 0.013762
0.294164 0.083569 0.016040
0.363913 0.077070 0.012738
0.440655 0.069180 0.007115
0.519684 0.060713 0.003017
0.596542 0.052422 0.001968
0.673655 0.044933 0.001019
0.748179 0.038285 0.000371
0.810565 0.035139 0.000000
0.860340 0.035761 0.000000
0.903279 0.036641 0.000313
0.941068 0.010045 0.000000
0.000000 0.153795 0.033801
0.040378 0.147586 0.029097
0.088596 0.134779 0.024815
0.152020 0.130118 0.016495
0.273388 0.128669 0.002600
0.325095 0.130524 0.001476
0.394893 0.124391 0.002074
0.470386 0.116995 0.002222
0.547534 0.109788 0.001625
0.624183 0.103406 0.001041
0.699519 0.097398 0.000585
0.770682 0.092985 0.000150
0.829450 0.092145 0.000000
0.877898 0.094833 0.000468
0.920633 0.098379 0.000830
0.961612 0.081263 0.000124
0.000000 0.198147 0.025766
0.031380 0.193421 0.022046
0.084075 0.186309 0.020534
0.138150 0.186312 0.019287
0.203781 0.179052 0.012306
0.377382 0.170077 0.001077
0.454263 0.166907 0.000000
0.502816 0.170993 0.000000
0.582492 0.164721 0.000124
0.659911 0.159526 0.000000
0.735116 0.155688 0.000000
0.802112 0.154364 0.000000
0.857423 0.157167 0.000000
0.904544 0.162272 0.000834
0.947897 0.167245 0.001794
0.987463 0.157439 0.000185
0.000000 0.245422 0.016874
0.020407 0.239983 0.014282
0.074080 0.236333 0.013616
0.127710 0.234974 0.013607
0.194822 0.248750 0.013728
0.274725 0.236245 0.005942
0.473997 0.224344 0.000000
0.596695 0.211697 0.000000
0.642165 0.220722 0.000000
0.696028 0.226383 0.000000
0.770658 0.224490 0.000000
0.835877 0.225369 0.000000
0.888833 0.230792 0.000000
0.935876 0.237801 0.000779
0.980166 0.243831 0.002300
1.010575 0.235970 0.000821
0.000000 0.301788 0.007774
0.009061 0.297486 0.006403
0.064013 0.296964 0.006403
0.120177 0.296747 0.008098
0.185941 0.309266 0.009853
0.261483 0.320760 0.010136
0.352404 0.304991 0.003237
0.574062 0.293942 0.000000
0.721265 0.278189 0.000000
0.794360 0.280798 0.000000
0.824622 0.296450 0.000000
0.866766 0.307946 0.000000
0.918247 0.315620 0.000000
0.967807 0.322431 0.000000
0.999462 0.327507 0.001485
1.011570 0.319928 0.000720
0.000000 0.366049 0.003063
0.002580 0.363227 0.002339
0.053611 0.365163 0.002406
0.113528 0.369462 0.003473
0.178656 0.377487 0.006816
0.260210 0.399334 0.010482
0.344237 0.407804 0.011244
0.444505 0.391713 0.004191
0.673040 0.379055 0.000000
0.828605 0.362735 0.000000
0.905177 0.364596 0.000000
0.939657 0.380412 0.000000
0.960288 0.400428 0.000000
0.992673 0.412805 0.000000
1.000020 0.417203 0.000000
1.011571 0.408430 0.000000
0.000000 0.441954 0.001406
0.001354 0.441014 0.001586
0.048124 0.449862 0.001770
0.113578 0.462747 0.002975
0.182357 0.471295 0.008133
0.260334 0.483515 0.013183
0.352179 0.502144 0.017099
0.444142 0.508824 0.017824
0.558530 0.499571 0.009958
0.773468 0.478842 0.000000
0.913973 0.462800 0.000000
0.989212 0.462214 0.000827
1.000014 0.469922 0.000876
1.000020 0.486222 0.000178
1.000020 0.501762 0.000000
1.011571 0.498646 0.000000
0.000000 0.525947 0.001180
0.001002 0.526794 0.001635
0.047877 0.536909 0.001936
0.115978 0.552920 0.005336
0.190462 0.571369 0.013690
0.272681 0.586891 0.020762
0.361243 0.598461 0.025183
0.454275 0.606194 0.026996
0.545754 0.608487 0.026590
0.664625 0.602003 0.015252
0.856275 0.578825 0.000000
0.982986 0.563515 0.000269
1.000020 0.557862 0.002057
1.000020 0.557988 0.003037
1.000020 0.565461 0.001249
1.011571 0.568793 0.000410
0.000000 0.614701 0.002401
0.002000 0.616756 0.002615
0.054193 0.627458 0.003762
0.123082 0.643291 0.012256
0.197392 0.660635 0.021252
0.280673 0.678155 0.028844
0.367871 0.687985 0.033844
0.459817 0.695139 0.035842
0.552808 0.699944 0.035657
0.643463 0.701015 0.034355
0.761792 0.694176 0.017862
0.921420 0.675335 0.000352
1.000020 0.658522 0.000208
1.000020 0.647942 0.002189
1.000020 0.641739 0.005514
1.011571 0.633479 0.011357
0.000000 0.706603 0.005219
0.006202 0.709013 0.008271
0.063705 0.719529 0.011030
0.131996 0.734082 0.020478
0.205182 0.749726 0.029078
0.286190 0.765241 0.036034
0.373803 0.776734 0.040609
0.463630 0.781211 0.042411
0.555171 0.784942 0.042115
0.644275 0.786886 0.040588
0.733479 0.787147 0.038860
0.845018 0.782363 0.022393
0.976209 0.769247 0.000689
1.000020 0.748935 0.000124
1.000020 0.733536 0.002104
1.011571 0.716253 0.009288
0.000000 0.797707 0.018693
0.023446 0.799882 0.021279
0.079060 0.808227 0.023590
0.145458 0.820305 0.032063
0.216997 0.833288 0.039922
0.296086 0.845649 0.046165
0.383454 0.856707 0.050972
0.472914 0.860988 0.053210
0.563593 0.863640 0.053899
0.653593 0.866259 0.053352
0.738870 0.867185 0.051348
0.824600 0.866618 0.049070
0.916185 0.864765 0.033402
0.996740 0.853194 0.001408
1.000020 0.829582 0.000000
1.011571 0.805292 0.001240
0.005813 0.887529 0.040327
0.053860 0.889225 0.042410
0.109134 0.895533 0.045788
0.171743 0.903494 0.052452
0.239555 0.911141 0.058542
0.316140 0.920019 0.064396
0.402583 0.929658 0.069532
0.493499 0.935827 0.072435
0.581386 0.936158 0.072869
0.667996 0.936047 0.071526
0.752335 0.935500 0.068808
0.831938 0.933672 0.064597
0.902279 0.932684 0.062065
0.975518 0.931754 0.045424
1.000020 0.917982 0.002047
1.011571 0.891815 0.000000
0.039001 0.965799 0.063194
0.088289 0.967890 0.065709
0.146774 0.973436 0.073316
0.207995 0.979254 0.079595
0.274710 0.984471 0.085091
0.347677 0.988780 0.089376
0.427620 0.991740 0.091813
0.513391 0.993948 0.092672
0.598747 0.993423 0.091325
0.681606 0.991143 0.088526
0.761287 0.988505 0.083890
0.838208 0.985188 0.077953
0.903187 0.983581 0.073169
0.959127 0.982924 0.070714
1.000020 0.980664 0.052347
1.011571 0.964129 0.051148
0.046632 0.999937 0.069776
0.064294 1.000020 0.042621
0.139202 1.000020 0.050371
0.207940 1.000020 0.058843
0.276957 1.000020 0.065315
0.349919 1.000020 0.069531
0.427758 1.000020 0.072058
0.512406 1.000020 0.084282
0.597762 1.000020 0.095852
0.677864 1.000020 0.094735
0.756092 1.000020 0.096777
0.831705 1.000020 0.096305
0.896392 1.000020 0.087516
0.948298 1.000081 0.076096
0.993626 1.000020 0.058231
1.011571 1.000020 0.191007
0.000572 0.005050 0.084697
0.062129 0.000847 0.092400
0.118684 0.000354 0.092630
0.177432 0.000000 0.093492
0.228517 0.000000 0.087404
0.286311 0.000000 0.082236
0.352695 0.000000 0.076913
0.432454 0.000000 0.071041
0.514403 0.000000 0.064025
0.592350 0.000000 0.056431
0.670240 0.000000 0.049294
0.746411 0.000000 0.042439
0.809795 0.000000 0.038161
0.858737 0.000000 0.036814
0.901554 0.000000 0.034909
0.918181 0.000000 0.033216
0.000000 0.058696 0.072877
0.033843 0.054350 0.074898
0.107955 0.049388 0.084648
0.164936 0.045469 0.082176
0.213835 0.039950 0.076052
0.270325 0.034825 0.071197
0.338219 0.028878 0.066414
0.418212 0.021029 0.060606
0.499221 0.011790 0.053230
0.577863 0.003455 0.045754
0.656680 0.001702 0.038830
0.733769 0.000811 0.032216
0.799549 0.000309 0.027873
0.850823 0.000143 0.026794
0.895613 0.000195 0.022005
0.928482 0.000000 0.008665
0.000000 0.098720 0.079114
0.036760 0.094022 0.073765
0.095695 0.099248 0.075305
0.161673 0.090192 0.064922
0.211010 0.084124 0.060899
0.263681 0.080187 0.060762
0.331065 0.075525 0.058509
0.409447 0.069203 0.053445
0.489926 0.061330 0.047051
0.571037 0.053608 0.040643
0.651377 0.046607 0.034877
0.729891 0.040053 0.029548
0.798149 0.036535 0.026572
0.851458 0.037317 0.027032
0.895453 0.039446 0.028748
0.934980 0.014448 0.010181
0.000000 0.145224 0.072775
0.039694 0.148009 0.073678
0.089298 0.135357 0.066515
0.160978 0.129370 0.052110
0.231143 0.127772 0.037522
0.293180 0.128169 0.037920
0.357115 0.124097 0.043487
0.425355 0.118495 0.046578
0.504614 0.112090 0.042989
0.586583 0.106037 0.038185
0.666106 0.100654 0.034048
0.743978 0.096005 0.030441
0.810818 0.094586 0.029406
0.864011 0.097107 0.031670
0.908509 0.101474 0.035645
0.950697 0.086330 0.019668
0.000000 0.203900 0.069380
0.032052 0.200008 0.067441
0.084729 0.188950 0.063602
0.128694 0.171936 0.057018
0.207541 0.170196 0.042506
0.342915 0.171742 0.030472
0.396023 0.178072 0.018380
0.473638 0.173023 0.021216
0.549214 0.168277 0.026362
0.621514 0.164498 0.031471
0.698982 0.161053 0.030800
0.773509 0.158941 0.030566
0.836534 0.160559 0.033006
0.887539 0.165221 0.037922
0.932298 0.170749 0.043763
0.974724 0.165413 0.037212
0.000000 0.257476 0.059158
0.021611 0.251194 0.057851
0.076354 0.242844 0.057098
0.126745 0.233585 0.055283
0.175911 0.222903 0.051654
0.272430 0.227625 0.038870
0.452789 0.225863 0.023686
0.528609 0.230130 0.013802
0.588107 0.235469 0.009469
0.666980 0.232975 0.012707
0.744073 0.230880 0.018402
0.813051 0.232241 0.026009
0.870580 0.236993 0.033823
0.919421 0.243849 0.042654
0.963751 0.250135 0.051122
1.003258 0.246394 0.048082
0.000000 0.312525 0.048154
0.010800 0.307929 0.048610
0.067527 0.303098 0.050361
0.121302 0.298469 0.050755
0.179576 0.297399 0.051301
0.244337 0.298741 0.050861
0.352004 0.301522 0.036492
0.561426 0.295767 0.014925
0.676458 0.290581 0.017186
0.724965 0.303142 0.006788
0.782786 0.310753 0.006420
0.849439 0.314892 0.012536
0.904704 0.321656 0.025386
0.953222 0.329451 0.039351
0.995313 0.335561 0.051408
1.011545 0.330059 0.049882
0.000000 0.376774 0.038504
0.003642 0.373830 0.040692
0.059260 0.371724 0.044475
0.115651 0.371101 0.046531
0.178438 0.374996 0.049752
0.250883 0.384037 0.052692
0.334417 0.395762 0.055216
0.446022 0.392249 0.041473
0.669532 0.381254 0.009999
0.805433 0.370521 0.019709
0.864515 0.381128 0.017226
0.893017 0.400188 0.007435
0.933402 0.412720 0.010805
0.981304 0.419563 0.023524
1.000020 0.423951 0.040182
1.011571 0.417252 0.041956
0.000000 0.452204 0.032222
0.002743 0.451327 0.036082
0.054764 0.451836 0.041505
0.114552 0.458213 0.045786
0.185134 0.473027 0.052854
0.260743 0.481899 0.057491
0.346907 0.493954 0.061770
0.442960 0.506910 0.064944
0.560621 0.502427 0.052825
0.775947 0.480778 0.009489
0.903160 0.468560 0.025567
0.966851 0.473441 0.037320
0.987872 0.489744 0.025455
0.999363 0.506508 0.013949
1.000020 0.514173 0.019049
1.011571 0.507435 0.026357
0.000000 0.535063 0.031435
0.002834 0.536187 0.036430
0.056264 0.539167 0.043488
0.116985 0.547364 0.048526
0.190387 0.565406 0.057550
0.273283 0.584399 0.065733
0.361924 0.597775 0.071005
0.454753 0.606049 0.073756
0.548366 0.610788 0.074871
0.666319 0.604942 0.061396
0.861432 0.580127 0.010221
0.976005 0.567665 0.029632
1.000020 0.566188 0.048808
1.000020 0.573881 0.047146
1.000020 0.588097 0.028240
1.011571 0.590573 0.019909
0.000000 0.622717 0.036590
0.004159 0.624861 0.042205
0.063826 0.629664 0.050100
0.124872 0.639134 0.055529
0.198071 0.656204 0.065000
0.280466 0.673921 0.073373
0.369932 0.688764 0.079272
0.460917 0.695468 0.081659
0.554562 0.701053 0.082576
0.645603 0.703825 0.082251
0.763379 0.697053 0.065718
0.927159 0.676609 0.013608
1.000020 0.661929 0.028931
1.000020 0.654691 0.051689
1.000020 0.653668 0.059457
1.011571 0.652405 0.055242
0.000000 0.714082 0.044453
0.012180 0.716283 0.050189
0.074038 0.721890 0.058585
0.134531 0.731117 0.063815
0.206673 0.746481 0.072709
0.286686 0.761750 0.080085
0.375040 0.775587 0.085491
0.465395 0.782331 0.087477
0.556434 0.785914 0.087635
0.646788 0.789146 0.087296
0.735101 0.790233 0.086630
0.846769 0.785412 0.070312
0.980619 0.770685 0.018416
1.000020 0.751595 0.027131
1.000020 0.738846 0.051842
1.011571 0.724744 0.068851
0.000000 0.803459 0.058247
0.028680 0.805572 0.062718
0.089246 0.811585 0.070597
0.148402 0.819181 0.075162
0.218359 0.831196 0.082921
0.296454 0.843314 0.089429
0.383370 0.854771 0.094488
0.475374 0.862764 0.097846
0.565052 0.865273 0.098408
0.654686 0.867740 0.098320
0.741170 0.869616 0.097560
0.825595 0.869212 0.096206
0.917559 0.867220 0.080631
0.997423 0.854002 0.024308
1.000020 0.831195 0.020627
1.011571 0.809090 0.045374
0.007568 0.892704 0.081056
0.057814 0.894051 0.083807
0.117720 0.899393 0.091520
0.176389 0.905230 0.096323
0.243306 0.912807 0.102295
0.317813 0.919928 0.107656
0.402087 0.928374 0.112487
0.494572 0.936542 0.116287
0.583534 0.938106 0.116678
0.669166 0.937595 0.115294
0.753189 0.936943 0.113112
0.833009 0.935211 0.109741
0.902514 0.934109 0.108098
0.975866 0.933019 0.091691
1.000020 0.918120 0.029479
1.011571 0.891861 0.015299
0.041906 0.970376 0.105509
0.090837 0.971562 0.107753
0.153999 0.976172 0.118198
0.213240 0.980722 0.124251
0.278799 0.986017 0.129520
0.350890 0.989932 0.133463
0.429871 0.992872 0.135620
0.514238 0.994237 0.135899
0.600208 0.994442 0.134632
0.682479 0.991968 0.131198
0.761537 0.989010 0.126736
0.838456 0.985672 0.121538
0.903413 0.983934 0.117388
0.958312 0.983176 0.116036
0.999750 0.980880 0.098478
1.011571 0.963422 0.078441
0.049981 1.000020 0.114237
0.056336 1.000031 0.093773
0.087522 1.000020 0.062080
0.176702 1.000020 0.069976
0.257758 1.000020 0.083739
0.338626 1.000020 0.098979
0.424132 1.000020 0.116703
0.512505 1.000020 0.131743
0.598529 1.000020 0.140083
0.678210 1.000020 0.136957
0.755848 1.000020 0.136405
0.831204 1.000020 0.134636
0.895997 1.000020 0.127850
0.947894 1.000081 0.119941
0.992444 1.000020 0.110696
1.011571 1.000020 0.213072
0.000467 0.008979 0.130219
0.062516 0.001944 0.140706
0.117822 0.000976 0.137821
0.175730 0.000000 0.138493
0.236847 0.000000 0.137042
0.288730 0.000000 0.127484
0.342972 0.000000 0.118450
0.413816 0.000000 0.112040
0.497266 0.000000 0.106329
0.578349 0.000000 0.099641
0.658521 0.000000 0.093270
0.736554 0.000000 0.087188
0.802695 0.000000 0.083336
0.853377 0.000000 0.082435
0.897249 0.000000 0.081666
0.914101 0.000000 0.079556
0.000000 0.065055 0.101413
0.035299 0.058036 0.117313
0.102300 0.047419 0.127301
0.165400 0.046470 0.129642
0.223432 0.042180 0.126247
0.275360 0.035871 0.117406
0.329813 0.029196 0.109028
0.398789 0.022067 0.102612
0.481564 0.013585 0.096900
0.562994 0.005006 0.090405
0.644262 0.001886 0.084250
0.723572 0.000946 0.078231
0.792576 0.000579 0.074084
0.845930 0.000511 0.073132
0.891337 0.000351 0.070352
0.925237 0.000000 0.060468
0.000000 0.101237 0.117150
0.015506 0.097037 0.107359
0.067858 0.094055 0.106212
0.152834 0.097933 0.123153
0.217979 0.090648 0.117562
0.271894 0.082663 0.109638
0.327028 0.075008 0.102251
0.392044 0.067486 0.095629
0.473604 0.060119 0.090041
0.557774 0.052730 0.084476
0.640388 0.045779 0.078998
0.721110 0.039426 0.074046
0.792053 0.035656 0.070928
0.847254 0.036162 0.071093
0.892268 0.038298 0.072711
0.933664 0.010956 0.055293
0.000000 0.140287 0.113723
0.027930 0.120413 0.096621
0.073470 0.128219 0.101400
0.137074 0.146780 0.113880
0.211275 0.137273 0.102738
0.274418 0.126737 0.090658
0.331149 0.121096 0.088811
0.393496 0.115629 0.087550
0.468180 0.110452 0.085840
0.554922 0.105852 0.082511
0.639471 0.101517 0.078977
0.721889 0.097611 0.075735
0.795265 0.096167 0.074542
0.853423 0.099228 0.076944
0.906407 0.090121 0.069879
0.948826 0.091754 0.073212
0.000000 0.182310 0.103188
0.031148 0.192916 0.108521
0.085209 0.192306 0.108419
0.136004 0.180910 0.101583
0.219813 0.175665 0.086487
0.285138 0.170025 0.068367
0.358189 0.169787 0.065123
0.428882 0.168982 0.070648
0.502865 0.166691 0.076103
0.579634 0.164148 0.080682
0.660174 0.162156 0.081541
0.742270 0.160606 0.080332
0.814183 0.161959 0.081603
0.871418 0.167092 0.086104
0.925211 0.164269 0.081820
0.969605 0.171708 0.091050
0.000000 0.258502 0.103944
0.022459 0.258023 0.103904
0.080778 0.257182 0.105002
0.128394 0.233180 0.096973
0.173920 0.215308 0.088817
0.286151 0.217219 0.070909
0.415437 0.222056 0.056011
0.483628 0.232571 0.045679
0.563857 0.232626 0.049590
0.638749 0.231979 0.059476
0.709634 0.232333 0.071276
0.779691 0.233744 0.081894
0.845266 0.237943 0.087861
0.899449 0.245153 0.095366
0.952938 0.251327 0.099321
0.995512 0.257543 0.109000
0.000000 0.324554 0.093870
0.011933 0.323804 0.095263
0.071922 0.319395 0.097172
0.127252 0.307049 0.096761
0.177245 0.290595 0.092576
0.231294 0.278951 0.087604
0.363073 0.286406 0.068924
0.549817 0.289960 0.059067
0.622875 0.303084 0.052312
0.683928 0.314078 0.047208
0.763116 0.315527 0.055033
0.834006 0.318736 0.066017
0.887935 0.325400 0.083120
0.935971 0.334608 0.100113
0.985166 0.342685 0.109992
1.011350 0.341537 0.115094
0.000000 0.393260 0.084010
0.004154 0.390674 0.086375
0.064213 0.388069 0.090578
0.123196 0.381918 0.094166
0.178902 0.373598 0.094042
0.246792 0.375938 0.095989
0.315982 0.371513 0.094036
0.442806 0.379375 0.080408
