luts/Colorify_CL_iPhone_Old_Wine_LUT.cube
LUT_3D_SIZE 6
0.000000 0.000000 0.000000
0.180001 0.000000 0.000000
0.375796 0.000000 0.000000
0.610764 0.000000 0.000000
0.818391 0.000000 0.000000
0.921707 0.000000 0.000000
0.000000 0.151380 0.000000
0.156819 0.134600 0.000000
0.429306 0.120203 0.000000
0.657671 0.097492 0.000000
0.848844 0.089558 0.000000
0.965302 0.093489 0.000000
0.000000 0.297279 0.000000
0.121096 0.299497 0.000000
0.352363 0.304889 0.000000
0.839777 0.266401 0.000000
0.932522 0.310910 0.000000
1.011571 0.317262 0.000000
0.000000 0.523027 0.000000
0.115574 0.556050 0.000000
0.360795 0.598425 0.000000
0.664321 0.599273 0.000000
1.000020 0.552484 0.000000
1.011571 0.549753 0.000000
0.000000 0.796160 0.000000
0.145280 0.821727 0.000645
0.383936 0.856968 0.012882
0.653039 0.865264 0.013201
0.915592 0.863067 0.000719
1.011571 0.802787 0.000000
0.052647 0.999825 0.032615
0.225664 1.000020 0.055097
0.437624 1.000020 0.065893
0.679429 1.000020 0.061883
0.897446 1.000020 0.055856
1.011571 1.000020 0.180005
0.000467 0.008979 0.130219
0.175730 0.000000 0.138493
0.342972 0.000000 0.118450
0.578349 0.000000 0.099641
0.802695 0.000000 0.083336
0.914101 0.000000 0.079556
0.000000 0.140287 0.113723
0.137074 0.146780 0.113880
0.331149 0.121096 0.088811
0.554922 0.105852 0.082511
0.795265 0.096167 0.074542
0.948826 0.091754 0.073212
0.000000 0.324554 0.093870
0.127252 0.307049 0.096761
0.363073 0.286406 0.068924
0.683928 0.314078 0.047208
0.887935 0.325400 0.083120
1.011350 0.341537 0.115094
0.000000 0.547717 0.076858
0.127496 0.555102 0.098642
0.359799 0.592669 0.118237
0.669737 0.606979 0.108344
1.000020 0.577957 0.098224
1.011571 0.602650 0.078057
0.000000 0.811512 0.103763
0.160111 0.824896 0.125904
0.382466 0.850143 0.141288
0.656002 0.868694 0.147363
0.919483 0.869564 0.128557
1.011571 0.814174 0.104611
0.052806 1.000020 0.161365
0.177336 1.000020 0.136096
0.424304 1.000020 0.169070
0.679050 1.000020 0.183933
0.896064 1.000020 0.174206
1.011571 1.000020 0.245210
0.000000 0.025238 0.287988
0.168266 0.000668 0.308498
0.353545 0.000000 0.286207
0.561327 0.000000 0.258674
0.772961 0.000000 0.239943
0.897997 0.000000 0.240230
0.000000 0.148990 0.192376
0.092608 0.137475 0.212414
0.345116 0.133066 0.279005
0.546107 0.106264 0.243916
0.774391 0.095328 0.235130
0.944145 0.068082 0.235726
0.000000 0.310165 0.258702
0.106493 0.274105 0.226434
0.310910 0.343772 0.272942
0.614213 0.304564 0.226324
0.858196 0.329980 0.255126
1.008763 0.375396 0.318551
0.000000 0.560276 0.254777
0.143527 0.589667 0.282103
0.368751 0.594711 0.294181
0.736471 0.572400 0.234801
0.950895 0.607108 0.193818
1.011571 0.627546 0.312921
0.000000 0.838380 0.289475
0.175677 0.854955 0.307435
0.398884 0.858952 0.324015
0.649518 0.856488 0.322133
0.951748 0.864681 0.258183
1.011571 0.837183 0.289457
0.057918 1.000020 0.340542
0.207980 1.000020 0.338692
0.429068 1.000020 0.350514
0.681717 1.000020 0.360978
0.894178 1.000020 0.352665
1.011571 0.999839 0.395014
0.000000 0.041754 0.488055
0.156823 0.003833 0.539422
0.342205 0.000000 0.502138
0.584053 0.000000 0.495427
0.779302 0.000000 0.464881
0.889800 0.000000 0.455575
0.000000 0.170763 0.369620
0.105499 0.160623 0.428504
0.292130 0.117319 0.442049
0.582681 0.111082 0.492149
0.778759 0.095865 0.458705
0.937063 0.048279 0.464573
0.000000 0.302000 0.428764
0.043020 0.310576 0.405113
0.206430 0.310537 0.379847
0.606039 0.350245 0.524143
0.827834 0.329729 0.497619
1.008352 0.361963 0.539113
0.000000 0.557229 0.482615
0.120154 0.516952 0.447007
0.325709 0.592391 0.520022
0.575115 0.641847 0.538688
0.895000 0.590268 0.479806
1.011533 0.655992 0.583020
0.000000 0.812142 0.499285
0.173814 0.847065 0.533582
0.403281 0.869234 0.560631
0.671252 0.872239 0.555721
0.966483 0.847578 0.498417
1.011571 0.868260 0.522558
0.061107 1.000020 0.573284
0.210610 1.000020 0.577907
0.447040 1.000020 0.594665
0.680327 1.000020 0.586126
0.890712 0.999560 0.583224
1.011514 0.998776 0.600720
0.000247 0.056032 0.699586
0.142991 0.010389 0.764595
0.344881 0.000000 0.745089
0.542169 0.000000 0.680306
0.794155 0.000000 0.705014
0.900758 0.000000 0.694941
0.000000 0.177905 0.584600
0.109249 0.169790 0.632845
0.314978 0.131923 0.738393
0.512132 0.101198 0.650552
0.805950 0.103073 0.715865
0.934954 0.049021 0.706467
0.000000 0.327070 0.479255
0.043781 0.340609 0.536577
0.228401 0.347838 0.602343
0.507771 0.301919 0.680681
0.853760 0.356506 0.768703
1.005181 0.326885 0.773742
0.000000 0.570432 0.724612
0.107521 0.587930 0.730604
0.217839 0.607180 0.693226
0.434255 0.622767 0.703152
0.873123 0.631930 0.795528
1.011518 0.617368 0.798707
0.021749 0.841911 0.765463
0.173828 0.838233 0.763337
0.359512 0.833005 0.760992
0.573716 0.881380 0.809207
0.856738 0.881536 0.795992
1.011463 0.881033 0.811353
0.075908 1.000020 0.804554
0.097841 1.000020 0.796929
0.378094 1.000020 0.819707
0.671961 1.000020 0.811353
0.891483 0.998420 0.806113
1.011435 0.997558 0.812940
0.000000 0.065254 0.836459
0.131634 0.011933 0.889662
0.332216 0.000000 0.868794
0.560411 0.000000 0.832539
0.703997 0.000000 0.756764
0.895362 0.000000 0.813102
0.000000 0.180194 0.763920
0.111951 0.144379 0.891052
0.322775 0.131450 0.886263
0.567080 0.100855 0.868029
0.754021 0.000826 0.818403
0.938734 0.053764 0.859744
0.000000 0.343709 0.658554
0.000907 0.350789 0.786053
0.351270 0.363883 0.908621
0.609997 0.352046 0.912208
0.830786 0.273922 0.903863
1.011307 0.351409 0.943894
0.000000 0.570637 0.773583
0.000000 0.577463 0.778691
0.004015 0.617733 0.852193
0.649027 0.643334 0.937457
0.872363 0.617314 0.941204
1.011571 0.642546 0.965633
0.000000 0.820957 0.886792
0.140466 0.842923 0.922824
0.388154 0.865325 0.946549
0.603335 0.884141 0.950091
0.886451 0.878402 0.941274
1.011457 0.876854 0.946905
0.096997 1.000020 0.970374
0.211790 1.000020 0.985713
0.432957 1.000020 0.986237
0.676616 1.000020 0.964042
0.890148 0.998473 0.942687
1.011402 0.998364 0.941644
